(Generated by PartKam Version 0.05)

G21 G90 G40

(trou charniere)
G0 Z15
T0 M6
G17
M3
G0 X12.681472081218274 Y105.09644670050761
G1 Z-1.5 F800
G3 X12.195431472081218 Y105.42131979695432 I-1.0609137055837563 J-1.0609137055837563 F1500
G3 X11.621827411167514 Y105.53553299492386 I-0.5736040609137056 J-1.3857868020304567
G3 X11.045685279187818 Y105.42131979695432 I0 J-1.5
G3 X10.560913705583756 Y105.09644670050761 I0.5736040609137056 J-1.3857868020304567
G3 X10.236040609137056 Y104.60913705583756 I1.0609137055837563 J-1.0609137055837563
G3 X10.121827411167512 Y104.03553299492386 I1.3857868020304567 J-0.5736040609137056
G1 X10.121827411167512 Y104.03553299492386
G1 X10.121827411167512 Y104.03553299492386
G3 X10.195431472081218 Y103.57106598984771 I1.5 J0
G3 X10.406091370558375 Y103.15482233502537 I1.4263959390862944 J0.46446700507614214
G3 X10.738578680203046 Y102.82233502538071 I1.2131979695431472 J0.8807106598984772
G3 X11.157360406091371 Y102.60913705583758 I0.8807106598984772 J1.2131979695431472
G3 X11.621827411167514 Y102.53553299492387 I0.46446700507614214 J1.4263959390862944
G3 X12.083756345177665 Y102.60913705583758 I0 J1.5
G3 X12.50253807106599 Y102.82233502538071 I-0.46446700507614214 J1.4263959390862944
G3 X12.835025380710661 Y103.15482233502537 I-0.8807106598984772 J1.2131979695431472
G3 X13.048223350253807 Y103.57106598984771 I-1.2131979695431472 J0.8807106598984772
G3 X13.121827411167512 Y104.03553299492386 I-1.4263959390862944 J0.46446700507614214
G1 X13.121827411167512 Y104.03553299492386
G1 X13.121827411167512 Y104.03553299492386
G3 X13.007614213197968 Y104.60913705583756 I-1.5 J0
G3 X12.680203045685278 Y105.09644670050761 I-1.3857868020304567 J-0.5736040609137056
G1 Z-3 F800
G3 X12.195431472081218 Y105.42131979695432 I-1.0609137055837563 J-1.0609137055837563 F1500
G3 X11.621827411167514 Y105.53553299492386 I-0.5736040609137056 J-1.3857868020304567
G3 X11.045685279187818 Y105.42131979695432 I0 J-1.5
G3 X10.560913705583756 Y105.09644670050761 I0.5736040609137056 J-1.3857868020304567
G3 X10.236040609137056 Y104.60913705583756 I1.0609137055837563 J-1.0609137055837563
G3 X10.121827411167512 Y104.03553299492386 I1.3857868020304567 J-0.5736040609137056
G1 X10.121827411167512 Y104.03553299492386
G1 X10.121827411167512 Y104.03553299492386
G3 X10.195431472081218 Y103.57106598984771 I1.5 J0
G3 X10.406091370558375 Y103.15482233502537 I1.4263959390862944 J0.46446700507614214
G3 X10.738578680203046 Y102.82233502538071 I1.2131979695431472 J0.8807106598984772
G3 X11.157360406091371 Y102.60913705583758 I0.8807106598984772 J1.2131979695431472
G3 X11.621827411167514 Y102.53553299492387 I0.46446700507614214 J1.4263959390862944
G3 X12.083756345177665 Y102.60913705583758 I0 J1.5
G3 X12.50253807106599 Y102.82233502538071 I-0.46446700507614214 J1.4263959390862944
G3 X12.835025380710661 Y103.15482233502537 I-0.8807106598984772 J1.2131979695431472
G3 X13.048223350253807 Y103.57106598984771 I-1.2131979695431472 J0.8807106598984772
G3 X13.121827411167512 Y104.03553299492386 I-1.4263959390862944 J0.46446700507614214
G1 X13.121827411167512 Y104.03553299492386
G1 X13.121827411167512 Y104.03553299492386
G3 X13.007614213197968 Y104.60913705583756 I-1.5 J0
G3 X12.680203045685278 Y105.09644670050761 I-1.3857868020304567 J-0.5736040609137056
G1 Z-4.5 F800
G3 X12.195431472081218 Y105.42131979695432 I-1.0609137055837563 J-1.0609137055837563 F1500
G3 X11.621827411167514 Y105.53553299492386 I-0.5736040609137056 J-1.3857868020304567
G3 X11.045685279187818 Y105.42131979695432 I0 J-1.5
G3 X10.560913705583756 Y105.09644670050761 I0.5736040609137056 J-1.3857868020304567
G3 X10.236040609137056 Y104.60913705583756 I1.0609137055837563 J-1.0609137055837563
G3 X10.121827411167512 Y104.03553299492386 I1.3857868020304567 J-0.5736040609137056
G1 X10.121827411167512 Y104.03553299492386
G1 X10.121827411167512 Y104.03553299492386
G3 X10.195431472081218 Y103.57106598984771 I1.5 J0
G3 X10.406091370558375 Y103.15482233502537 I1.4263959390862944 J0.46446700507614214
G3 X10.738578680203046 Y102.82233502538071 I1.2131979695431472 J0.8807106598984772
G3 X11.157360406091371 Y102.60913705583758 I0.8807106598984772 J1.2131979695431472
G3 X11.621827411167514 Y102.53553299492387 I0.46446700507614214 J1.4263959390862944
G3 X12.083756345177665 Y102.60913705583758 I0 J1.5
G3 X12.50253807106599 Y102.82233502538071 I-0.46446700507614214 J1.4263959390862944
G3 X12.835025380710661 Y103.15482233502537 I-0.8807106598984772 J1.2131979695431472
G3 X13.048223350253807 Y103.57106598984771 I-1.2131979695431472 J0.8807106598984772
G3 X13.121827411167512 Y104.03553299492386 I-1.4263959390862944 J0.46446700507614214
G1 X13.121827411167512 Y104.03553299492386
G1 X13.121827411167512 Y104.03553299492386
G3 X13.007614213197968 Y104.60913705583756 I-1.5 J0
G3 X12.680203045685278 Y105.09644670050761 I-1.3857868020304567 J-0.5736040609137056
G1 Z-6 F800
G3 X12.195431472081218 Y105.42131979695432 I-1.0609137055837563 J-1.0609137055837563 F1500
G3 X11.621827411167514 Y105.53553299492386 I-0.5736040609137056 J-1.3857868020304567
G3 X11.045685279187818 Y105.42131979695432 I0 J-1.5
G3 X10.560913705583756 Y105.09644670050761 I0.5736040609137056 J-1.3857868020304567
G3 X10.236040609137056 Y104.60913705583756 I1.0609137055837563 J-1.0609137055837563
G3 X10.121827411167512 Y104.03553299492386 I1.3857868020304567 J-0.5736040609137056
G1 X10.121827411167512 Y104.03553299492386
G1 X10.121827411167512 Y104.03553299492386
G3 X10.195431472081218 Y103.57106598984771 I1.5 J0
G3 X10.406091370558375 Y103.15482233502537 I1.4263959390862944 J0.46446700507614214
G3 X10.738578680203046 Y102.82233502538071 I1.2131979695431472 J0.8807106598984772
G3 X11.157360406091371 Y102.60913705583758 I0.8807106598984772 J1.2131979695431472
G3 X11.621827411167514 Y102.53553299492387 I0.46446700507614214 J1.4263959390862944
G3 X12.083756345177665 Y102.60913705583758 I0 J1.5
G3 X12.50253807106599 Y102.82233502538071 I-0.46446700507614214 J1.4263959390862944
G3 X12.835025380710661 Y103.15482233502537 I-0.8807106598984772 J1.2131979695431472
G3 X13.048223350253807 Y103.57106598984771 I-1.2131979695431472 J0.8807106598984772
G3 X13.121827411167512 Y104.03553299492386 I-1.4263959390862944 J0.46446700507614214
G1 X13.121827411167512 Y104.03553299492386
G1 X13.121827411167512 Y104.03553299492386
G3 X13.007614213197968 Y104.60913705583756 I-1.5 J0
G3 X12.680203045685278 Y105.09644670050761 I-1.3857868020304567 J-0.5736040609137056
G1 Z-7 F800
G3 X12.195431472081218 Y105.42131979695432 I-1.0609137055837563 J-1.0609137055837563 F1500
G3 X11.621827411167514 Y105.53553299492386 I-0.5736040609137056 J-1.3857868020304567
G3 X11.045685279187818 Y105.42131979695432 I0 J-1.5
G3 X10.560913705583756 Y105.09644670050761 I0.5736040609137056 J-1.3857868020304567
G3 X10.236040609137056 Y104.60913705583756 I1.0609137055837563 J-1.0609137055837563
G3 X10.121827411167512 Y104.03553299492386 I1.3857868020304567 J-0.5736040609137056
G1 X10.121827411167512 Y104.03553299492386
G1 X10.121827411167512 Y104.03553299492386
G3 X10.195431472081218 Y103.57106598984771 I1.5 J0
G3 X10.406091370558375 Y103.15482233502537 I1.4263959390862944 J0.46446700507614214
G3 X10.738578680203046 Y102.82233502538071 I1.2131979695431472 J0.8807106598984772
G3 X11.157360406091371 Y102.60913705583758 I0.8807106598984772 J1.2131979695431472
G3 X11.621827411167514 Y102.53553299492387 I0.46446700507614214 J1.4263959390862944
G3 X12.083756345177665 Y102.60913705583758 I0 J1.5
G3 X12.50253807106599 Y102.82233502538071 I-0.46446700507614214 J1.4263959390862944
G3 X12.835025380710661 Y103.15482233502537 I-0.8807106598984772 J1.2131979695431472
G3 X13.048223350253807 Y103.57106598984771 I-1.2131979695431472 J0.8807106598984772
G3 X13.121827411167512 Y104.03553299492386 I-1.4263959390862944 J0.46446700507614214
G1 X13.121827411167512 Y104.03553299492386
G1 X13.121827411167512 Y104.03553299492386
G3 X13.007614213197968 Y104.60913705583756 I-1.5 J0
G3 X12.680203045685278 Y105.09644670050761 I-1.3857868020304567 J-0.5736040609137056
G0 Z15
G0 X240.0477157360406 Y104.50050761421319
G1 Z-1.5 F800
G3 X239.83502538071065 Y104.91878172588832 I-1.4263959390862944 J-0.4619289340101523 F1500
G3 X239.502538071066 Y105.251269035533 I-1.2131979695431472 J-0.8807106598984772
G3 X239.08375634517768 Y105.46446700507614 I-0.883248730964467 J-1.2131979695431472
G3 X238.62182741116752 Y105.53807106598984 I-0.46446700507614214 J-1.4263959390862944
G3 X238.15736040609139 Y105.46446700507614 I0 J-1.5
G3 X237.73857868020303 Y105.251269035533 I0.46446700507614214 J-1.4263959390862944
G3 X237.40609137055839 Y104.91878172588832 I0.883248730964467 J-1.2131979695431472
G3 X237.19289340101523 Y104.5 I1.2131979695431472 J-0.8807106598984772
G3 X237.12182741116752 Y104.03807106598984 I1.4263959390862944 J-0.4619289340101523
G1 X237.12182741116752 Y104.03553299492386
G1 X237.12182741116752 Y104.03299492385786
G3 X237.19289340101523 Y103.57106598984771 I1.5 J0
G3 X237.40609137055839 Y103.15228426395939 I1.4263959390862944 J0.4619289340101523
G3 X237.73857868020303 Y102.81979695431473 I1.2131979695431472 J0.8807106598984772
G3 X238.15736040609139 Y102.60659898477158 I0.883248730964467 J1.2131979695431472
G3 X238.62182741116752 Y102.53299492385787 I0.46446700507614214 J1.4263959390862944
G3 X239.08375634517768 Y102.60659898477158 I0 J1.5
G3 X239.502538071066 Y102.81979695431473 I-0.46446700507614214 J1.4263959390862944
G3 X239.83502538071065 Y103.15228426395939 I-0.883248730964467 J1.2131979695431472
G3 X240.0482233502538 Y103.57106598984771 I-1.2131979695431472 J0.8807106598984772
G3 X240.12182741116754 Y104.03299492385786 I-1.4263959390862944 J0.4619289340101523
G1 X240.12182741116754 Y104.03553299492386
G1 X240.12182741116754 Y104.03807106598984
G3 X240.0482233502538 Y104.5 I-1.5 J0
G1 Z-3 F800
G3 X239.83502538071065 Y104.91878172588832 I-1.4263959390862944 J-0.4619289340101523 F1500
G3 X239.502538071066 Y105.251269035533 I-1.2131979695431472 J-0.8807106598984772
G3 X239.08375634517768 Y105.46446700507614 I-0.883248730964467 J-1.2131979695431472
G3 X238.62182741116752 Y105.53807106598984 I-0.46446700507614214 J-1.4263959390862944
G3 X238.15736040609139 Y105.46446700507614 I0 J-1.5
G3 X237.73857868020303 Y105.251269035533 I0.46446700507614214 J-1.4263959390862944
G3 X237.40609137055839 Y104.91878172588832 I0.883248730964467 J-1.2131979695431472
G3 X237.19289340101523 Y104.5 I1.2131979695431472 J-0.8807106598984772
G3 X237.12182741116752 Y104.03807106598984 I1.4263959390862944 J-0.4619289340101523
G1 X237.12182741116752 Y104.03553299492386
G1 X237.12182741116752 Y104.03299492385786
G3 X237.19289340101523 Y103.57106598984771 I1.5 J0
G3 X237.40609137055839 Y103.15228426395939 I1.4263959390862944 J0.4619289340101523
G3 X237.73857868020303 Y102.81979695431473 I1.2131979695431472 J0.8807106598984772
G3 X238.15736040609139 Y102.60659898477158 I0.883248730964467 J1.2131979695431472
G3 X238.62182741116752 Y102.53299492385787 I0.46446700507614214 J1.4263959390862944
G3 X239.08375634517768 Y102.60659898477158 I0 J1.5
G3 X239.502538071066 Y102.81979695431473 I-0.46446700507614214 J1.4263959390862944
G3 X239.83502538071065 Y103.15228426395939 I-0.883248730964467 J1.2131979695431472
G3 X240.0482233502538 Y103.57106598984771 I-1.2131979695431472 J0.8807106598984772
G3 X240.12182741116754 Y104.03299492385786 I-1.4263959390862944 J0.4619289340101523
G1 X240.12182741116754 Y104.03553299492386
G1 X240.12182741116754 Y104.03807106598984
G3 X240.0482233502538 Y104.5 I-1.5 J0
G1 Z-4.5 F800
G3 X239.83502538071065 Y104.91878172588832 I-1.4263959390862944 J-0.4619289340101523 F1500
G3 X239.502538071066 Y105.251269035533 I-1.2131979695431472 J-0.8807106598984772
G3 X239.08375634517768 Y105.46446700507614 I-0.883248730964467 J-1.2131979695431472
G3 X238.62182741116752 Y105.53807106598984 I-0.46446700507614214 J-1.4263959390862944
G3 X238.15736040609139 Y105.46446700507614 I0 J-1.5
G3 X237.73857868020303 Y105.251269035533 I0.46446700507614214 J-1.4263959390862944
G3 X237.40609137055839 Y104.91878172588832 I0.883248730964467 J-1.2131979695431472
G3 X237.19289340101523 Y104.5 I1.2131979695431472 J-0.8807106598984772
G3 X237.12182741116752 Y104.03807106598984 I1.4263959390862944 J-0.4619289340101523
G1 X237.12182741116752 Y104.03553299492386
G1 X237.12182741116752 Y104.03299492385786
G3 X237.19289340101523 Y103.57106598984771 I1.5 J0
G3 X237.40609137055839 Y103.15228426395939 I1.4263959390862944 J0.4619289340101523
G3 X237.73857868020303 Y102.81979695431473 I1.2131979695431472 J0.8807106598984772
G3 X238.15736040609139 Y102.60659898477158 I0.883248730964467 J1.2131979695431472
G3 X238.62182741116752 Y102.53299492385787 I0.46446700507614214 J1.4263959390862944
G3 X239.08375634517768 Y102.60659898477158 I0 J1.5
G3 X239.502538071066 Y102.81979695431473 I-0.46446700507614214 J1.4263959390862944
G3 X239.83502538071065 Y103.15228426395939 I-0.883248730964467 J1.2131979695431472
G3 X240.0482233502538 Y103.57106598984771 I-1.2131979695431472 J0.8807106598984772
G3 X240.12182741116754 Y104.03299492385786 I-1.4263959390862944 J0.4619289340101523
G1 X240.12182741116754 Y104.03553299492386
G1 X240.12182741116754 Y104.03807106598984
G3 X240.0482233502538 Y104.5 I-1.5 J0
G1 Z-6 F800
G3 X239.83502538071065 Y104.91878172588832 I-1.4263959390862944 J-0.4619289340101523 F1500
G3 X239.502538071066 Y105.251269035533 I-1.2131979695431472 J-0.8807106598984772
G3 X239.08375634517768 Y105.46446700507614 I-0.883248730964467 J-1.2131979695431472
G3 X238.62182741116752 Y105.53807106598984 I-0.46446700507614214 J-1.4263959390862944
G3 X238.15736040609139 Y105.46446700507614 I0 J-1.5
G3 X237.73857868020303 Y105.251269035533 I0.46446700507614214 J-1.4263959390862944
G3 X237.40609137055839 Y104.91878172588832 I0.883248730964467 J-1.2131979695431472
G3 X237.19289340101523 Y104.5 I1.2131979695431472 J-0.8807106598984772
G3 X237.12182741116752 Y104.03807106598984 I1.4263959390862944 J-0.4619289340101523
G1 X237.12182741116752 Y104.03553299492386
G1 X237.12182741116752 Y104.03299492385786
G3 X237.19289340101523 Y103.57106598984771 I1.5 J0
G3 X237.40609137055839 Y103.15228426395939 I1.4263959390862944 J0.4619289340101523
G3 X237.73857868020303 Y102.81979695431473 I1.2131979695431472 J0.8807106598984772
G3 X238.15736040609139 Y102.60659898477158 I0.883248730964467 J1.2131979695431472
G3 X238.62182741116752 Y102.53299492385787 I0.46446700507614214 J1.4263959390862944
G3 X239.08375634517768 Y102.60659898477158 I0 J1.5
G3 X239.502538071066 Y102.81979695431473 I-0.46446700507614214 J1.4263959390862944
G3 X239.83502538071065 Y103.15228426395939 I-0.883248730964467 J1.2131979695431472
G3 X240.0482233502538 Y103.57106598984771 I-1.2131979695431472 J0.8807106598984772
G3 X240.12182741116754 Y104.03299492385786 I-1.4263959390862944 J0.4619289340101523
G1 X240.12182741116754 Y104.03553299492386
G1 X240.12182741116754 Y104.03807106598984
G3 X240.0482233502538 Y104.5 I-1.5 J0
G1 Z-7 F800
G3 X239.83502538071065 Y104.91878172588832 I-1.4263959390862944 J-0.4619289340101523 F1500
G3 X239.502538071066 Y105.251269035533 I-1.2131979695431472 J-0.8807106598984772
G3 X239.08375634517768 Y105.46446700507614 I-0.883248730964467 J-1.2131979695431472
G3 X238.62182741116752 Y105.53807106598984 I-0.46446700507614214 J-1.4263959390862944
G3 X238.15736040609139 Y105.46446700507614 I0 J-1.5
G3 X237.73857868020303 Y105.251269035533 I0.46446700507614214 J-1.4263959390862944
G3 X237.40609137055839 Y104.91878172588832 I0.883248730964467 J-1.2131979695431472
G3 X237.19289340101523 Y104.5 I1.2131979695431472 J-0.8807106598984772
G3 X237.12182741116752 Y104.03807106598984 I1.4263959390862944 J-0.4619289340101523
G1 X237.12182741116752 Y104.03553299492386
G1 X237.12182741116752 Y104.03299492385786
G3 X237.19289340101523 Y103.57106598984771 I1.5 J0
G3 X237.40609137055839 Y103.15228426395939 I1.4263959390862944 J0.4619289340101523
G3 X237.73857868020303 Y102.81979695431473 I1.2131979695431472 J0.8807106598984772
G3 X238.15736040609139 Y102.60659898477158 I0.883248730964467 J1.2131979695431472
G3 X238.62182741116752 Y102.53299492385787 I0.46446700507614214 J1.4263959390862944
G3 X239.08375634517768 Y102.60659898477158 I0 J1.5
G3 X239.502538071066 Y102.81979695431473 I-0.46446700507614214 J1.4263959390862944
G3 X239.83502538071065 Y103.15228426395939 I-0.883248730964467 J1.2131979695431472
G3 X240.0482233502538 Y103.57106598984771 I-1.2131979695431472 J0.8807106598984772
G3 X240.12182741116754 Y104.03299492385786 I-1.4263959390862944 J0.4619289340101523
G1 X240.12182741116754 Y104.03553299492386
G1 X240.12182741116754 Y104.03807106598984
G3 X240.0482233502538 Y104.5 I-1.5 J0
G0 Z15
G0 X37.19390862944162 Y103.57081218274112
G1 Z-1.5 F800
G3 X37.40609137055837 Y103.15228426395939 I1.4263959390862944 J0.4619289340101523 F1500
G3 X37.73857868020305 Y102.81979695431473 I1.2131979695431472 J0.8807106598984772
G3 X38.15736040609137 Y102.60659898477158 I0.883248730964467 J1.2131979695431472
G3 X38.621827411167516 Y102.53299492385787 I0.46446700507614214 J1.4263959390862944
G3 X39.08375634517767 Y102.60659898477158 I0 J1.5
G3 X39.50253807106599 Y102.81979695431473 I-0.46446700507614214 J1.4263959390862944
G3 X39.83502538071066 Y103.15228426395939 I-0.883248730964467 J1.2131979695431472
G3 X40.04822335025381 Y103.57106598984771 I-1.2131979695431472 J0.8807106598984772
G3 X40.121827411167516 Y104.03299492385786 I-1.4263959390862944 J0.4619289340101523
G1 X40.121827411167516 Y104.03553299492386
G1 X40.121827411167516 Y104.03807106598984
G3 X40.04822335025381 Y104.5 I-1.5 J0
G3 X39.83502538071066 Y104.91878172588832 I-1.4263959390862944 J-0.4619289340101523
G3 X39.50253807106599 Y105.251269035533 I-1.2131979695431472 J-0.8807106598984772
G3 X39.08375634517767 Y105.46446700507614 I-0.883248730964467 J-1.2131979695431472
G3 X38.621827411167516 Y105.53807106598984 I-0.46446700507614214 J-1.4263959390862944
G3 X38.15736040609137 Y105.46446700507614 I0 J-1.5
G3 X37.73857868020305 Y105.251269035533 I0.46446700507614214 J-1.4263959390862944
G3 X37.40609137055837 Y104.91878172588832 I0.883248730964467 J-1.2131979695431472
G3 X37.192893401015226 Y104.5 I1.2131979695431472 J-0.8807106598984772
G3 X37.121827411167516 Y104.03807106598984 I1.4263959390862944 J-0.4619289340101523
G1 X37.121827411167516 Y104.03553299492386
G1 X37.121827411167516 Y104.03299492385786
G3 X37.192893401015226 Y103.57106598984771 I1.5 J0
G1 Z-3 F800
G3 X37.40609137055837 Y103.15228426395939 I1.4263959390862944 J0.4619289340101523 F1500
G3 X37.73857868020305 Y102.81979695431473 I1.2131979695431472 J0.8807106598984772
G3 X38.15736040609137 Y102.60659898477158 I0.883248730964467 J1.2131979695431472
G3 X38.621827411167516 Y102.53299492385787 I0.46446700507614214 J1.4263959390862944
G3 X39.08375634517767 Y102.60659898477158 I0 J1.5
G3 X39.50253807106599 Y102.81979695431473 I-0.46446700507614214 J1.4263959390862944
G3 X39.83502538071066 Y103.15228426395939 I-0.883248730964467 J1.2131979695431472
G3 X40.04822335025381 Y103.57106598984771 I-1.2131979695431472 J0.8807106598984772
G3 X40.121827411167516 Y104.03299492385786 I-1.4263959390862944 J0.4619289340101523
G1 X40.121827411167516 Y104.03553299492386
G1 X40.121827411167516 Y104.03807106598984
G3 X40.04822335025381 Y104.5 I-1.5 J0
G3 X39.83502538071066 Y104.91878172588832 I-1.4263959390862944 J-0.4619289340101523
G3 X39.50253807106599 Y105.251269035533 I-1.2131979695431472 J-0.8807106598984772
G3 X39.08375634517767 Y105.46446700507614 I-0.883248730964467 J-1.2131979695431472
G3 X38.621827411167516 Y105.53807106598984 I-0.46446700507614214 J-1.4263959390862944
G3 X38.15736040609137 Y105.46446700507614 I0 J-1.5
G3 X37.73857868020305 Y105.251269035533 I0.46446700507614214 J-1.4263959390862944
G3 X37.40609137055837 Y104.91878172588832 I0.883248730964467 J-1.2131979695431472
G3 X37.192893401015226 Y104.5 I1.2131979695431472 J-0.8807106598984772
G3 X37.121827411167516 Y104.03807106598984 I1.4263959390862944 J-0.4619289340101523
G1 X37.121827411167516 Y104.03553299492386
G1 X37.121827411167516 Y104.03299492385786
G3 X37.192893401015226 Y103.57106598984771 I1.5 J0
G1 Z-4.5 F800
G3 X37.40609137055837 Y103.15228426395939 I1.4263959390862944 J0.4619289340101523 F1500
G3 X37.73857868020305 Y102.81979695431473 I1.2131979695431472 J0.8807106598984772
G3 X38.15736040609137 Y102.60659898477158 I0.883248730964467 J1.2131979695431472
G3 X38.621827411167516 Y102.53299492385787 I0.46446700507614214 J1.4263959390862944
G3 X39.08375634517767 Y102.60659898477158 I0 J1.5
G3 X39.50253807106599 Y102.81979695431473 I-0.46446700507614214 J1.4263959390862944
G3 X39.83502538071066 Y103.15228426395939 I-0.883248730964467 J1.2131979695431472
G3 X40.04822335025381 Y103.57106598984771 I-1.2131979695431472 J0.8807106598984772
G3 X40.121827411167516 Y104.03299492385786 I-1.4263959390862944 J0.4619289340101523
G1 X40.121827411167516 Y104.03553299492386
G1 X40.121827411167516 Y104.03807106598984
G3 X40.04822335025381 Y104.5 I-1.5 J0
G3 X39.83502538071066 Y104.91878172588832 I-1.4263959390862944 J-0.4619289340101523
G3 X39.50253807106599 Y105.251269035533 I-1.2131979695431472 J-0.8807106598984772
G3 X39.08375634517767 Y105.46446700507614 I-0.883248730964467 J-1.2131979695431472
G3 X38.621827411167516 Y105.53807106598984 I-0.46446700507614214 J-1.4263959390862944
G3 X38.15736040609137 Y105.46446700507614 I0 J-1.5
G3 X37.73857868020305 Y105.251269035533 I0.46446700507614214 J-1.4263959390862944
G3 X37.40609137055837 Y104.91878172588832 I0.883248730964467 J-1.2131979695431472
G3 X37.192893401015226 Y104.5 I1.2131979695431472 J-0.8807106598984772
G3 X37.121827411167516 Y104.03807106598984 I1.4263959390862944 J-0.4619289340101523
G1 X37.121827411167516 Y104.03553299492386
G1 X37.121827411167516 Y104.03299492385786
G3 X37.192893401015226 Y103.57106598984771 I1.5 J0
G1 Z-6 F800
G3 X37.40609137055837 Y103.15228426395939 I1.4263959390862944 J0.4619289340101523 F1500
G3 X37.73857868020305 Y102.81979695431473 I1.2131979695431472 J0.8807106598984772
G3 X38.15736040609137 Y102.60659898477158 I0.883248730964467 J1.2131979695431472
G3 X38.621827411167516 Y102.53299492385787 I0.46446700507614214 J1.4263959390862944
G3 X39.08375634517767 Y102.60659898477158 I0 J1.5
G3 X39.50253807106599 Y102.81979695431473 I-0.46446700507614214 J1.4263959390862944
G3 X39.83502538071066 Y103.15228426395939 I-0.883248730964467 J1.2131979695431472
G3 X40.04822335025381 Y103.57106598984771 I-1.2131979695431472 J0.8807106598984772
G3 X40.121827411167516 Y104.03299492385786 I-1.4263959390862944 J0.4619289340101523
G1 X40.121827411167516 Y104.03553299492386
G1 X40.121827411167516 Y104.03807106598984
G3 X40.04822335025381 Y104.5 I-1.5 J0
G3 X39.83502538071066 Y104.91878172588832 I-1.4263959390862944 J-0.4619289340101523
G3 X39.50253807106599 Y105.251269035533 I-1.2131979695431472 J-0.8807106598984772
G3 X39.08375634517767 Y105.46446700507614 I-0.883248730964467 J-1.2131979695431472
G3 X38.621827411167516 Y105.53807106598984 I-0.46446700507614214 J-1.4263959390862944
G3 X38.15736040609137 Y105.46446700507614 I0 J-1.5
G3 X37.73857868020305 Y105.251269035533 I0.46446700507614214 J-1.4263959390862944
G3 X37.40609137055837 Y104.91878172588832 I0.883248730964467 J-1.2131979695431472
G3 X37.192893401015226 Y104.5 I1.2131979695431472 J-0.8807106598984772
G3 X37.121827411167516 Y104.03807106598984 I1.4263959390862944 J-0.4619289340101523
G1 X37.121827411167516 Y104.03553299492386
G1 X37.121827411167516 Y104.03299492385786
G3 X37.192893401015226 Y103.57106598984771 I1.5 J0
G1 Z-7 F800
G3 X37.40609137055837 Y103.15228426395939 I1.4263959390862944 J0.4619289340101523 F1500
G3 X37.73857868020305 Y102.81979695431473 I1.2131979695431472 J0.8807106598984772
G3 X38.15736040609137 Y102.60659898477158 I0.883248730964467 J1.2131979695431472
G3 X38.621827411167516 Y102.53299492385787 I0.46446700507614214 J1.4263959390862944
G3 X39.08375634517767 Y102.60659898477158 I0 J1.5
G3 X39.50253807106599 Y102.81979695431473 I-0.46446700507614214 J1.4263959390862944
G3 X39.83502538071066 Y103.15228426395939 I-0.883248730964467 J1.2131979695431472
G3 X40.04822335025381 Y103.57106598984771 I-1.2131979695431472 J0.8807106598984772
G3 X40.121827411167516 Y104.03299492385786 I-1.4263959390862944 J0.4619289340101523
G1 X40.121827411167516 Y104.03553299492386
G1 X40.121827411167516 Y104.03807106598984
G3 X40.04822335025381 Y104.5 I-1.5 J0
G3 X39.83502538071066 Y104.91878172588832 I-1.4263959390862944 J-0.4619289340101523
G3 X39.50253807106599 Y105.251269035533 I-1.2131979695431472 J-0.8807106598984772
G3 X39.08375634517767 Y105.46446700507614 I-0.883248730964467 J-1.2131979695431472
G3 X38.621827411167516 Y105.53807106598984 I-0.46446700507614214 J-1.4263959390862944
G3 X38.15736040609137 Y105.46446700507614 I0 J-1.5
G3 X37.73857868020305 Y105.251269035533 I0.46446700507614214 J-1.4263959390862944
G3 X37.40609137055837 Y104.91878172588832 I0.883248730964467 J-1.2131979695431472
G3 X37.192893401015226 Y104.5 I1.2131979695431472 J-0.8807106598984772
G3 X37.121827411167516 Y104.03807106598984 I1.4263959390862944 J-0.4619289340101523
G1 X37.121827411167516 Y104.03553299492386
G1 X37.121827411167516 Y104.03299492385786
G3 X37.192893401015226 Y103.57106598984771 I1.5 J0
G0 Z15
G0 X213.047461928934 Y104.4992385786802
G1 Z-1.5 F800
G3 X212.83502538071065 Y104.91624365482232 I-1.4263959390862944 J-0.46446700507614214 F1500
G3 X212.502538071066 Y105.248730964467 I-1.2131979695431472 J-0.8807106598984772
G3 X212.08375634517765 Y105.46192893401015 I-0.8807106598984772 J-1.2131979695431472
G3 X211.62182741116752 Y105.53553299492386 I-0.46446700507614214 J-1.4263959390862944
G3 X211.15736040609136 Y105.46192893401015 I0 J-1.5
G3 X210.73857868020303 Y105.248730964467 I0.46446700507614214 J-1.4263959390862944
G3 X210.40609137055839 Y104.91624365482232 I0.8807106598984772 J-1.2131979695431472
G3 X210.19543147208122 Y104.5 I1.2131979695431472 J-0.8807106598984772
G3 X210.12182741116754 Y104.03553299492386 I1.4263959390862944 J-0.46446700507614214
G1 X210.12182741116754 Y104.03553299492386
G1 X210.12182741116754 Y104.03553299492386
G3 X210.19543147208122 Y103.57106598984771 I1.5 J0
G3 X210.40609137055839 Y103.15482233502537 I1.4263959390862944 J0.46446700507614214
G3 X210.73857868020303 Y102.82233502538071 I1.2131979695431472 J0.8807106598984772
G3 X211.15736040609136 Y102.60913705583758 I0.8807106598984772 J1.2131979695431472
G3 X211.62182741116752 Y102.53553299492387 I0.46446700507614214 J1.4263959390862944
G3 X212.08375634517765 Y102.60913705583758 I0 J1.5
G3 X212.502538071066 Y102.82233502538071 I-0.46446700507614214 J1.4263959390862944
G3 X212.83502538071065 Y103.15482233502537 I-0.8807106598984772 J1.2131979695431472
G3 X213.0482233502538 Y103.57106598984771 I-1.2131979695431472 J0.8807106598984772
G3 X213.1218274111675 Y104.03553299492386 I-1.4263959390862944 J0.46446700507614214
G1 X213.1218274111675 Y104.03553299492386
G1 X213.1218274111675 Y104.03553299492386
G3 X213.0482233502538 Y104.5 I-1.5 J0
G1 Z-3 F800
G3 X212.83502538071065 Y104.91624365482232 I-1.4263959390862944 J-0.46446700507614214 F1500
G3 X212.502538071066 Y105.248730964467 I-1.2131979695431472 J-0.8807106598984772
G3 X212.08375634517765 Y105.46192893401015 I-0.8807106598984772 J-1.2131979695431472
G3 X211.62182741116752 Y105.53553299492386 I-0.46446700507614214 J-1.4263959390862944
G3 X211.15736040609136 Y105.46192893401015 I0 J-1.5
G3 X210.73857868020303 Y105.248730964467 I0.46446700507614214 J-1.4263959390862944
G3 X210.40609137055839 Y104.91624365482232 I0.8807106598984772 J-1.2131979695431472
G3 X210.19543147208122 Y104.5 I1.2131979695431472 J-0.8807106598984772
G3 X210.12182741116754 Y104.03553299492386 I1.4263959390862944 J-0.46446700507614214
G1 X210.12182741116754 Y104.03553299492386
G1 X210.12182741116754 Y104.03553299492386
G3 X210.19543147208122 Y103.57106598984771 I1.5 J0
G3 X210.40609137055839 Y103.15482233502537 I1.4263959390862944 J0.46446700507614214
G3 X210.73857868020303 Y102.82233502538071 I1.2131979695431472 J0.8807106598984772
G3 X211.15736040609136 Y102.60913705583758 I0.8807106598984772 J1.2131979695431472
G3 X211.62182741116752 Y102.53553299492387 I0.46446700507614214 J1.4263959390862944
G3 X212.08375634517765 Y102.60913705583758 I0 J1.5
G3 X212.502538071066 Y102.82233502538071 I-0.46446700507614214 J1.4263959390862944
G3 X212.83502538071065 Y103.15482233502537 I-0.8807106598984772 J1.2131979695431472
G3 X213.0482233502538 Y103.57106598984771 I-1.2131979695431472 J0.8807106598984772
G3 X213.1218274111675 Y104.03553299492386 I-1.4263959390862944 J0.46446700507614214
G1 X213.1218274111675 Y104.03553299492386
G1 X213.1218274111675 Y104.03553299492386
G3 X213.0482233502538 Y104.5 I-1.5 J0
G1 Z-4.5 F800
G3 X212.83502538071065 Y104.91624365482232 I-1.4263959390862944 J-0.46446700507614214 F1500
G3 X212.502538071066 Y105.248730964467 I-1.2131979695431472 J-0.8807106598984772
G3 X212.08375634517765 Y105.46192893401015 I-0.8807106598984772 J-1.2131979695431472
G3 X211.62182741116752 Y105.53553299492386 I-0.46446700507614214 J-1.4263959390862944
G3 X211.15736040609136 Y105.46192893401015 I0 J-1.5
G3 X210.73857868020303 Y105.248730964467 I0.46446700507614214 J-1.4263959390862944
G3 X210.40609137055839 Y104.91624365482232 I0.8807106598984772 J-1.2131979695431472
G3 X210.19543147208122 Y104.5 I1.2131979695431472 J-0.8807106598984772
G3 X210.12182741116754 Y104.03553299492386 I1.4263959390862944 J-0.46446700507614214
G1 X210.12182741116754 Y104.03553299492386
G1 X210.12182741116754 Y104.03553299492386
G3 X210.19543147208122 Y103.57106598984771 I1.5 J0
G3 X210.40609137055839 Y103.15482233502537 I1.4263959390862944 J0.46446700507614214
G3 X210.73857868020303 Y102.82233502538071 I1.2131979695431472 J0.8807106598984772
G3 X211.15736040609136 Y102.60913705583758 I0.8807106598984772 J1.2131979695431472
G3 X211.62182741116752 Y102.53553299492387 I0.46446700507614214 J1.4263959390862944
G3 X212.08375634517765 Y102.60913705583758 I0 J1.5
G3 X212.502538071066 Y102.82233502538071 I-0.46446700507614214 J1.4263959390862944
G3 X212.83502538071065 Y103.15482233502537 I-0.8807106598984772 J1.2131979695431472
G3 X213.0482233502538 Y103.57106598984771 I-1.2131979695431472 J0.8807106598984772
G3 X213.1218274111675 Y104.03553299492386 I-1.4263959390862944 J0.46446700507614214
G1 X213.1218274111675 Y104.03553299492386
G1 X213.1218274111675 Y104.03553299492386
G3 X213.0482233502538 Y104.5 I-1.5 J0
G1 Z-6 F800
G3 X212.83502538071065 Y104.91624365482232 I-1.4263959390862944 J-0.46446700507614214 F1500
G3 X212.502538071066 Y105.248730964467 I-1.2131979695431472 J-0.8807106598984772
G3 X212.08375634517765 Y105.46192893401015 I-0.8807106598984772 J-1.2131979695431472
G3 X211.62182741116752 Y105.53553299492386 I-0.46446700507614214 J-1.4263959390862944
G3 X211.15736040609136 Y105.46192893401015 I0 J-1.5
G3 X210.73857868020303 Y105.248730964467 I0.46446700507614214 J-1.4263959390862944
G3 X210.40609137055839 Y104.91624365482232 I0.8807106598984772 J-1.2131979695431472
G3 X210.19543147208122 Y104.5 I1.2131979695431472 J-0.8807106598984772
G3 X210.12182741116754 Y104.03553299492386 I1.4263959390862944 J-0.46446700507614214
G1 X210.12182741116754 Y104.03553299492386
G1 X210.12182741116754 Y104.03553299492386
G3 X210.19543147208122 Y103.57106598984771 I1.5 J0
G3 X210.40609137055839 Y103.15482233502537 I1.4263959390862944 J0.46446700507614214
G3 X210.73857868020303 Y102.82233502538071 I1.2131979695431472 J0.8807106598984772
G3 X211.15736040609136 Y102.60913705583758 I0.8807106598984772 J1.2131979695431472
G3 X211.62182741116752 Y102.53553299492387 I0.46446700507614214 J1.4263959390862944
G3 X212.08375634517765 Y102.60913705583758 I0 J1.5
G3 X212.502538071066 Y102.82233502538071 I-0.46446700507614214 J1.4263959390862944
G3 X212.83502538071065 Y103.15482233502537 I-0.8807106598984772 J1.2131979695431472
G3 X213.0482233502538 Y103.57106598984771 I-1.2131979695431472 J0.8807106598984772
G3 X213.1218274111675 Y104.03553299492386 I-1.4263959390862944 J0.46446700507614214
G1 X213.1218274111675 Y104.03553299492386
G1 X213.1218274111675 Y104.03553299492386
G3 X213.0482233502538 Y104.5 I-1.5 J0
G1 Z-7 F800
G3 X212.83502538071065 Y104.91624365482232 I-1.4263959390862944 J-0.46446700507614214 F1500
G3 X212.502538071066 Y105.248730964467 I-1.2131979695431472 J-0.8807106598984772
G3 X212.08375634517765 Y105.46192893401015 I-0.8807106598984772 J-1.2131979695431472
G3 X211.62182741116752 Y105.53553299492386 I-0.46446700507614214 J-1.4263959390862944
G3 X211.15736040609136 Y105.46192893401015 I0 J-1.5
G3 X210.73857868020303 Y105.248730964467 I0.46446700507614214 J-1.4263959390862944
G3 X210.40609137055839 Y104.91624365482232 I0.8807106598984772 J-1.2131979695431472
G3 X210.19543147208122 Y104.5 I1.2131979695431472 J-0.8807106598984772
G3 X210.12182741116754 Y104.03553299492386 I1.4263959390862944 J-0.46446700507614214
G1 X210.12182741116754 Y104.03553299492386
G1 X210.12182741116754 Y104.03553299492386
G3 X210.19543147208122 Y103.57106598984771 I1.5 J0
G3 X210.40609137055839 Y103.15482233502537 I1.4263959390862944 J0.46446700507614214
G3 X210.73857868020303 Y102.82233502538071 I1.2131979695431472 J0.8807106598984772
G3 X211.15736040609136 Y102.60913705583758 I0.8807106598984772 J1.2131979695431472
G3 X211.62182741116752 Y102.53553299492387 I0.46446700507614214 J1.4263959390862944
G3 X212.08375634517765 Y102.60913705583758 I0 J1.5
G3 X212.502538071066 Y102.82233502538071 I-0.46446700507614214 J1.4263959390862944
G3 X212.83502538071065 Y103.15482233502537 I-0.8807106598984772 J1.2131979695431472
G3 X213.0482233502538 Y103.57106598984771 I-1.2131979695431472 J0.8807106598984772
G3 X213.1218274111675 Y104.03553299492386 I-1.4263959390862944 J0.46446700507614214
G1 X213.1218274111675 Y104.03553299492386
G1 X213.1218274111675 Y104.03553299492386
G3 X213.0482233502538 Y104.5 I-1.5 J0

(trou vis)
G0 Z15
G0 X54.93020304568528 Y9.531218274111675
G1 Z-1.5 F800
G3 X55.07106598984771 Y9.809644670050762 I-0.8096446700507615 J0.5862944162436547 F1500
G3 X55.121827411167516 Y10.119289340101522 I-0.9517766497461928 J0.3071065989847716
G1 X55.121827411167516 Y10.119289340101522
G1 X55.121827411167516 Y10.121827411167512
G3 X55.07106598984771 Y10.431472081218274 I-1 J0
G3 X54.92893401015229 Y10.710659898477157 I-0.9517766497461928 J-0.3071065989847716
G3 X54.70812182741117 Y10.931472081218274 I-0.8096446700507615 J-0.5862944162436547
G3 X54.42893401015229 Y11.073604060913706 I-0.5888324873096447 J-0.8096446700507615
G3 X54.121827411167516 Y11.121827411167512 I-0.30964467005076146 J-0.9517766497461928
G3 X53.81218274111675 Y11.073604060913706 I0 J-1
G3 X53.53299492385787 Y10.931472081218274 I0.30964467005076146 J-0.9517766497461928
G3 X53.31218274111676 Y10.710659898477157 I0.5888324873096447 J-0.8096446700507615
G3 X53.170050761421315 Y10.431472081218274 I0.8096446700507615 J-0.5862944162436547
G3 X53.12182741116751 Y10.121827411167512 I0.9517766497461928 J-0.3071065989847716
G1 X53.12182741116751 Y10.119289340101522
G1 X53.12182741116751 Y10.119289340101522
G3 X53.170050761421315 Y9.809644670050762 I1 J0
G3 X53.31218274111676 Y9.530456852791879 I0.9517766497461928 J0.3071065989847716
G3 X53.53299492385787 Y9.309644670050762 I0.8096446700507615 J0.5862944162436547
G3 X53.81218274111675 Y9.167512690355329 I0.5888324873096447 J0.8096446700507615
G3 X54.121827411167516 Y9.119289340101522 I0.30964467005076146 J0.9517766497461928
G3 X54.42893401015229 Y9.167512690355329 I0 J1
G3 X54.70812182741117 Y9.309644670050762 I-0.30964467005076146 J0.9517766497461928
G3 X54.92893401015229 Y9.530456852791879 I-0.5888324873096447 J0.8096446700507615
G1 Z-3 F800
G3 X55.07106598984771 Y9.809644670050762 I-0.8096446700507615 J0.5862944162436547 F1500
G3 X55.121827411167516 Y10.119289340101522 I-0.9517766497461928 J0.3071065989847716
G1 X55.121827411167516 Y10.119289340101522
G1 X55.121827411167516 Y10.121827411167512
G3 X55.07106598984771 Y10.431472081218274 I-1 J0
G3 X54.92893401015229 Y10.710659898477157 I-0.9517766497461928 J-0.3071065989847716
G3 X54.70812182741117 Y10.931472081218274 I-0.8096446700507615 J-0.5862944162436547
G3 X54.42893401015229 Y11.073604060913706 I-0.5888324873096447 J-0.8096446700507615
G3 X54.121827411167516 Y11.121827411167512 I-0.30964467005076146 J-0.9517766497461928
G3 X53.81218274111675 Y11.073604060913706 I0 J-1
G3 X53.53299492385787 Y10.931472081218274 I0.30964467005076146 J-0.9517766497461928
G3 X53.31218274111676 Y10.710659898477157 I0.5888324873096447 J-0.8096446700507615
G3 X53.170050761421315 Y10.431472081218274 I0.8096446700507615 J-0.5862944162436547
G3 X53.12182741116751 Y10.121827411167512 I0.9517766497461928 J-0.3071065989847716
G1 X53.12182741116751 Y10.119289340101522
G1 X53.12182741116751 Y10.119289340101522
G3 X53.170050761421315 Y9.809644670050762 I1 J0
G3 X53.31218274111676 Y9.530456852791879 I0.9517766497461928 J0.3071065989847716
G3 X53.53299492385787 Y9.309644670050762 I0.8096446700507615 J0.5862944162436547
G3 X53.81218274111675 Y9.167512690355329 I0.5888324873096447 J0.8096446700507615
G3 X54.121827411167516 Y9.119289340101522 I0.30964467005076146 J0.9517766497461928
G3 X54.42893401015229 Y9.167512690355329 I0 J1
G3 X54.70812182741117 Y9.309644670050762 I-0.30964467005076146 J0.9517766497461928
G3 X54.92893401015229 Y9.530456852791879 I-0.5888324873096447 J0.8096446700507615
G1 Z-4.5 F800
G3 X55.07106598984771 Y9.809644670050762 I-0.8096446700507615 J0.5862944162436547 F1500
G3 X55.121827411167516 Y10.119289340101522 I-0.9517766497461928 J0.3071065989847716
G1 X55.121827411167516 Y10.119289340101522
G1 X55.121827411167516 Y10.121827411167512
G3 X55.07106598984771 Y10.431472081218274 I-1 J0
G3 X54.92893401015229 Y10.710659898477157 I-0.9517766497461928 J-0.3071065989847716
G3 X54.70812182741117 Y10.931472081218274 I-0.8096446700507615 J-0.5862944162436547
G3 X54.42893401015229 Y11.073604060913706 I-0.5888324873096447 J-0.8096446700507615
G3 X54.121827411167516 Y11.121827411167512 I-0.30964467005076146 J-0.9517766497461928
G3 X53.81218274111675 Y11.073604060913706 I0 J-1
G3 X53.53299492385787 Y10.931472081218274 I0.30964467005076146 J-0.9517766497461928
G3 X53.31218274111676 Y10.710659898477157 I0.5888324873096447 J-0.8096446700507615
G3 X53.170050761421315 Y10.431472081218274 I0.8096446700507615 J-0.5862944162436547
G3 X53.12182741116751 Y10.121827411167512 I0.9517766497461928 J-0.3071065989847716
G1 X53.12182741116751 Y10.119289340101522
G1 X53.12182741116751 Y10.119289340101522
G3 X53.170050761421315 Y9.809644670050762 I1 J0
G3 X53.31218274111676 Y9.530456852791879 I0.9517766497461928 J0.3071065989847716
G3 X53.53299492385787 Y9.309644670050762 I0.8096446700507615 J0.5862944162436547
G3 X53.81218274111675 Y9.167512690355329 I0.5888324873096447 J0.8096446700507615
G3 X54.121827411167516 Y9.119289340101522 I0.30964467005076146 J0.9517766497461928
G3 X54.42893401015229 Y9.167512690355329 I0 J1
G3 X54.70812182741117 Y9.309644670050762 I-0.30964467005076146 J0.9517766497461928
G3 X54.92893401015229 Y9.530456852791879 I-0.5888324873096447 J0.8096446700507615
G1 Z-6 F800
G3 X55.07106598984771 Y9.809644670050762 I-0.8096446700507615 J0.5862944162436547 F1500
G3 X55.121827411167516 Y10.119289340101522 I-0.9517766497461928 J0.3071065989847716
G1 X55.121827411167516 Y10.119289340101522
G1 X55.121827411167516 Y10.121827411167512
G3 X55.07106598984771 Y10.431472081218274 I-1 J0
G3 X54.92893401015229 Y10.710659898477157 I-0.9517766497461928 J-0.3071065989847716
G3 X54.70812182741117 Y10.931472081218274 I-0.8096446700507615 J-0.5862944162436547
G3 X54.42893401015229 Y11.073604060913706 I-0.5888324873096447 J-0.8096446700507615
G3 X54.121827411167516 Y11.121827411167512 I-0.30964467005076146 J-0.9517766497461928
G3 X53.81218274111675 Y11.073604060913706 I0 J-1
G3 X53.53299492385787 Y10.931472081218274 I0.30964467005076146 J-0.9517766497461928
G3 X53.31218274111676 Y10.710659898477157 I0.5888324873096447 J-0.8096446700507615
G3 X53.170050761421315 Y10.431472081218274 I0.8096446700507615 J-0.5862944162436547
G3 X53.12182741116751 Y10.121827411167512 I0.9517766497461928 J-0.3071065989847716
G1 X53.12182741116751 Y10.119289340101522
G1 X53.12182741116751 Y10.119289340101522
G3 X53.170050761421315 Y9.809644670050762 I1 J0
G3 X53.31218274111676 Y9.530456852791879 I0.9517766497461928 J0.3071065989847716
G3 X53.53299492385787 Y9.309644670050762 I0.8096446700507615 J0.5862944162436547
G3 X53.81218274111675 Y9.167512690355329 I0.5888324873096447 J0.8096446700507615
G3 X54.121827411167516 Y9.119289340101522 I0.30964467005076146 J0.9517766497461928
G3 X54.42893401015229 Y9.167512690355329 I0 J1
G3 X54.70812182741117 Y9.309644670050762 I-0.30964467005076146 J0.9517766497461928
G3 X54.92893401015229 Y9.530456852791879 I-0.5888324873096447 J0.8096446700507615
G1 Z-7 F800
G3 X55.07106598984771 Y9.809644670050762 I-0.8096446700507615 J0.5862944162436547 F1500
G3 X55.121827411167516 Y10.119289340101522 I-0.9517766497461928 J0.3071065989847716
G1 X55.121827411167516 Y10.119289340101522
G1 X55.121827411167516 Y10.121827411167512
G3 X55.07106598984771 Y10.431472081218274 I-1 J0
G3 X54.92893401015229 Y10.710659898477157 I-0.9517766497461928 J-0.3071065989847716
G3 X54.70812182741117 Y10.931472081218274 I-0.8096446700507615 J-0.5862944162436547
G3 X54.42893401015229 Y11.073604060913706 I-0.5888324873096447 J-0.8096446700507615
G3 X54.121827411167516 Y11.121827411167512 I-0.30964467005076146 J-0.9517766497461928
G3 X53.81218274111675 Y11.073604060913706 I0 J-1
G3 X53.53299492385787 Y10.931472081218274 I0.30964467005076146 J-0.9517766497461928
G3 X53.31218274111676 Y10.710659898477157 I0.5888324873096447 J-0.8096446700507615
G3 X53.170050761421315 Y10.431472081218274 I0.8096446700507615 J-0.5862944162436547
G3 X53.12182741116751 Y10.121827411167512 I0.9517766497461928 J-0.3071065989847716
G1 X53.12182741116751 Y10.119289340101522
G1 X53.12182741116751 Y10.119289340101522
G3 X53.170050761421315 Y9.809644670050762 I1 J0
G3 X53.31218274111676 Y9.530456852791879 I0.9517766497461928 J0.3071065989847716
G3 X53.53299492385787 Y9.309644670050762 I0.8096446700507615 J0.5862944162436547
G3 X53.81218274111675 Y9.167512690355329 I0.5888324873096447 J0.8096446700507615
G3 X54.121827411167516 Y9.119289340101522 I0.30964467005076146 J0.9517766497461928
G3 X54.42893401015229 Y9.167512690355329 I0 J1
G3 X54.70812182741117 Y9.309644670050762 I-0.30964467005076146 J0.9517766497461928
G3 X54.92893401015229 Y9.530456852791879 I-0.5888324873096447 J0.8096446700507615
G0 Z15
G0 X194.03274111675128 Y74.81091370558376
G1 Z-1.5 F800
G3 X194.31218274111674 Y74.67005076142132 I0.5888324873096447 J0.8096446700507615 F1500
G3 X194.62182741116752 Y74.61928934010152 I0.30964467005076146 J0.9517766497461928
G3 X194.92893401015226 Y74.67005076142132 I0 J1
G3 X195.20812182741116 Y74.81218274111674 I-0.30964467005076146 J0.9517766497461928
G3 X195.42893401015226 Y75.03299492385787 I-0.5888324873096447 J0.8096446700507615
G3 X195.5710659898477 Y75.31218274111676 I-0.8096446700507615 J0.5888324873096447
G3 X195.6218274111675 Y75.61928934010152 I-0.9517766497461928 J0.30964467005076146
G1 X195.6218274111675 Y75.62182741116752
G1 X195.6218274111675 Y75.62182741116752
G3 X195.5710659898477 Y75.93147208121827 I-1 J0
G3 X195.42893401015226 Y76.20812182741116 I-0.9517766497461928 J-0.30964467005076146
G3 X195.20812182741116 Y76.43147208121827 I-0.8096446700507615 J-0.5888324873096447
G3 X194.92893401015226 Y76.57360406091371 I-0.5888324873096447 J-0.8096446700507615
G3 X194.62182741116752 Y76.62182741116752 I-0.30964467005076146 J-0.9517766497461928
G3 X194.31218274111674 Y76.57360406091371 I0 J-1
G3 X194.03299492385787 Y76.43147208121827 I0.30964467005076146 J-0.9517766497461928
G3 X193.81218274111674 Y76.20812182741116 I0.5888324873096447 J-0.8096446700507615
G3 X193.67005076142132 Y75.93147208121827 I0.8096446700507615 J-0.5888324873096447
G3 X193.62182741116752 Y75.62182741116752 I0.9517766497461928 J-0.30964467005076146
G1 X193.62182741116752 Y75.61928934010152
G1 X193.62182741116752 Y75.61928934010152
G3 X193.67005076142132 Y75.31218274111676 I1 J0
G3 X193.81218274111674 Y75.03299492385787 I0.9517766497461928 J0.30964467005076146
G3 X194.03299492385787 Y74.81218274111674 I0.8096446700507615 J0.5888324873096447
G1 Z-3 F800
G3 X194.31218274111674 Y74.67005076142132 I0.5888324873096447 J0.8096446700507615 F1500
G3 X194.62182741116752 Y74.61928934010152 I0.30964467005076146 J0.9517766497461928
G3 X194.92893401015226 Y74.67005076142132 I0 J1
G3 X195.20812182741116 Y74.81218274111674 I-0.30964467005076146 J0.9517766497461928
G3 X195.42893401015226 Y75.03299492385787 I-0.5888324873096447 J0.8096446700507615
G3 X195.5710659898477 Y75.31218274111676 I-0.8096446700507615 J0.5888324873096447
G3 X195.6218274111675 Y75.61928934010152 I-0.9517766497461928 J0.30964467005076146
G1 X195.6218274111675 Y75.62182741116752
G1 X195.6218274111675 Y75.62182741116752
G3 X195.5710659898477 Y75.93147208121827 I-1 J0
G3 X195.42893401015226 Y76.20812182741116 I-0.9517766497461928 J-0.30964467005076146
G3 X195.20812182741116 Y76.43147208121827 I-0.8096446700507615 J-0.5888324873096447
G3 X194.92893401015226 Y76.57360406091371 I-0.5888324873096447 J-0.8096446700507615
G3 X194.62182741116752 Y76.62182741116752 I-0.30964467005076146 J-0.9517766497461928
G3 X194.31218274111674 Y76.57360406091371 I0 J-1
G3 X194.03299492385787 Y76.43147208121827 I0.30964467005076146 J-0.9517766497461928
G3 X193.81218274111674 Y76.20812182741116 I0.5888324873096447 J-0.8096446700507615
G3 X193.67005076142132 Y75.93147208121827 I0.8096446700507615 J-0.5888324873096447
G3 X193.62182741116752 Y75.62182741116752 I0.9517766497461928 J-0.30964467005076146
G1 X193.62182741116752 Y75.61928934010152
G1 X193.62182741116752 Y75.61928934010152
G3 X193.67005076142132 Y75.31218274111676 I1 J0
G3 X193.81218274111674 Y75.03299492385787 I0.9517766497461928 J0.30964467005076146
G3 X194.03299492385787 Y74.81218274111674 I0.8096446700507615 J0.5888324873096447
G1 Z-4.5 F800
G3 X194.31218274111674 Y74.67005076142132 I0.5888324873096447 J0.8096446700507615 F1500
G3 X194.62182741116752 Y74.61928934010152 I0.30964467005076146 J0.9517766497461928
G3 X194.92893401015226 Y74.67005076142132 I0 J1
G3 X195.20812182741116 Y74.81218274111674 I-0.30964467005076146 J0.9517766497461928
G3 X195.42893401015226 Y75.03299492385787 I-0.5888324873096447 J0.8096446700507615
G3 X195.5710659898477 Y75.31218274111676 I-0.8096446700507615 J0.5888324873096447
G3 X195.6218274111675 Y75.61928934010152 I-0.9517766497461928 J0.30964467005076146
G1 X195.6218274111675 Y75.62182741116752
G1 X195.6218274111675 Y75.62182741116752
G3 X195.5710659898477 Y75.93147208121827 I-1 J0
G3 X195.42893401015226 Y76.20812182741116 I-0.9517766497461928 J-0.30964467005076146
G3 X195.20812182741116 Y76.43147208121827 I-0.8096446700507615 J-0.5888324873096447
G3 X194.92893401015226 Y76.57360406091371 I-0.5888324873096447 J-0.8096446700507615
G3 X194.62182741116752 Y76.62182741116752 I-0.30964467005076146 J-0.9517766497461928
G3 X194.31218274111674 Y76.57360406091371 I0 J-1
G3 X194.03299492385787 Y76.43147208121827 I0.30964467005076146 J-0.9517766497461928
G3 X193.81218274111674 Y76.20812182741116 I0.5888324873096447 J-0.8096446700507615
G3 X193.67005076142132 Y75.93147208121827 I0.8096446700507615 J-0.5888324873096447
G3 X193.62182741116752 Y75.62182741116752 I0.9517766497461928 J-0.30964467005076146
G1 X193.62182741116752 Y75.61928934010152
G1 X193.62182741116752 Y75.61928934010152
G3 X193.67005076142132 Y75.31218274111676 I1 J0
G3 X193.81218274111674 Y75.03299492385787 I0.9517766497461928 J0.30964467005076146
G3 X194.03299492385787 Y74.81218274111674 I0.8096446700507615 J0.5888324873096447
G1 Z-6 F800
G3 X194.31218274111674 Y74.67005076142132 I0.5888324873096447 J0.8096446700507615 F1500
G3 X194.62182741116752 Y74.61928934010152 I0.30964467005076146 J0.9517766497461928
G3 X194.92893401015226 Y74.67005076142132 I0 J1
G3 X195.20812182741116 Y74.81218274111674 I-0.30964467005076146 J0.9517766497461928
G3 X195.42893401015226 Y75.03299492385787 I-0.5888324873096447 J0.8096446700507615
G3 X195.5710659898477 Y75.31218274111676 I-0.8096446700507615 J0.5888324873096447
G3 X195.6218274111675 Y75.61928934010152 I-0.9517766497461928 J0.30964467005076146
G1 X195.6218274111675 Y75.62182741116752
G1 X195.6218274111675 Y75.62182741116752
G3 X195.5710659898477 Y75.93147208121827 I-1 J0
G3 X195.42893401015226 Y76.20812182741116 I-0.9517766497461928 J-0.30964467005076146
G3 X195.20812182741116 Y76.43147208121827 I-0.8096446700507615 J-0.5888324873096447
G3 X194.92893401015226 Y76.57360406091371 I-0.5888324873096447 J-0.8096446700507615
G3 X194.62182741116752 Y76.62182741116752 I-0.30964467005076146 J-0.9517766497461928
G3 X194.31218274111674 Y76.57360406091371 I0 J-1
G3 X194.03299492385787 Y76.43147208121827 I0.30964467005076146 J-0.9517766497461928
G3 X193.81218274111674 Y76.20812182741116 I0.5888324873096447 J-0.8096446700507615
G3 X193.67005076142132 Y75.93147208121827 I0.8096446700507615 J-0.5888324873096447
G3 X193.62182741116752 Y75.62182741116752 I0.9517766497461928 J-0.30964467005076146
G1 X193.62182741116752 Y75.61928934010152
G1 X193.62182741116752 Y75.61928934010152
G3 X193.67005076142132 Y75.31218274111676 I1 J0
G3 X193.81218274111674 Y75.03299492385787 I0.9517766497461928 J0.30964467005076146
G3 X194.03299492385787 Y74.81218274111674 I0.8096446700507615 J0.5888324873096447
G1 Z-7 F800
G3 X194.31218274111674 Y74.67005076142132 I0.5888324873096447 J0.8096446700507615 F1500
G3 X194.62182741116752 Y74.61928934010152 I0.30964467005076146 J0.9517766497461928
G3 X194.92893401015226 Y74.67005076142132 I0 J1
G3 X195.20812182741116 Y74.81218274111674 I-0.30964467005076146 J0.9517766497461928
G3 X195.42893401015226 Y75.03299492385787 I-0.5888324873096447 J0.8096446700507615
G3 X195.5710659898477 Y75.31218274111676 I-0.8096446700507615 J0.5888324873096447
G3 X195.6218274111675 Y75.61928934010152 I-0.9517766497461928 J0.30964467005076146
G1 X195.6218274111675 Y75.62182741116752
G1 X195.6218274111675 Y75.62182741116752
G3 X195.5710659898477 Y75.93147208121827 I-1 J0
G3 X195.42893401015226 Y76.20812182741116 I-0.9517766497461928 J-0.30964467005076146
G3 X195.20812182741116 Y76.43147208121827 I-0.8096446700507615 J-0.5888324873096447
G3 X194.92893401015226 Y76.57360406091371 I-0.5888324873096447 J-0.8096446700507615
G3 X194.62182741116752 Y76.62182741116752 I-0.30964467005076146 J-0.9517766497461928
G3 X194.31218274111674 Y76.57360406091371 I0 J-1
G3 X194.03299492385787 Y76.43147208121827 I0.30964467005076146 J-0.9517766497461928
G3 X193.81218274111674 Y76.20812182741116 I0.5888324873096447 J-0.8096446700507615
G3 X193.67005076142132 Y75.93147208121827 I0.8096446700507615 J-0.5888324873096447
G3 X193.62182741116752 Y75.62182741116752 I0.9517766497461928 J-0.30964467005076146
G1 X193.62182741116752 Y75.61928934010152
G1 X193.62182741116752 Y75.61928934010152
G3 X193.67005076142132 Y75.31218274111676 I1 J0
G3 X193.81218274111674 Y75.03299492385787 I0.9517766497461928 J0.30964467005076146
G3 X194.03299492385787 Y74.81218274111674 I0.8096446700507615 J0.5888324873096447
G0 Z15
G0 X194.92994923857867 Y9.169035532994924
G1 Z-1.5 F800
G3 X195.20812182741116 Y9.312182741116752 I-0.30964467005076146 J0.9517766497461928 F1500
G3 X195.42893401015226 Y9.532994923857869 I-0.5888324873096447 J0.8096446700507615
G3 X195.5710659898477 Y9.812182741116752 I-0.8096446700507615 J0.5888324873096447
G3 X195.6218274111675 Y10.119289340101522 I-0.9517766497461928 J0.30964467005076146
G1 X195.6218274111675 Y10.121827411167512
G1 X195.6218274111675 Y10.121827411167512
G3 X195.5710659898477 Y10.431472081218274 I-1 J0
G3 X195.42893401015226 Y10.708121827411167 I-0.9517766497461928 J-0.30964467005076146
G3 X195.20812182741116 Y10.931472081218274 I-0.8096446700507615 J-0.5888324873096447
G3 X194.92893401015226 Y11.073604060913706 I-0.5888324873096447 J-0.8096446700507615
G3 X194.62182741116752 Y11.121827411167512 I-0.30964467005076146 J-0.9517766497461928
G3 X194.31218274111674 Y11.073604060913706 I0 J-1
G3 X194.03299492385787 Y10.931472081218274 I0.30964467005076146 J-0.9517766497461928
G3 X193.81218274111674 Y10.708121827411167 I0.5888324873096447 J-0.8096446700507615
G3 X193.67005076142132 Y10.431472081218274 I0.8096446700507615 J-0.5888324873096447
G3 X193.62182741116752 Y10.121827411167512 I0.9517766497461928 J-0.30964467005076146
G1 X193.62182741116752 Y10.119289340101522
G1 X193.62182741116752 Y10.119289340101522
G3 X193.67005076142132 Y9.812182741116752 I1 J0
G3 X193.81218274111674 Y9.532994923857869 I0.9517766497461928 J0.30964467005076146
G3 X194.03299492385787 Y9.312182741116752 I0.8096446700507615 J0.5888324873096447
G3 X194.31218274111674 Y9.17005076142132 I0.5888324873096447 J0.8096446700507615
G3 X194.62182741116752 Y9.119289340101522 I0.30964467005076146 J0.9517766497461928
G3 X194.92893401015226 Y9.17005076142132 I0 J1
G1 Z-3 F800
G3 X195.20812182741116 Y9.312182741116752 I-0.30964467005076146 J0.9517766497461928 F1500
G3 X195.42893401015226 Y9.532994923857869 I-0.5888324873096447 J0.8096446700507615
G3 X195.5710659898477 Y9.812182741116752 I-0.8096446700507615 J0.5888324873096447
G3 X195.6218274111675 Y10.119289340101522 I-0.9517766497461928 J0.30964467005076146
G1 X195.6218274111675 Y10.121827411167512
G1 X195.6218274111675 Y10.121827411167512
G3 X195.5710659898477 Y10.431472081218274 I-1 J0
G3 X195.42893401015226 Y10.708121827411167 I-0.9517766497461928 J-0.30964467005076146
G3 X195.20812182741116 Y10.931472081218274 I-0.8096446700507615 J-0.5888324873096447
G3 X194.92893401015226 Y11.073604060913706 I-0.5888324873096447 J-0.8096446700507615
G3 X194.62182741116752 Y11.121827411167512 I-0.30964467005076146 J-0.9517766497461928
G3 X194.31218274111674 Y11.073604060913706 I0 J-1
G3 X194.03299492385787 Y10.931472081218274 I0.30964467005076146 J-0.9517766497461928
G3 X193.81218274111674 Y10.708121827411167 I0.5888324873096447 J-0.8096446700507615
G3 X193.67005076142132 Y10.431472081218274 I0.8096446700507615 J-0.5888324873096447
G3 X193.62182741116752 Y10.121827411167512 I0.9517766497461928 J-0.30964467005076146
G1 X193.62182741116752 Y10.119289340101522
G1 X193.62182741116752 Y10.119289340101522
G3 X193.67005076142132 Y9.812182741116752 I1 J0
G3 X193.81218274111674 Y9.532994923857869 I0.9517766497461928 J0.30964467005076146
G3 X194.03299492385787 Y9.312182741116752 I0.8096446700507615 J0.5888324873096447
G3 X194.31218274111674 Y9.17005076142132 I0.5888324873096447 J0.8096446700507615
G3 X194.62182741116752 Y9.119289340101522 I0.30964467005076146 J0.9517766497461928
G3 X194.92893401015226 Y9.17005076142132 I0 J1
G1 Z-4.5 F800
G3 X195.20812182741116 Y9.312182741116752 I-0.30964467005076146 J0.9517766497461928 F1500
G3 X195.42893401015226 Y9.532994923857869 I-0.5888324873096447 J0.8096446700507615
G3 X195.5710659898477 Y9.812182741116752 I-0.8096446700507615 J0.5888324873096447
G3 X195.6218274111675 Y10.119289340101522 I-0.9517766497461928 J0.30964467005076146
G1 X195.6218274111675 Y10.121827411167512
G1 X195.6218274111675 Y10.121827411167512
G3 X195.5710659898477 Y10.431472081218274 I-1 J0
G3 X195.42893401015226 Y10.708121827411167 I-0.9517766497461928 J-0.30964467005076146
G3 X195.20812182741116 Y10.931472081218274 I-0.8096446700507615 J-0.5888324873096447
G3 X194.92893401015226 Y11.073604060913706 I-0.5888324873096447 J-0.8096446700507615
G3 X194.62182741116752 Y11.121827411167512 I-0.30964467005076146 J-0.9517766497461928
G3 X194.31218274111674 Y11.073604060913706 I0 J-1
G3 X194.03299492385787 Y10.931472081218274 I0.30964467005076146 J-0.9517766497461928
G3 X193.81218274111674 Y10.708121827411167 I0.5888324873096447 J-0.8096446700507615
G3 X193.67005076142132 Y10.431472081218274 I0.8096446700507615 J-0.5888324873096447
G3 X193.62182741116752 Y10.121827411167512 I0.9517766497461928 J-0.30964467005076146
G1 X193.62182741116752 Y10.119289340101522
G1 X193.62182741116752 Y10.119289340101522
G3 X193.67005076142132 Y9.812182741116752 I1 J0
G3 X193.81218274111674 Y9.532994923857869 I0.9517766497461928 J0.30964467005076146
G3 X194.03299492385787 Y9.312182741116752 I0.8096446700507615 J0.5888324873096447
G3 X194.31218274111674 Y9.17005076142132 I0.5888324873096447 J0.8096446700507615
G3 X194.62182741116752 Y9.119289340101522 I0.30964467005076146 J0.9517766497461928
G3 X194.92893401015226 Y9.17005076142132 I0 J1
G1 Z-6 F800
G3 X195.20812182741116 Y9.312182741116752 I-0.30964467005076146 J0.9517766497461928 F1500
G3 X195.42893401015226 Y9.532994923857869 I-0.5888324873096447 J0.8096446700507615
G3 X195.5710659898477 Y9.812182741116752 I-0.8096446700507615 J0.5888324873096447
G3 X195.6218274111675 Y10.119289340101522 I-0.9517766497461928 J0.30964467005076146
G1 X195.6218274111675 Y10.121827411167512
G1 X195.6218274111675 Y10.121827411167512
G3 X195.5710659898477 Y10.431472081218274 I-1 J0
G3 X195.42893401015226 Y10.708121827411167 I-0.9517766497461928 J-0.30964467005076146
G3 X195.20812182741116 Y10.931472081218274 I-0.8096446700507615 J-0.5888324873096447
G3 X194.92893401015226 Y11.073604060913706 I-0.5888324873096447 J-0.8096446700507615
G3 X194.62182741116752 Y11.121827411167512 I-0.30964467005076146 J-0.9517766497461928
G3 X194.31218274111674 Y11.073604060913706 I0 J-1
G3 X194.03299492385787 Y10.931472081218274 I0.30964467005076146 J-0.9517766497461928
G3 X193.81218274111674 Y10.708121827411167 I0.5888324873096447 J-0.8096446700507615
G3 X193.67005076142132 Y10.431472081218274 I0.8096446700507615 J-0.5888324873096447
G3 X193.62182741116752 Y10.121827411167512 I0.9517766497461928 J-0.30964467005076146
G1 X193.62182741116752 Y10.119289340101522
G1 X193.62182741116752 Y10.119289340101522
G3 X193.67005076142132 Y9.812182741116752 I1 J0
G3 X193.81218274111674 Y9.532994923857869 I0.9517766497461928 J0.30964467005076146
G3 X194.03299492385787 Y9.312182741116752 I0.8096446700507615 J0.5888324873096447
G3 X194.31218274111674 Y9.17005076142132 I0.5888324873096447 J0.8096446700507615
G3 X194.62182741116752 Y9.119289340101522 I0.30964467005076146 J0.9517766497461928
G3 X194.92893401015226 Y9.17005076142132 I0 J1
G1 Z-7 F800
G3 X195.20812182741116 Y9.312182741116752 I-0.30964467005076146 J0.9517766497461928 F1500
G3 X195.42893401015226 Y9.532994923857869 I-0.5888324873096447 J0.8096446700507615
G3 X195.5710659898477 Y9.812182741116752 I-0.8096446700507615 J0.5888324873096447
G3 X195.6218274111675 Y10.119289340101522 I-0.9517766497461928 J0.30964467005076146
G1 X195.6218274111675 Y10.121827411167512
G1 X195.6218274111675 Y10.121827411167512
G3 X195.5710659898477 Y10.431472081218274 I-1 J0
G3 X195.42893401015226 Y10.708121827411167 I-0.9517766497461928 J-0.30964467005076146
G3 X195.20812182741116 Y10.931472081218274 I-0.8096446700507615 J-0.5888324873096447
G3 X194.92893401015226 Y11.073604060913706 I-0.5888324873096447 J-0.8096446700507615
G3 X194.62182741116752 Y11.121827411167512 I-0.30964467005076146 J-0.9517766497461928
G3 X194.31218274111674 Y11.073604060913706 I0 J-1
G3 X194.03299492385787 Y10.931472081218274 I0.30964467005076146 J-0.9517766497461928
G3 X193.81218274111674 Y10.708121827411167 I0.5888324873096447 J-0.8096446700507615
G3 X193.67005076142132 Y10.431472081218274 I0.8096446700507615 J-0.5888324873096447
G3 X193.62182741116752 Y10.121827411167512 I0.9517766497461928 J-0.30964467005076146
G1 X193.62182741116752 Y10.119289340101522
G1 X193.62182741116752 Y10.119289340101522
G3 X193.67005076142132 Y9.812182741116752 I1 J0
G3 X193.81218274111674 Y9.532994923857869 I0.9517766497461928 J0.30964467005076146
G3 X194.03299492385787 Y9.312182741116752 I0.8096446700507615 J0.5888324873096447
G3 X194.31218274111674 Y9.17005076142132 I0.5888324873096447 J0.8096446700507615
G3 X194.62182741116752 Y9.119289340101522 I0.30964467005076146 J0.9517766497461928
G3 X194.92893401015226 Y9.17005076142132 I0 J1
G0 Z15
G0 X79.92969543147208 Y86.57182741116752
G1 Z-1.5 F800
G3 X79.62182741116752 Y86.62182741116752 I-0.30964467005076146 J-0.9517766497461928 F1500
G3 X79.31218274111674 Y86.57106598984771 I0 J-1
G3 X79.03299492385787 Y86.42893401015229 I0.30964467005076146 J-0.9517766497461928
G3 X78.81218274111676 Y86.20812182741118 I0.5888324873096447 J-0.8096446700507615
G3 X78.67005076142132 Y85.92893401015229 I0.8096446700507615 J-0.5888324873096447
G3 X78.62182741116752 Y85.62182741116752 I0.9517766497461928 J-0.30964467005076146
G1 X78.62182741116752 Y85.62182741116752
G1 X78.62182741116752 Y85.62182741116752
G3 X78.67005076142132 Y85.31218274111674 I1 J0
G3 X78.81218274111676 Y85.03299492385787 I0.9517766497461928 J0.30964467005076146
G3 X79.03299492385787 Y84.81218274111676 I0.8096446700507615 J0.5888324873096447
G3 X79.31218274111674 Y84.67005076142131 I0.5888324873096447 J0.8096446700507615
G3 X79.62182741116752 Y84.6218274111675 I0.30964467005076146 J0.9517766497461928
G3 X79.92893401015229 Y84.67005076142131 I0 J1
G3 X80.20812182741118 Y84.81218274111676 I-0.30964467005076146 J0.9517766497461928
G3 X80.42893401015228 Y85.03299492385787 I-0.5888324873096447 J0.8096446700507615
G3 X80.57106598984772 Y85.31218274111674 I-0.8096446700507615 J0.5888324873096447
G3 X80.62182741116752 Y85.62182741116752 I-0.9517766497461928 J0.30964467005076146
G1 X80.62182741116752 Y85.62182741116752
G1 X80.62182741116752 Y85.62182741116752
G3 X80.57106598984772 Y85.92893401015229 I-1 J0
G3 X80.42893401015228 Y86.20812182741118 I-0.9517766497461928 J-0.30964467005076146
G3 X80.20812182741118 Y86.42893401015229 I-0.8096446700507615 J-0.5888324873096447
G3 X79.92893401015229 Y86.57106598984771 I-0.5888324873096447 J-0.8096446700507615
G1 Z-3 F800
G3 X79.62182741116752 Y86.62182741116752 I-0.30964467005076146 J-0.9517766497461928 F1500
G3 X79.31218274111674 Y86.57106598984771 I0 J-1
G3 X79.03299492385787 Y86.42893401015229 I0.30964467005076146 J-0.9517766497461928
G3 X78.81218274111676 Y86.20812182741118 I0.5888324873096447 J-0.8096446700507615
G3 X78.67005076142132 Y85.92893401015229 I0.8096446700507615 J-0.5888324873096447
G3 X78.62182741116752 Y85.62182741116752 I0.9517766497461928 J-0.30964467005076146
G1 X78.62182741116752 Y85.62182741116752
G1 X78.62182741116752 Y85.62182741116752
G3 X78.67005076142132 Y85.31218274111674 I1 J0
G3 X78.81218274111676 Y85.03299492385787 I0.9517766497461928 J0.30964467005076146
G3 X79.03299492385787 Y84.81218274111676 I0.8096446700507615 J0.5888324873096447
G3 X79.31218274111674 Y84.67005076142131 I0.5888324873096447 J0.8096446700507615
G3 X79.62182741116752 Y84.6218274111675 I0.30964467005076146 J0.9517766497461928
G3 X79.92893401015229 Y84.67005076142131 I0 J1
G3 X80.20812182741118 Y84.81218274111676 I-0.30964467005076146 J0.9517766497461928
G3 X80.42893401015228 Y85.03299492385787 I-0.5888324873096447 J0.8096446700507615
G3 X80.57106598984772 Y85.31218274111674 I-0.8096446700507615 J0.5888324873096447
G3 X80.62182741116752 Y85.62182741116752 I-0.9517766497461928 J0.30964467005076146
G1 X80.62182741116752 Y85.62182741116752
G1 X80.62182741116752 Y85.62182741116752
G3 X80.57106598984772 Y85.92893401015229 I-1 J0
G3 X80.42893401015228 Y86.20812182741118 I-0.9517766497461928 J-0.30964467005076146
G3 X80.20812182741118 Y86.42893401015229 I-0.8096446700507615 J-0.5888324873096447
G3 X79.92893401015229 Y86.57106598984771 I-0.5888324873096447 J-0.8096446700507615
G1 Z-4.5 F800
G3 X79.62182741116752 Y86.62182741116752 I-0.30964467005076146 J-0.9517766497461928 F1500
G3 X79.31218274111674 Y86.57106598984771 I0 J-1
G3 X79.03299492385787 Y86.42893401015229 I0.30964467005076146 J-0.9517766497461928
G3 X78.81218274111676 Y86.20812182741118 I0.5888324873096447 J-0.8096446700507615
G3 X78.67005076142132 Y85.92893401015229 I0.8096446700507615 J-0.5888324873096447
G3 X78.62182741116752 Y85.62182741116752 I0.9517766497461928 J-0.30964467005076146
G1 X78.62182741116752 Y85.62182741116752
G1 X78.62182741116752 Y85.62182741116752
G3 X78.67005076142132 Y85.31218274111674 I1 J0
G3 X78.81218274111676 Y85.03299492385787 I0.9517766497461928 J0.30964467005076146
G3 X79.03299492385787 Y84.81218274111676 I0.8096446700507615 J0.5888324873096447
G3 X79.31218274111674 Y84.67005076142131 I0.5888324873096447 J0.8096446700507615
G3 X79.62182741116752 Y84.6218274111675 I0.30964467005076146 J0.9517766497461928
G3 X79.92893401015229 Y84.67005076142131 I0 J1
G3 X80.20812182741118 Y84.81218274111676 I-0.30964467005076146 J0.9517766497461928
G3 X80.42893401015228 Y85.03299492385787 I-0.5888324873096447 J0.8096446700507615
G3 X80.57106598984772 Y85.31218274111674 I-0.8096446700507615 J0.5888324873096447
G3 X80.62182741116752 Y85.62182741116752 I-0.9517766497461928 J0.30964467005076146
G1 X80.62182741116752 Y85.62182741116752
G1 X80.62182741116752 Y85.62182741116752
G3 X80.57106598984772 Y85.92893401015229 I-1 J0
G3 X80.42893401015228 Y86.20812182741118 I-0.9517766497461928 J-0.30964467005076146
G3 X80.20812182741118 Y86.42893401015229 I-0.8096446700507615 J-0.5888324873096447
G3 X79.92893401015229 Y86.57106598984771 I-0.5888324873096447 J-0.8096446700507615
G1 Z-6 F800
G3 X79.62182741116752 Y86.62182741116752 I-0.30964467005076146 J-0.9517766497461928 F1500
G3 X79.31218274111674 Y86.57106598984771 I0 J-1
G3 X79.03299492385787 Y86.42893401015229 I0.30964467005076146 J-0.9517766497461928
G3 X78.81218274111676 Y86.20812182741118 I0.5888324873096447 J-0.8096446700507615
G3 X78.67005076142132 Y85.92893401015229 I0.8096446700507615 J-0.5888324873096447
G3 X78.62182741116752 Y85.62182741116752 I0.9517766497461928 J-0.30964467005076146
G1 X78.62182741116752 Y85.62182741116752
G1 X78.62182741116752 Y85.62182741116752
G3 X78.67005076142132 Y85.31218274111674 I1 J0
G3 X78.81218274111676 Y85.03299492385787 I0.9517766497461928 J0.30964467005076146
G3 X79.03299492385787 Y84.81218274111676 I0.8096446700507615 J0.5888324873096447
G3 X79.31218274111674 Y84.67005076142131 I0.5888324873096447 J0.8096446700507615
G3 X79.62182741116752 Y84.6218274111675 I0.30964467005076146 J0.9517766497461928
G3 X79.92893401015229 Y84.67005076142131 I0 J1
G3 X80.20812182741118 Y84.81218274111676 I-0.30964467005076146 J0.9517766497461928
G3 X80.42893401015228 Y85.03299492385787 I-0.5888324873096447 J0.8096446700507615
G3 X80.57106598984772 Y85.31218274111674 I-0.8096446700507615 J0.5888324873096447
G3 X80.62182741116752 Y85.62182741116752 I-0.9517766497461928 J0.30964467005076146
G1 X80.62182741116752 Y85.62182741116752
G1 X80.62182741116752 Y85.62182741116752
G3 X80.57106598984772 Y85.92893401015229 I-1 J0
G3 X80.42893401015228 Y86.20812182741118 I-0.9517766497461928 J-0.30964467005076146
G3 X80.20812182741118 Y86.42893401015229 I-0.8096446700507615 J-0.5888324873096447
G3 X79.92893401015229 Y86.57106598984771 I-0.5888324873096447 J-0.8096446700507615
G1 Z-7 F800
G3 X79.62182741116752 Y86.62182741116752 I-0.30964467005076146 J-0.9517766497461928 F1500
G3 X79.31218274111674 Y86.57106598984771 I0 J-1
G3 X79.03299492385787 Y86.42893401015229 I0.30964467005076146 J-0.9517766497461928
G3 X78.81218274111676 Y86.20812182741118 I0.5888324873096447 J-0.8096446700507615
G3 X78.67005076142132 Y85.92893401015229 I0.8096446700507615 J-0.5888324873096447
G3 X78.62182741116752 Y85.62182741116752 I0.9517766497461928 J-0.30964467005076146
G1 X78.62182741116752 Y85.62182741116752
G1 X78.62182741116752 Y85.62182741116752
G3 X78.67005076142132 Y85.31218274111674 I1 J0
G3 X78.81218274111676 Y85.03299492385787 I0.9517766497461928 J0.30964467005076146
G3 X79.03299492385787 Y84.81218274111676 I0.8096446700507615 J0.5888324873096447
G3 X79.31218274111674 Y84.67005076142131 I0.5888324873096447 J0.8096446700507615
G3 X79.62182741116752 Y84.6218274111675 I0.30964467005076146 J0.9517766497461928
G3 X79.92893401015229 Y84.67005076142131 I0 J1
G3 X80.20812182741118 Y84.81218274111676 I-0.30964467005076146 J0.9517766497461928
G3 X80.42893401015228 Y85.03299492385787 I-0.5888324873096447 J0.8096446700507615
G3 X80.57106598984772 Y85.31218274111674 I-0.8096446700507615 J0.5888324873096447
G3 X80.62182741116752 Y85.62182741116752 I-0.9517766497461928 J0.30964467005076146
G1 X80.62182741116752 Y85.62182741116752
G1 X80.62182741116752 Y85.62182741116752
G3 X80.57106598984772 Y85.92893401015229 I-1 J0
G3 X80.42893401015228 Y86.20812182741118 I-0.9517766497461928 J-0.30964467005076146
G3 X80.20812182741118 Y86.42893401015229 I-0.8096446700507615 J-0.5888324873096447
G3 X79.92893401015229 Y86.57106598984771 I-0.5888324873096447 J-0.8096446700507615

(passage connectique)
G0 Z15
G0 X187.83832487309644 Y87.87081218274112
G1 Z-1.5 F800
G1 X92.84263959390863 Y87.87055837563452 F1500
G1 X92.84263959390863 Y79.80203045685279
G2 X91.34263959390863 Y78.30203045685279 I-1.5 J0
G1 X54.121827411167516 Y78.30203045685279
G1 X54.121827411167516 Y15.621827411167512
G1 X113.96700507614213 Y15.621827411167512
G2 X115.46700507614213 Y14.121827411167514 I0 J-1.5
G1 X115.46700507614213 Y7.621827411167512
G1 X187.83756345177665 Y7.621827411167512
G1 X187.83756345177665 Y87.87055837563452
G1 Z-3 F800
G1 X92.84263959390863 Y87.87055837563452 F1500
G1 X92.84263959390863 Y79.80203045685279
G2 X91.34263959390863 Y78.30203045685279 I-1.5 J0
G1 X54.121827411167516 Y78.30203045685279
G1 X54.121827411167516 Y15.621827411167512
G1 X113.96700507614213 Y15.621827411167512
G2 X115.46700507614213 Y14.121827411167514 I0 J-1.5
G1 X115.46700507614213 Y7.621827411167512
G1 X187.83756345177665 Y7.621827411167512
G1 X187.83756345177665 Y87.87055837563452
G1 Z-4.5 F800
G1 X92.84263959390863 Y87.87055837563452 F1500
G1 X92.84263959390863 Y79.80203045685279
G2 X91.34263959390863 Y78.30203045685279 I-1.5 J0
G1 X54.121827411167516 Y78.30203045685279
G1 X54.121827411167516 Y15.621827411167512
G1 X113.96700507614213 Y15.621827411167512
G2 X115.46700507614213 Y14.121827411167514 I0 J-1.5
G1 X115.46700507614213 Y7.621827411167512
G1 X187.83756345177665 Y7.621827411167512
G1 X187.83756345177665 Y87.87055837563452
G1 Z-6 F800
G1 X92.84263959390863 Y87.87055837563452 F1500
G1 X92.84263959390863 Y79.80203045685279
G2 X91.34263959390863 Y78.30203045685279 I-1.5 J0
G1 X54.121827411167516 Y78.30203045685279
G1 X54.121827411167516 Y15.621827411167512
G1 X113.96700507614213 Y15.621827411167512
G2 X115.46700507614213 Y14.121827411167514 I0 J-1.5
G1 X115.46700507614213 Y7.621827411167512
G1 X187.83756345177665 Y7.621827411167512
G1 X187.83756345177665 Y87.87055837563452
G1 Z-7 F800
G1 X92.84263959390863 Y87.87055837563452 F1500
G1 X92.84263959390863 Y79.80203045685279
G2 X91.34263959390863 Y78.30203045685279 I-1.5 J0
G1 X54.121827411167516 Y78.30203045685279
G1 X54.121827411167516 Y15.621827411167512
G1 X113.96700507614213 Y15.621827411167512
G2 X115.46700507614213 Y14.121827411167514 I0 J-1.5
G1 X115.46700507614213 Y7.621827411167512
G1 X187.83756345177665 Y7.621827411167512
G1 X187.83756345177665 Y87.87055837563452

(bordure)
G0 Z15
G0 X0.12081218274111676 Y-1.3791878172588832
G1 Z-1.5 F800
G1 X250.12182741116754 Y-1.3781725888324872 F1500
G3 X251.62182741116752 Y0.1218274111675127 I0 J1.5
G1 X251.62182741116752 Y118.53553299492387
G3 X250.12182741116754 Y120.03553299492387 I-1.5 J0
G1 X0.1218274111675127 Y120.03553299492387
G3 X-1.3781725888324872 Y118.53553299492387 I0 J-1.5
G1 X-1.3781725888324872 Y0.1218274111675127
G3 X0.1218274111675127 Y-1.3781725888324872 I1.5 J0
G1 Z-3 F800
G1 X250.12182741116754 Y-1.3781725888324872 F1500
G3 X251.62182741116752 Y0.1218274111675127 I0 J1.5
G1 X251.62182741116752 Y118.53553299492387
G3 X250.12182741116754 Y120.03553299492387 I-1.5 J0
G1 X0.1218274111675127 Y120.03553299492387
G3 X-1.3781725888324872 Y118.53553299492387 I0 J-1.5
G1 X-1.3781725888324872 Y0.1218274111675127
G3 X0.1218274111675127 Y-1.3781725888324872 I1.5 J0
G1 Z-4.5 F800
G1 X250.12182741116754 Y-1.3781725888324872 F1500
G3 X251.62182741116752 Y0.1218274111675127 I0 J1.5
G1 X251.62182741116752 Y118.53553299492387
G3 X250.12182741116754 Y120.03553299492387 I-1.5 J0
G1 X0.1218274111675127 Y120.03553299492387
G3 X-1.3781725888324872 Y118.53553299492387 I0 J-1.5
G1 X-1.3781725888324872 Y0.1218274111675127
G3 X0.1218274111675127 Y-1.3781725888324872 I1.5 J0
G1 Z-6 F800
G1 X250.12182741116754 Y-1.3781725888324872 F1500
G3 X251.62182741116752 Y0.1218274111675127 I0 J1.5
G1 X251.62182741116752 Y118.53553299492387
G3 X250.12182741116754 Y120.03553299492387 I-1.5 J0
G1 X0.1218274111675127 Y120.03553299492387
G3 X-1.3781725888324872 Y118.53553299492387 I0 J-1.5
G1 X-1.3781725888324872 Y0.1218274111675127
G3 X0.1218274111675127 Y-1.3781725888324872 I1.5 J0
G1 Z-7 F800
G1 X250.12182741116754 Y-1.3781725888324872 F1500
G3 X251.62182741116752 Y0.1218274111675127 I0 J1.5
G1 X251.62182741116752 Y118.53553299492387
G3 X250.12182741116754 Y120.03553299492387 I-1.5 J0
G1 X0.1218274111675127 Y120.03553299492387
G3 X-1.3781725888324872 Y118.53553299492387 I0 J-1.5
G1 X-1.3781725888324872 Y0.1218274111675127
G3 X0.1218274111675127 Y-1.3781725888324872 I1.5 J0
G0 Z15
M5
M30
