(Generated by PartKam Version 0.05)

G21 G90 G40

(trou dph)
G0 Z15
T0 M6
G17
M3
G0 X258.65888324873094 Y82.31218274111676
G1 Z-1.5 F800
G3 X258.6218274111675 Y82.1218274111675 I0.4619289340101523 J-0.1903553299492386 F1500
G3 X258.65989847715736 Y81.92893401015228 I0.5 J0
G3 X258.7664974619289 Y81.76649746192894 I0.4619289340101523 J0.1903553299492386
G3 X258.92893401015226 Y81.65989847715736 I0.35279187817258884 J0.35279187817258884
G3 X259.1218274111675 Y81.62182741116752 I0.1903553299492386 J0.4619289340101523
G3 X259.31218274111677 Y81.65989847715736 I0 J0.5
G3 X259.4746192893401 Y81.76649746192894 I-0.1903553299492386 J0.4619289340101523
G3 X259.5837563451777 Y81.92893401015228 I-0.35279187817258884 J0.35279187817258884
G3 X259.62182741116754 Y82.1218274111675 I-0.4619289340101523 J0.1903553299492386
G3 X259.5837563451777 Y82.31218274111676 I-0.5 J0
G3 X259.4746192893401 Y82.4746192893401 I-0.4619289340101523 J-0.1903553299492386
G3 X259.31218274111677 Y82.58375634517768 I-0.35279187817258884 J-0.35279187817258884
G3 X259.1218274111675 Y82.62182741116752 I-0.1903553299492386 J-0.4619289340101523
G3 X258.92893401015226 Y82.58375634517768 I0 J-0.5
G3 X258.7664974619289 Y82.4746192893401 I0.1903553299492386 J-0.4619289340101523
G3 X258.65989847715736 Y82.31218274111676 I0.35279187817258884 J-0.35279187817258884
G1 Z-3 F800
G3 X258.6218274111675 Y82.1218274111675 I0.4619289340101523 J-0.1903553299492386 F1500
G3 X258.65989847715736 Y81.92893401015228 I0.5 J0
G3 X258.7664974619289 Y81.76649746192894 I0.4619289340101523 J0.1903553299492386
G3 X258.92893401015226 Y81.65989847715736 I0.35279187817258884 J0.35279187817258884
G3 X259.1218274111675 Y81.62182741116752 I0.1903553299492386 J0.4619289340101523
G3 X259.31218274111677 Y81.65989847715736 I0 J0.5
G3 X259.4746192893401 Y81.76649746192894 I-0.1903553299492386 J0.4619289340101523
G3 X259.5837563451777 Y81.92893401015228 I-0.35279187817258884 J0.35279187817258884
G3 X259.62182741116754 Y82.1218274111675 I-0.4619289340101523 J0.1903553299492386
G3 X259.5837563451777 Y82.31218274111676 I-0.5 J0
G3 X259.4746192893401 Y82.4746192893401 I-0.4619289340101523 J-0.1903553299492386
G3 X259.31218274111677 Y82.58375634517768 I-0.35279187817258884 J-0.35279187817258884
G3 X259.1218274111675 Y82.62182741116752 I-0.1903553299492386 J-0.4619289340101523
G3 X258.92893401015226 Y82.58375634517768 I0 J-0.5
G3 X258.7664974619289 Y82.4746192893401 I0.1903553299492386 J-0.4619289340101523
G3 X258.65989847715736 Y82.31218274111676 I0.35279187817258884 J-0.35279187817258884
G1 Z-4.5 F800
G3 X258.6218274111675 Y82.1218274111675 I0.4619289340101523 J-0.1903553299492386 F1500
G3 X258.65989847715736 Y81.92893401015228 I0.5 J0
G3 X258.7664974619289 Y81.76649746192894 I0.4619289340101523 J0.1903553299492386
G3 X258.92893401015226 Y81.65989847715736 I0.35279187817258884 J0.35279187817258884
G3 X259.1218274111675 Y81.62182741116752 I0.1903553299492386 J0.4619289340101523
G3 X259.31218274111677 Y81.65989847715736 I0 J0.5
G3 X259.4746192893401 Y81.76649746192894 I-0.1903553299492386 J0.4619289340101523
G3 X259.5837563451777 Y81.92893401015228 I-0.35279187817258884 J0.35279187817258884
G3 X259.62182741116754 Y82.1218274111675 I-0.4619289340101523 J0.1903553299492386
G3 X259.5837563451777 Y82.31218274111676 I-0.5 J0
G3 X259.4746192893401 Y82.4746192893401 I-0.4619289340101523 J-0.1903553299492386
G3 X259.31218274111677 Y82.58375634517768 I-0.35279187817258884 J-0.35279187817258884
G3 X259.1218274111675 Y82.62182741116752 I-0.1903553299492386 J-0.4619289340101523
G3 X258.92893401015226 Y82.58375634517768 I0 J-0.5
G3 X258.7664974619289 Y82.4746192893401 I0.1903553299492386 J-0.4619289340101523
G3 X258.65989847715736 Y82.31218274111676 I0.35279187817258884 J-0.35279187817258884
G1 Z-6 F800
G3 X258.6218274111675 Y82.1218274111675 I0.4619289340101523 J-0.1903553299492386 F1500
G3 X258.65989847715736 Y81.92893401015228 I0.5 J0
G3 X258.7664974619289 Y81.76649746192894 I0.4619289340101523 J0.1903553299492386
G3 X258.92893401015226 Y81.65989847715736 I0.35279187817258884 J0.35279187817258884
G3 X259.1218274111675 Y81.62182741116752 I0.1903553299492386 J0.4619289340101523
G3 X259.31218274111677 Y81.65989847715736 I0 J0.5
G3 X259.4746192893401 Y81.76649746192894 I-0.1903553299492386 J0.4619289340101523
G3 X259.5837563451777 Y81.92893401015228 I-0.35279187817258884 J0.35279187817258884
G3 X259.62182741116754 Y82.1218274111675 I-0.4619289340101523 J0.1903553299492386
G3 X259.5837563451777 Y82.31218274111676 I-0.5 J0
G3 X259.4746192893401 Y82.4746192893401 I-0.4619289340101523 J-0.1903553299492386
G3 X259.31218274111677 Y82.58375634517768 I-0.35279187817258884 J-0.35279187817258884
G3 X259.1218274111675 Y82.62182741116752 I-0.1903553299492386 J-0.4619289340101523
G3 X258.92893401015226 Y82.58375634517768 I0 J-0.5
G3 X258.7664974619289 Y82.4746192893401 I0.1903553299492386 J-0.4619289340101523
G3 X258.65989847715736 Y82.31218274111676 I0.35279187817258884 J-0.35279187817258884
G1 Z-7 F800
G3 X258.6218274111675 Y82.1218274111675 I0.4619289340101523 J-0.1903553299492386 F1500
G3 X258.65989847715736 Y81.92893401015228 I0.5 J0
G3 X258.7664974619289 Y81.76649746192894 I0.4619289340101523 J0.1903553299492386
G3 X258.92893401015226 Y81.65989847715736 I0.35279187817258884 J0.35279187817258884
G3 X259.1218274111675 Y81.62182741116752 I0.1903553299492386 J0.4619289340101523
G3 X259.31218274111677 Y81.65989847715736 I0 J0.5
G3 X259.4746192893401 Y81.76649746192894 I-0.1903553299492386 J0.4619289340101523
G3 X259.5837563451777 Y81.92893401015228 I-0.35279187817258884 J0.35279187817258884
G3 X259.62182741116754 Y82.1218274111675 I-0.4619289340101523 J0.1903553299492386
G3 X259.5837563451777 Y82.31218274111676 I-0.5 J0
G3 X259.4746192893401 Y82.4746192893401 I-0.4619289340101523 J-0.1903553299492386
G3 X259.31218274111677 Y82.58375634517768 I-0.35279187817258884 J-0.35279187817258884
G3 X259.1218274111675 Y82.62182741116752 I-0.1903553299492386 J-0.4619289340101523
G3 X258.92893401015226 Y82.58375634517768 I0 J-0.5
G3 X258.7664974619289 Y82.4746192893401 I0.1903553299492386 J-0.4619289340101523
G3 X258.65989847715736 Y82.31218274111676 I0.35279187817258884 J-0.35279187817258884
G0 Z15
G0 X258.76725888324876 Y168.4743654822335
G1 Z-1.5 F800
G3 X258.65989847715736 Y168.31218274111674 I0.35279187817258884 J-0.35279187817258884 F1500
G3 X258.6218274111675 Y168.1218274111675 I0.4619289340101523 J-0.1903553299492386
G3 X258.65989847715736 Y167.92893401015226 I0.5 J0
G3 X258.7664974619289 Y167.76649746192896 I0.4619289340101523 J0.1903553299492386
G3 X258.92893401015226 Y167.65989847715736 I0.35279187817258884 J0.35279187817258884
G3 X259.1218274111675 Y167.62182741116754 I0.1903553299492386 J0.4619289340101523
G3 X259.31218274111677 Y167.65989847715736 I0 J0.5
G3 X259.4746192893401 Y167.76649746192896 I-0.1903553299492386 J0.4619289340101523
G3 X259.5837563451777 Y167.92893401015226 I-0.35279187817258884 J0.35279187817258884
G3 X259.62182741116754 Y168.1218274111675 I-0.4619289340101523 J0.1903553299492386
G3 X259.5837563451777 Y168.31218274111674 I-0.5 J0
G3 X259.4746192893401 Y168.4746192893401 I-0.4619289340101523 J-0.1903553299492386
G3 X259.31218274111677 Y168.58375634517768 I-0.35279187817258884 J-0.35279187817258884
G3 X259.1218274111675 Y168.62182741116752 I-0.1903553299492386 J-0.4619289340101523
G3 X258.92893401015226 Y168.58375634517768 I0 J-0.5
G3 X258.7664974619289 Y168.4746192893401 I0.1903553299492386 J-0.4619289340101523
G1 Z-3 F800
G3 X258.65989847715736 Y168.31218274111674 I0.35279187817258884 J-0.35279187817258884 F1500
G3 X258.6218274111675 Y168.1218274111675 I0.4619289340101523 J-0.1903553299492386
G3 X258.65989847715736 Y167.92893401015226 I0.5 J0
G3 X258.7664974619289 Y167.76649746192896 I0.4619289340101523 J0.1903553299492386
G3 X258.92893401015226 Y167.65989847715736 I0.35279187817258884 J0.35279187817258884
G3 X259.1218274111675 Y167.62182741116754 I0.1903553299492386 J0.4619289340101523
G3 X259.31218274111677 Y167.65989847715736 I0 J0.5
G3 X259.4746192893401 Y167.76649746192896 I-0.1903553299492386 J0.4619289340101523
G3 X259.5837563451777 Y167.92893401015226 I-0.35279187817258884 J0.35279187817258884
G3 X259.62182741116754 Y168.1218274111675 I-0.4619289340101523 J0.1903553299492386
G3 X259.5837563451777 Y168.31218274111674 I-0.5 J0
G3 X259.4746192893401 Y168.4746192893401 I-0.4619289340101523 J-0.1903553299492386
G3 X259.31218274111677 Y168.58375634517768 I-0.35279187817258884 J-0.35279187817258884
G3 X259.1218274111675 Y168.62182741116752 I-0.1903553299492386 J-0.4619289340101523
G3 X258.92893401015226 Y168.58375634517768 I0 J-0.5
G3 X258.7664974619289 Y168.4746192893401 I0.1903553299492386 J-0.4619289340101523
G1 Z-4.5 F800
G3 X258.65989847715736 Y168.31218274111674 I0.35279187817258884 J-0.35279187817258884 F1500
G3 X258.6218274111675 Y168.1218274111675 I0.4619289340101523 J-0.1903553299492386
G3 X258.65989847715736 Y167.92893401015226 I0.5 J0
G3 X258.7664974619289 Y167.76649746192896 I0.4619289340101523 J0.1903553299492386
G3 X258.92893401015226 Y167.65989847715736 I0.35279187817258884 J0.35279187817258884
G3 X259.1218274111675 Y167.62182741116754 I0.1903553299492386 J0.4619289340101523
G3 X259.31218274111677 Y167.65989847715736 I0 J0.5
G3 X259.4746192893401 Y167.76649746192896 I-0.1903553299492386 J0.4619289340101523
G3 X259.5837563451777 Y167.92893401015226 I-0.35279187817258884 J0.35279187817258884
G3 X259.62182741116754 Y168.1218274111675 I-0.4619289340101523 J0.1903553299492386
G3 X259.5837563451777 Y168.31218274111674 I-0.5 J0
G3 X259.4746192893401 Y168.4746192893401 I-0.4619289340101523 J-0.1903553299492386
G3 X259.31218274111677 Y168.58375634517768 I-0.35279187817258884 J-0.35279187817258884
G3 X259.1218274111675 Y168.62182741116752 I-0.1903553299492386 J-0.4619289340101523
G3 X258.92893401015226 Y168.58375634517768 I0 J-0.5
G3 X258.7664974619289 Y168.4746192893401 I0.1903553299492386 J-0.4619289340101523
G1 Z-6 F800
G3 X258.65989847715736 Y168.31218274111674 I0.35279187817258884 J-0.35279187817258884 F1500
G3 X258.6218274111675 Y168.1218274111675 I0.4619289340101523 J-0.1903553299492386
G3 X258.65989847715736 Y167.92893401015226 I0.5 J0
G3 X258.7664974619289 Y167.76649746192896 I0.4619289340101523 J0.1903553299492386
G3 X258.92893401015226 Y167.65989847715736 I0.35279187817258884 J0.35279187817258884
G3 X259.1218274111675 Y167.62182741116754 I0.1903553299492386 J0.4619289340101523
G3 X259.31218274111677 Y167.65989847715736 I0 J0.5
G3 X259.4746192893401 Y167.76649746192896 I-0.1903553299492386 J0.4619289340101523
G3 X259.5837563451777 Y167.92893401015226 I-0.35279187817258884 J0.35279187817258884
G3 X259.62182741116754 Y168.1218274111675 I-0.4619289340101523 J0.1903553299492386
G3 X259.5837563451777 Y168.31218274111674 I-0.5 J0
G3 X259.4746192893401 Y168.4746192893401 I-0.4619289340101523 J-0.1903553299492386
G3 X259.31218274111677 Y168.58375634517768 I-0.35279187817258884 J-0.35279187817258884
G3 X259.1218274111675 Y168.62182741116752 I-0.1903553299492386 J-0.4619289340101523
G3 X258.92893401015226 Y168.58375634517768 I0 J-0.5
G3 X258.7664974619289 Y168.4746192893401 I0.1903553299492386 J-0.4619289340101523
G1 Z-7 F800
G3 X258.65989847715736 Y168.31218274111674 I0.35279187817258884 J-0.35279187817258884 F1500
G3 X258.6218274111675 Y168.1218274111675 I0.4619289340101523 J-0.1903553299492386
G3 X258.65989847715736 Y167.92893401015226 I0.5 J0
G3 X258.7664974619289 Y167.76649746192896 I0.4619289340101523 J0.1903553299492386
G3 X258.92893401015226 Y167.65989847715736 I0.35279187817258884 J0.35279187817258884
G3 X259.1218274111675 Y167.62182741116754 I0.1903553299492386 J0.4619289340101523
G3 X259.31218274111677 Y167.65989847715736 I0 J0.5
G3 X259.4746192893401 Y167.76649746192896 I-0.1903553299492386 J0.4619289340101523
G3 X259.5837563451777 Y167.92893401015226 I-0.35279187817258884 J0.35279187817258884
G3 X259.62182741116754 Y168.1218274111675 I-0.4619289340101523 J0.1903553299492386
G3 X259.5837563451777 Y168.31218274111674 I-0.5 J0
G3 X259.4746192893401 Y168.4746192893401 I-0.4619289340101523 J-0.1903553299492386
G3 X259.31218274111677 Y168.58375634517768 I-0.35279187817258884 J-0.35279187817258884
G3 X259.1218274111675 Y168.62182741116752 I-0.1903553299492386 J-0.4619289340101523
G3 X258.92893401015226 Y168.58375634517768 I0 J-0.5
G3 X258.7664974619289 Y168.4746192893401 I0.1903553299492386 J-0.4619289340101523
G0 Z15
G0 X194.64517766497463 Y81.96624365482234
G1 Z-1.5 F800
G3 X194.71573604060916 Y81.82741116751268 I0.47461928934010156 J0.15482233502538073 F1500
G3 X194.8274111675127 Y81.71573604060913 I0.4035532994923858 J0.29441624365482233
G3 X194.96700507614213 Y81.64467005076142 I0.29441624365482233 J0.4035532994923858
G3 X195.12182741116754 Y81.62182741116752 I0.15482233502538073 J0.47461928934010156
G3 X195.2741116751269 Y81.64467005076142 I0 J0.5
G3 X195.41370558375635 Y81.71573604060913 I-0.15482233502538073 J0.47461928934010156
G3 X195.52538071065987 Y81.82741116751268 I-0.29441624365482233 J0.4035532994923858
G3 X195.5964467005076 Y81.96700507614213 I-0.4035532994923858 J0.29441624365482233
G3 X195.6218274111675 Y82.1218274111675 I-0.47461928934010156 J0.15482233502538073
G1 X195.6218274111675 Y82.1218274111675
G1 X195.6218274111675 Y82.1218274111675
G3 X195.5964467005076 Y82.2741116751269 I-0.5 J0
G3 X195.52538071065987 Y82.41370558375635 I-0.47461928934010156 J-0.15482233502538073
G3 X195.41370558375635 Y82.5253807106599 I-0.4035532994923858 J-0.29441624365482233
G3 X195.2741116751269 Y82.59644670050761 I-0.29441624365482233 J-0.4035532994923858
G3 X195.12182741116754 Y82.62182741116752 I-0.15482233502538073 J-0.47461928934010156
G3 X194.96700507614213 Y82.59644670050761 I0 J-0.5
G3 X194.8274111675127 Y82.5253807106599 I0.15482233502538073 J-0.47461928934010156
G3 X194.71573604060916 Y82.41370558375635 I0.29441624365482233 J-0.4035532994923858
G3 X194.64467005076142 Y82.2741116751269 I0.4035532994923858 J-0.29441624365482233
G3 X194.62182741116752 Y82.1218274111675 I0.47461928934010156 J-0.15482233502538073
G1 X194.62182741116752 Y82.1218274111675
G1 X194.62182741116752 Y82.1218274111675
G3 X194.64467005076142 Y81.96700507614213 I0.5 J0
G1 Z-3 F800
G3 X194.71573604060916 Y81.82741116751268 I0.47461928934010156 J0.15482233502538073 F1500
G3 X194.8274111675127 Y81.71573604060913 I0.4035532994923858 J0.29441624365482233
G3 X194.96700507614213 Y81.64467005076142 I0.29441624365482233 J0.4035532994923858
G3 X195.12182741116754 Y81.62182741116752 I0.15482233502538073 J0.47461928934010156
G3 X195.2741116751269 Y81.64467005076142 I0 J0.5
G3 X195.41370558375635 Y81.71573604060913 I-0.15482233502538073 J0.47461928934010156
G3 X195.52538071065987 Y81.82741116751268 I-0.29441624365482233 J0.4035532994923858
G3 X195.5964467005076 Y81.96700507614213 I-0.4035532994923858 J0.29441624365482233
G3 X195.6218274111675 Y82.1218274111675 I-0.47461928934010156 J0.15482233502538073
G1 X195.6218274111675 Y82.1218274111675
G1 X195.6218274111675 Y82.1218274111675
G3 X195.5964467005076 Y82.2741116751269 I-0.5 J0
G3 X195.52538071065987 Y82.41370558375635 I-0.47461928934010156 J-0.15482233502538073
G3 X195.41370558375635 Y82.5253807106599 I-0.4035532994923858 J-0.29441624365482233
G3 X195.2741116751269 Y82.59644670050761 I-0.29441624365482233 J-0.4035532994923858
G3 X195.12182741116754 Y82.62182741116752 I-0.15482233502538073 J-0.47461928934010156
G3 X194.96700507614213 Y82.59644670050761 I0 J-0.5
G3 X194.8274111675127 Y82.5253807106599 I0.15482233502538073 J-0.47461928934010156
G3 X194.71573604060916 Y82.41370558375635 I0.29441624365482233 J-0.4035532994923858
G3 X194.64467005076142 Y82.2741116751269 I0.4035532994923858 J-0.29441624365482233
G3 X194.62182741116752 Y82.1218274111675 I0.47461928934010156 J-0.15482233502538073
G1 X194.62182741116752 Y82.1218274111675
G1 X194.62182741116752 Y82.1218274111675
G3 X194.64467005076142 Y81.96700507614213 I0.5 J0
G1 Z-4.5 F800
G3 X194.71573604060916 Y81.82741116751268 I0.47461928934010156 J0.15482233502538073 F1500
G3 X194.8274111675127 Y81.71573604060913 I0.4035532994923858 J0.29441624365482233
G3 X194.96700507614213 Y81.64467005076142 I0.29441624365482233 J0.4035532994923858
G3 X195.12182741116754 Y81.62182741116752 I0.15482233502538073 J0.47461928934010156
G3 X195.2741116751269 Y81.64467005076142 I0 J0.5
G3 X195.41370558375635 Y81.71573604060913 I-0.15482233502538073 J0.47461928934010156
G3 X195.52538071065987 Y81.82741116751268 I-0.29441624365482233 J0.4035532994923858
G3 X195.5964467005076 Y81.96700507614213 I-0.4035532994923858 J0.29441624365482233
G3 X195.6218274111675 Y82.1218274111675 I-0.47461928934010156 J0.15482233502538073
G1 X195.6218274111675 Y82.1218274111675
G1 X195.6218274111675 Y82.1218274111675
G3 X195.5964467005076 Y82.2741116751269 I-0.5 J0
G3 X195.52538071065987 Y82.41370558375635 I-0.47461928934010156 J-0.15482233502538073
G3 X195.41370558375635 Y82.5253807106599 I-0.4035532994923858 J-0.29441624365482233
G3 X195.2741116751269 Y82.59644670050761 I-0.29441624365482233 J-0.4035532994923858
G3 X195.12182741116754 Y82.62182741116752 I-0.15482233502538073 J-0.47461928934010156
G3 X194.96700507614213 Y82.59644670050761 I0 J-0.5
G3 X194.8274111675127 Y82.5253807106599 I0.15482233502538073 J-0.47461928934010156
G3 X194.71573604060916 Y82.41370558375635 I0.29441624365482233 J-0.4035532994923858
G3 X194.64467005076142 Y82.2741116751269 I0.4035532994923858 J-0.29441624365482233
G3 X194.62182741116752 Y82.1218274111675 I0.47461928934010156 J-0.15482233502538073
G1 X194.62182741116752 Y82.1218274111675
G1 X194.62182741116752 Y82.1218274111675
G3 X194.64467005076142 Y81.96700507614213 I0.5 J0
G1 Z-6 F800
G3 X194.71573604060916 Y81.82741116751268 I0.47461928934010156 J0.15482233502538073 F1500
G3 X194.8274111675127 Y81.71573604060913 I0.4035532994923858 J0.29441624365482233
G3 X194.96700507614213 Y81.64467005076142 I0.29441624365482233 J0.4035532994923858
G3 X195.12182741116754 Y81.62182741116752 I0.15482233502538073 J0.47461928934010156
G3 X195.2741116751269 Y81.64467005076142 I0 J0.5
G3 X195.41370558375635 Y81.71573604060913 I-0.15482233502538073 J0.47461928934010156
G3 X195.52538071065987 Y81.82741116751268 I-0.29441624365482233 J0.4035532994923858
G3 X195.5964467005076 Y81.96700507614213 I-0.4035532994923858 J0.29441624365482233
G3 X195.6218274111675 Y82.1218274111675 I-0.47461928934010156 J0.15482233502538073
G1 X195.6218274111675 Y82.1218274111675
G1 X195.6218274111675 Y82.1218274111675
G3 X195.5964467005076 Y82.2741116751269 I-0.5 J0
G3 X195.52538071065987 Y82.41370558375635 I-0.47461928934010156 J-0.15482233502538073
G3 X195.41370558375635 Y82.5253807106599 I-0.4035532994923858 J-0.29441624365482233
G3 X195.2741116751269 Y82.59644670050761 I-0.29441624365482233 J-0.4035532994923858
G3 X195.12182741116754 Y82.62182741116752 I-0.15482233502538073 J-0.47461928934010156
G3 X194.96700507614213 Y82.59644670050761 I0 J-0.5
G3 X194.8274111675127 Y82.5253807106599 I0.15482233502538073 J-0.47461928934010156
G3 X194.71573604060916 Y82.41370558375635 I0.29441624365482233 J-0.4035532994923858
G3 X194.64467005076142 Y82.2741116751269 I0.4035532994923858 J-0.29441624365482233
G3 X194.62182741116752 Y82.1218274111675 I0.47461928934010156 J-0.15482233502538073
G1 X194.62182741116752 Y82.1218274111675
G1 X194.62182741116752 Y82.1218274111675
G3 X194.64467005076142 Y81.96700507614213 I0.5 J0
G1 Z-7 F800
G3 X194.71573604060916 Y81.82741116751268 I0.47461928934010156 J0.15482233502538073 F1500
G3 X194.8274111675127 Y81.71573604060913 I0.4035532994923858 J0.29441624365482233
G3 X194.96700507614213 Y81.64467005076142 I0.29441624365482233 J0.4035532994923858
G3 X195.12182741116754 Y81.62182741116752 I0.15482233502538073 J0.47461928934010156
G3 X195.2741116751269 Y81.64467005076142 I0 J0.5
G3 X195.41370558375635 Y81.71573604060913 I-0.15482233502538073 J0.47461928934010156
G3 X195.52538071065987 Y81.82741116751268 I-0.29441624365482233 J0.4035532994923858
G3 X195.5964467005076 Y81.96700507614213 I-0.4035532994923858 J0.29441624365482233
G3 X195.6218274111675 Y82.1218274111675 I-0.47461928934010156 J0.15482233502538073
G1 X195.6218274111675 Y82.1218274111675
G1 X195.6218274111675 Y82.1218274111675
G3 X195.5964467005076 Y82.2741116751269 I-0.5 J0
G3 X195.52538071065987 Y82.41370558375635 I-0.47461928934010156 J-0.15482233502538073
G3 X195.41370558375635 Y82.5253807106599 I-0.4035532994923858 J-0.29441624365482233
G3 X195.2741116751269 Y82.59644670050761 I-0.29441624365482233 J-0.4035532994923858
G3 X195.12182741116754 Y82.62182741116752 I-0.15482233502538073 J-0.47461928934010156
G3 X194.96700507614213 Y82.59644670050761 I0 J-0.5
G3 X194.8274111675127 Y82.5253807106599 I0.15482233502538073 J-0.47461928934010156
G3 X194.71573604060916 Y82.41370558375635 I0.29441624365482233 J-0.4035532994923858
G3 X194.64467005076142 Y82.2741116751269 I0.4035532994923858 J-0.29441624365482233
G3 X194.62182741116752 Y82.1218274111675 I0.47461928934010156 J-0.15482233502538073
G1 X194.62182741116752 Y82.1218274111675
G1 X194.62182741116752 Y82.1218274111675
G3 X194.64467005076142 Y81.96700507614213 I0.5 J0
G0 Z15
G0 X194.64517766497463 Y167.96624365482234
G1 Z-1.5 F800
G3 X194.71573604060916 Y167.82741116751268 I0.47461928934010156 J0.15482233502538073 F1500
G3 X194.8274111675127 Y167.71573604060916 I0.4035532994923858 J0.29441624365482233
G3 X194.96700507614213 Y167.64467005076142 I0.29441624365482233 J0.4035532994923858
G3 X195.12182741116754 Y167.62182741116754 I0.15482233502538073 J0.47461928934010156
G3 X195.2741116751269 Y167.64467005076142 I0 J0.5
G3 X195.41370558375635 Y167.71573604060916 I-0.15482233502538073 J0.47461928934010156
G3 X195.52538071065987 Y167.82741116751268 I-0.29441624365482233 J0.4035532994923858
G3 X195.5964467005076 Y167.96700507614213 I-0.4035532994923858 J0.29441624365482233
G3 X195.6218274111675 Y168.1218274111675 I-0.47461928934010156 J0.15482233502538073
G1 X195.6218274111675 Y168.1218274111675
G1 X195.6218274111675 Y168.1218274111675
G3 X195.5964467005076 Y168.2741116751269 I-0.5 J0
G3 X195.52538071065987 Y168.41370558375633 I-0.47461928934010156 J-0.15482233502538073
G3 X195.41370558375635 Y168.5253807106599 I-0.4035532994923858 J-0.29441624365482233
G3 X195.2741116751269 Y168.5964467005076 I-0.29441624365482233 J-0.4035532994923858
G3 X195.12182741116754 Y168.62182741116752 I-0.15482233502538073 J-0.47461928934010156
G3 X194.96700507614213 Y168.5964467005076 I0 J-0.5
G3 X194.8274111675127 Y168.5253807106599 I0.15482233502538073 J-0.47461928934010156
G3 X194.71573604060916 Y168.41370558375633 I0.29441624365482233 J-0.4035532994923858
G3 X194.64467005076142 Y168.2741116751269 I0.4035532994923858 J-0.29441624365482233
G3 X194.62182741116752 Y168.1218274111675 I0.47461928934010156 J-0.15482233502538073
G1 X194.62182741116752 Y168.1218274111675
G1 X194.62182741116752 Y168.1218274111675
G3 X194.64467005076142 Y167.96700507614213 I0.5 J0
G1 Z-3 F800
G3 X194.71573604060916 Y167.82741116751268 I0.47461928934010156 J0.15482233502538073 F1500
G3 X194.8274111675127 Y167.71573604060916 I0.4035532994923858 J0.29441624365482233
G3 X194.96700507614213 Y167.64467005076142 I0.29441624365482233 J0.4035532994923858
G3 X195.12182741116754 Y167.62182741116754 I0.15482233502538073 J0.47461928934010156
G3 X195.2741116751269 Y167.64467005076142 I0 J0.5
G3 X195.41370558375635 Y167.71573604060916 I-0.15482233502538073 J0.47461928934010156
G3 X195.52538071065987 Y167.82741116751268 I-0.29441624365482233 J0.4035532994923858
G3 X195.5964467005076 Y167.96700507614213 I-0.4035532994923858 J0.29441624365482233
G3 X195.6218274111675 Y168.1218274111675 I-0.47461928934010156 J0.15482233502538073
G1 X195.6218274111675 Y168.1218274111675
G1 X195.6218274111675 Y168.1218274111675
G3 X195.5964467005076 Y168.2741116751269 I-0.5 J0
G3 X195.52538071065987 Y168.41370558375633 I-0.47461928934010156 J-0.15482233502538073
G3 X195.41370558375635 Y168.5253807106599 I-0.4035532994923858 J-0.29441624365482233
G3 X195.2741116751269 Y168.5964467005076 I-0.29441624365482233 J-0.4035532994923858
G3 X195.12182741116754 Y168.62182741116752 I-0.15482233502538073 J-0.47461928934010156
G3 X194.96700507614213 Y168.5964467005076 I0 J-0.5
G3 X194.8274111675127 Y168.5253807106599 I0.15482233502538073 J-0.47461928934010156
G3 X194.71573604060916 Y168.41370558375633 I0.29441624365482233 J-0.4035532994923858
G3 X194.64467005076142 Y168.2741116751269 I0.4035532994923858 J-0.29441624365482233
G3 X194.62182741116752 Y168.1218274111675 I0.47461928934010156 J-0.15482233502538073
G1 X194.62182741116752 Y168.1218274111675
G1 X194.62182741116752 Y168.1218274111675
G3 X194.64467005076142 Y167.96700507614213 I0.5 J0
G1 Z-4.5 F800
G3 X194.71573604060916 Y167.82741116751268 I0.47461928934010156 J0.15482233502538073 F1500
G3 X194.8274111675127 Y167.71573604060916 I0.4035532994923858 J0.29441624365482233
G3 X194.96700507614213 Y167.64467005076142 I0.29441624365482233 J0.4035532994923858
G3 X195.12182741116754 Y167.62182741116754 I0.15482233502538073 J0.47461928934010156
G3 X195.2741116751269 Y167.64467005076142 I0 J0.5
G3 X195.41370558375635 Y167.71573604060916 I-0.15482233502538073 J0.47461928934010156
G3 X195.52538071065987 Y167.82741116751268 I-0.29441624365482233 J0.4035532994923858
G3 X195.5964467005076 Y167.96700507614213 I-0.4035532994923858 J0.29441624365482233
G3 X195.6218274111675 Y168.1218274111675 I-0.47461928934010156 J0.15482233502538073
G1 X195.6218274111675 Y168.1218274111675
G1 X195.6218274111675 Y168.1218274111675
G3 X195.5964467005076 Y168.2741116751269 I-0.5 J0
G3 X195.52538071065987 Y168.41370558375633 I-0.47461928934010156 J-0.15482233502538073
G3 X195.41370558375635 Y168.5253807106599 I-0.4035532994923858 J-0.29441624365482233
G3 X195.2741116751269 Y168.5964467005076 I-0.29441624365482233 J-0.4035532994923858
G3 X195.12182741116754 Y168.62182741116752 I-0.15482233502538073 J-0.47461928934010156
G3 X194.96700507614213 Y168.5964467005076 I0 J-0.5
G3 X194.8274111675127 Y168.5253807106599 I0.15482233502538073 J-0.47461928934010156
G3 X194.71573604060916 Y168.41370558375633 I0.29441624365482233 J-0.4035532994923858
G3 X194.64467005076142 Y168.2741116751269 I0.4035532994923858 J-0.29441624365482233
G3 X194.62182741116752 Y168.1218274111675 I0.47461928934010156 J-0.15482233502538073
G1 X194.62182741116752 Y168.1218274111675
G1 X194.62182741116752 Y168.1218274111675
G3 X194.64467005076142 Y167.96700507614213 I0.5 J0
G1 Z-6 F800
G3 X194.71573604060916 Y167.82741116751268 I0.47461928934010156 J0.15482233502538073 F1500
G3 X194.8274111675127 Y167.71573604060916 I0.4035532994923858 J0.29441624365482233
G3 X194.96700507614213 Y167.64467005076142 I0.29441624365482233 J0.4035532994923858
G3 X195.12182741116754 Y167.62182741116754 I0.15482233502538073 J0.47461928934010156
G3 X195.2741116751269 Y167.64467005076142 I0 J0.5
G3 X195.41370558375635 Y167.71573604060916 I-0.15482233502538073 J0.47461928934010156
G3 X195.52538071065987 Y167.82741116751268 I-0.29441624365482233 J0.4035532994923858
G3 X195.5964467005076 Y167.96700507614213 I-0.4035532994923858 J0.29441624365482233
G3 X195.6218274111675 Y168.1218274111675 I-0.47461928934010156 J0.15482233502538073
G1 X195.6218274111675 Y168.1218274111675
G1 X195.6218274111675 Y168.1218274111675
G3 X195.5964467005076 Y168.2741116751269 I-0.5 J0
G3 X195.52538071065987 Y168.41370558375633 I-0.47461928934010156 J-0.15482233502538073
G3 X195.41370558375635 Y168.5253807106599 I-0.4035532994923858 J-0.29441624365482233
G3 X195.2741116751269 Y168.5964467005076 I-0.29441624365482233 J-0.4035532994923858
G3 X195.12182741116754 Y168.62182741116752 I-0.15482233502538073 J-0.47461928934010156
G3 X194.96700507614213 Y168.5964467005076 I0 J-0.5
G3 X194.8274111675127 Y168.5253807106599 I0.15482233502538073 J-0.47461928934010156
G3 X194.71573604060916 Y168.41370558375633 I0.29441624365482233 J-0.4035532994923858
G3 X194.64467005076142 Y168.2741116751269 I0.4035532994923858 J-0.29441624365482233
G3 X194.62182741116752 Y168.1218274111675 I0.47461928934010156 J-0.15482233502538073
G1 X194.62182741116752 Y168.1218274111675
G1 X194.62182741116752 Y168.1218274111675
G3 X194.64467005076142 Y167.96700507614213 I0.5 J0
G1 Z-7 F800
G3 X194.71573604060916 Y167.82741116751268 I0.47461928934010156 J0.15482233502538073 F1500
G3 X194.8274111675127 Y167.71573604060916 I0.4035532994923858 J0.29441624365482233
G3 X194.96700507614213 Y167.64467005076142 I0.29441624365482233 J0.4035532994923858
G3 X195.12182741116754 Y167.62182741116754 I0.15482233502538073 J0.47461928934010156
G3 X195.2741116751269 Y167.64467005076142 I0 J0.5
G3 X195.41370558375635 Y167.71573604060916 I-0.15482233502538073 J0.47461928934010156
G3 X195.52538071065987 Y167.82741116751268 I-0.29441624365482233 J0.4035532994923858
G3 X195.5964467005076 Y167.96700507614213 I-0.4035532994923858 J0.29441624365482233
G3 X195.6218274111675 Y168.1218274111675 I-0.47461928934010156 J0.15482233502538073
G1 X195.6218274111675 Y168.1218274111675
G1 X195.6218274111675 Y168.1218274111675
G3 X195.5964467005076 Y168.2741116751269 I-0.5 J0
G3 X195.52538071065987 Y168.41370558375633 I-0.47461928934010156 J-0.15482233502538073
G3 X195.41370558375635 Y168.5253807106599 I-0.4035532994923858 J-0.29441624365482233
G3 X195.2741116751269 Y168.5964467005076 I-0.29441624365482233 J-0.4035532994923858
G3 X195.12182741116754 Y168.62182741116752 I-0.15482233502538073 J-0.47461928934010156
G3 X194.96700507614213 Y168.5964467005076 I0 J-0.5
G3 X194.8274111675127 Y168.5253807106599 I0.15482233502538073 J-0.47461928934010156
G3 X194.71573604060916 Y168.41370558375633 I0.29441624365482233 J-0.4035532994923858
G3 X194.64467005076142 Y168.2741116751269 I0.4035532994923858 J-0.29441624365482233
G3 X194.62182741116752 Y168.1218274111675 I0.47461928934010156 J-0.15482233502538073
G1 X194.62182741116752 Y168.1218274111675
G1 X194.62182741116752 Y168.1218274111675
G3 X194.64467005076142 Y167.96700507614213 I0.5 J0

(trou usb)
G0 Z15
G0 X234.21218274111675 Y2.6588832487309646
G1 Z-1.5 F800
G3 X234.37309644670052 Y2.766497461928934 I-0.1903553299492386 J0.4619289340101523 F1500
G3 X234.4822335025381 Y2.9289340101522843 I-0.35279187817258884 J0.35279187817258884
G3 X234.52030456852793 Y3.1218274111675126 I-0.4619289340101523 J0.1903553299492386
G3 X234.4822335025381 Y3.3121827411167515 I-0.5 J0
G3 X234.37309644670052 Y3.474619289340102 I-0.4619289340101523 J-0.1903553299492386
G3 X234.21319796954316 Y3.583756345177665 I-0.35279187817258884 J-0.35279187817258884
G3 X234.02030456852793 Y3.6218274111675126 I-0.1903553299492386 J-0.4619289340101523
G3 X233.82994923857868 Y3.583756345177665 I0 J-0.5
G3 X233.66751269035532 Y3.474619289340102 I0.1903553299492386 J-0.4619289340101523
G3 X233.55837563451774 Y3.3121827411167515 I0.35279187817258884 J-0.35279187817258884
G3 X233.5203045685279 Y3.1218274111675126 I0.4619289340101523 J-0.1903553299492386
G3 X233.55837563451774 Y2.9289340101522843 I0.5 J0
G3 X233.66751269035532 Y2.766497461928934 I0.4619289340101523 J0.1903553299492386
G3 X233.82994923857868 Y2.6598984771573604 I0.35279187817258884 J0.35279187817258884
G3 X234.02030456852793 Y2.6218274111675126 I0.1903553299492386 J0.4619289340101523
G3 X234.21319796954316 Y2.6598984771573604 I0 J0.5
G1 Z-3 F800
G3 X234.37309644670052 Y2.766497461928934 I-0.1903553299492386 J0.4619289340101523 F1500
G3 X234.4822335025381 Y2.9289340101522843 I-0.35279187817258884 J0.35279187817258884
G3 X234.52030456852793 Y3.1218274111675126 I-0.4619289340101523 J0.1903553299492386
G3 X234.4822335025381 Y3.3121827411167515 I-0.5 J0
G3 X234.37309644670052 Y3.474619289340102 I-0.4619289340101523 J-0.1903553299492386
G3 X234.21319796954316 Y3.583756345177665 I-0.35279187817258884 J-0.35279187817258884
G3 X234.02030456852793 Y3.6218274111675126 I-0.1903553299492386 J-0.4619289340101523
G3 X233.82994923857868 Y3.583756345177665 I0 J-0.5
G3 X233.66751269035532 Y3.474619289340102 I0.1903553299492386 J-0.4619289340101523
G3 X233.55837563451774 Y3.3121827411167515 I0.35279187817258884 J-0.35279187817258884
G3 X233.5203045685279 Y3.1218274111675126 I0.4619289340101523 J-0.1903553299492386
G3 X233.55837563451774 Y2.9289340101522843 I0.5 J0
G3 X233.66751269035532 Y2.766497461928934 I0.4619289340101523 J0.1903553299492386
G3 X233.82994923857868 Y2.6598984771573604 I0.35279187817258884 J0.35279187817258884
G3 X234.02030456852793 Y2.6218274111675126 I0.1903553299492386 J0.4619289340101523
G3 X234.21319796954316 Y2.6598984771573604 I0 J0.5
G1 Z-4.5 F800
G3 X234.37309644670052 Y2.766497461928934 I-0.1903553299492386 J0.4619289340101523 F1500
G3 X234.4822335025381 Y2.9289340101522843 I-0.35279187817258884 J0.35279187817258884
G3 X234.52030456852793 Y3.1218274111675126 I-0.4619289340101523 J0.1903553299492386
G3 X234.4822335025381 Y3.3121827411167515 I-0.5 J0
G3 X234.37309644670052 Y3.474619289340102 I-0.4619289340101523 J-0.1903553299492386
G3 X234.21319796954316 Y3.583756345177665 I-0.35279187817258884 J-0.35279187817258884
G3 X234.02030456852793 Y3.6218274111675126 I-0.1903553299492386 J-0.4619289340101523
G3 X233.82994923857868 Y3.583756345177665 I0 J-0.5
G3 X233.66751269035532 Y3.474619289340102 I0.1903553299492386 J-0.4619289340101523
G3 X233.55837563451774 Y3.3121827411167515 I0.35279187817258884 J-0.35279187817258884
G3 X233.5203045685279 Y3.1218274111675126 I0.4619289340101523 J-0.1903553299492386
G3 X233.55837563451774 Y2.9289340101522843 I0.5 J0
G3 X233.66751269035532 Y2.766497461928934 I0.4619289340101523 J0.1903553299492386
G3 X233.82994923857868 Y2.6598984771573604 I0.35279187817258884 J0.35279187817258884
G3 X234.02030456852793 Y2.6218274111675126 I0.1903553299492386 J0.4619289340101523
G3 X234.21319796954316 Y2.6598984771573604 I0 J0.5
G1 Z-6 F800
G3 X234.37309644670052 Y2.766497461928934 I-0.1903553299492386 J0.4619289340101523 F1500
G3 X234.4822335025381 Y2.9289340101522843 I-0.35279187817258884 J0.35279187817258884
G3 X234.52030456852793 Y3.1218274111675126 I-0.4619289340101523 J0.1903553299492386
G3 X234.4822335025381 Y3.3121827411167515 I-0.5 J0
G3 X234.37309644670052 Y3.474619289340102 I-0.4619289340101523 J-0.1903553299492386
G3 X234.21319796954316 Y3.583756345177665 I-0.35279187817258884 J-0.35279187817258884
G3 X234.02030456852793 Y3.6218274111675126 I-0.1903553299492386 J-0.4619289340101523
G3 X233.82994923857868 Y3.583756345177665 I0 J-0.5
G3 X233.66751269035532 Y3.474619289340102 I0.1903553299492386 J-0.4619289340101523
G3 X233.55837563451774 Y3.3121827411167515 I0.35279187817258884 J-0.35279187817258884
G3 X233.5203045685279 Y3.1218274111675126 I0.4619289340101523 J-0.1903553299492386
G3 X233.55837563451774 Y2.9289340101522843 I0.5 J0
G3 X233.66751269035532 Y2.766497461928934 I0.4619289340101523 J0.1903553299492386
G3 X233.82994923857868 Y2.6598984771573604 I0.35279187817258884 J0.35279187817258884
G3 X234.02030456852793 Y2.6218274111675126 I0.1903553299492386 J0.4619289340101523
G3 X234.21319796954316 Y2.6598984771573604 I0 J0.5
G1 Z-7 F800
G3 X234.37309644670052 Y2.766497461928934 I-0.1903553299492386 J0.4619289340101523 F1500
G3 X234.4822335025381 Y2.9289340101522843 I-0.35279187817258884 J0.35279187817258884
G3 X234.52030456852793 Y3.1218274111675126 I-0.4619289340101523 J0.1903553299492386
G3 X234.4822335025381 Y3.3121827411167515 I-0.5 J0
G3 X234.37309644670052 Y3.474619289340102 I-0.4619289340101523 J-0.1903553299492386
G3 X234.21319796954316 Y3.583756345177665 I-0.35279187817258884 J-0.35279187817258884
G3 X234.02030456852793 Y3.6218274111675126 I-0.1903553299492386 J-0.4619289340101523
G3 X233.82994923857868 Y3.583756345177665 I0 J-0.5
G3 X233.66751269035532 Y3.474619289340102 I0.1903553299492386 J-0.4619289340101523
G3 X233.55837563451774 Y3.3121827411167515 I0.35279187817258884 J-0.35279187817258884
G3 X233.5203045685279 Y3.1218274111675126 I0.4619289340101523 J-0.1903553299492386
G3 X233.55837563451774 Y2.9289340101522843 I0.5 J0
G3 X233.66751269035532 Y2.766497461928934 I0.4619289340101523 J0.1903553299492386
G3 X233.82994923857868 Y2.6598984771573604 I0.35279187817258884 J0.35279187817258884
G3 X234.02030456852793 Y2.6218274111675126 I0.1903553299492386 J0.4619289340101523
G3 X234.21319796954316 Y2.6598984771573604 I0 J0.5
G0 Z15
G0 X220.5743654822335 Y2.767258883248731
G1 Z-1.5 F800
G3 X220.68274111675126 Y2.9289340101522843 I-0.35279187817258884 J0.35279187817258884 F1500
G3 X220.7208121827411 Y3.1218274111675126 I-0.4619289340101523 J0.1903553299492386
G3 X220.68274111675126 Y3.3121827411167515 I-0.5 J0
G3 X220.57360406091368 Y3.474619289340102 I-0.4619289340101523 J-0.1903553299492386
G3 X220.41116751269038 Y3.583756345177665 I-0.35279187817258884 J-0.35279187817258884
G3 X220.2208121827411 Y3.6218274111675126 I-0.1903553299492386 J-0.4619289340101523
G3 X220.03045685279187 Y3.583756345177665 I0 J-0.5
G3 X219.86802030456855 Y3.474619289340102 I0.1903553299492386 J-0.4619289340101523
G3 X219.75888324873097 Y3.3121827411167515 I0.35279187817258884 J-0.35279187817258884
G3 X219.72081218274113 Y3.1218274111675126 I0.4619289340101523 J-0.1903553299492386
G3 X219.75888324873097 Y2.9289340101522843 I0.5 J0
G3 X219.86802030456855 Y2.766497461928934 I0.4619289340101523 J0.1903553299492386
G3 X220.03045685279187 Y2.6598984771573604 I0.35279187817258884 J0.35279187817258884
G3 X220.2208121827411 Y2.6218274111675126 I0.1903553299492386 J0.4619289340101523
G3 X220.41116751269038 Y2.6598984771573604 I0 J0.5
G3 X220.57360406091368 Y2.766497461928934 I-0.1903553299492386 J0.4619289340101523
G1 Z-3 F800
G3 X220.68274111675126 Y2.9289340101522843 I-0.35279187817258884 J0.35279187817258884 F1500
G3 X220.7208121827411 Y3.1218274111675126 I-0.4619289340101523 J0.1903553299492386
G3 X220.68274111675126 Y3.3121827411167515 I-0.5 J0
G3 X220.57360406091368 Y3.474619289340102 I-0.4619289340101523 J-0.1903553299492386
G3 X220.41116751269038 Y3.583756345177665 I-0.35279187817258884 J-0.35279187817258884
G3 X220.2208121827411 Y3.6218274111675126 I-0.1903553299492386 J-0.4619289340101523
G3 X220.03045685279187 Y3.583756345177665 I0 J-0.5
G3 X219.86802030456855 Y3.474619289340102 I0.1903553299492386 J-0.4619289340101523
G3 X219.75888324873097 Y3.3121827411167515 I0.35279187817258884 J-0.35279187817258884
G3 X219.72081218274113 Y3.1218274111675126 I0.4619289340101523 J-0.1903553299492386
G3 X219.75888324873097 Y2.9289340101522843 I0.5 J0
G3 X219.86802030456855 Y2.766497461928934 I0.4619289340101523 J0.1903553299492386
G3 X220.03045685279187 Y2.6598984771573604 I0.35279187817258884 J0.35279187817258884
G3 X220.2208121827411 Y2.6218274111675126 I0.1903553299492386 J0.4619289340101523
G3 X220.41116751269038 Y2.6598984771573604 I0 J0.5
G3 X220.57360406091368 Y2.766497461928934 I-0.1903553299492386 J0.4619289340101523
G1 Z-4.5 F800
G3 X220.68274111675126 Y2.9289340101522843 I-0.35279187817258884 J0.35279187817258884 F1500
G3 X220.7208121827411 Y3.1218274111675126 I-0.4619289340101523 J0.1903553299492386
G3 X220.68274111675126 Y3.3121827411167515 I-0.5 J0
G3 X220.57360406091368 Y3.474619289340102 I-0.4619289340101523 J-0.1903553299492386
G3 X220.41116751269038 Y3.583756345177665 I-0.35279187817258884 J-0.35279187817258884
G3 X220.2208121827411 Y3.6218274111675126 I-0.1903553299492386 J-0.4619289340101523
G3 X220.03045685279187 Y3.583756345177665 I0 J-0.5
G3 X219.86802030456855 Y3.474619289340102 I0.1903553299492386 J-0.4619289340101523
G3 X219.75888324873097 Y3.3121827411167515 I0.35279187817258884 J-0.35279187817258884
G3 X219.72081218274113 Y3.1218274111675126 I0.4619289340101523 J-0.1903553299492386
G3 X219.75888324873097 Y2.9289340101522843 I0.5 J0
G3 X219.86802030456855 Y2.766497461928934 I0.4619289340101523 J0.1903553299492386
G3 X220.03045685279187 Y2.6598984771573604 I0.35279187817258884 J0.35279187817258884
G3 X220.2208121827411 Y2.6218274111675126 I0.1903553299492386 J0.4619289340101523
G3 X220.41116751269038 Y2.6598984771573604 I0 J0.5
G3 X220.57360406091368 Y2.766497461928934 I-0.1903553299492386 J0.4619289340101523
G1 Z-6 F800
G3 X220.68274111675126 Y2.9289340101522843 I-0.35279187817258884 J0.35279187817258884 F1500
G3 X220.7208121827411 Y3.1218274111675126 I-0.4619289340101523 J0.1903553299492386
G3 X220.68274111675126 Y3.3121827411167515 I-0.5 J0
G3 X220.57360406091368 Y3.474619289340102 I-0.4619289340101523 J-0.1903553299492386
G3 X220.41116751269038 Y3.583756345177665 I-0.35279187817258884 J-0.35279187817258884
G3 X220.2208121827411 Y3.6218274111675126 I-0.1903553299492386 J-0.4619289340101523
G3 X220.03045685279187 Y3.583756345177665 I0 J-0.5
G3 X219.86802030456855 Y3.474619289340102 I0.1903553299492386 J-0.4619289340101523
G3 X219.75888324873097 Y3.3121827411167515 I0.35279187817258884 J-0.35279187817258884
G3 X219.72081218274113 Y3.1218274111675126 I0.4619289340101523 J-0.1903553299492386
G3 X219.75888324873097 Y2.9289340101522843 I0.5 J0
G3 X219.86802030456855 Y2.766497461928934 I0.4619289340101523 J0.1903553299492386
G3 X220.03045685279187 Y2.6598984771573604 I0.35279187817258884 J0.35279187817258884
G3 X220.2208121827411 Y2.6218274111675126 I0.1903553299492386 J0.4619289340101523
G3 X220.41116751269038 Y2.6598984771573604 I0 J0.5
G3 X220.57360406091368 Y2.766497461928934 I-0.1903553299492386 J0.4619289340101523
G1 Z-7 F800
G3 X220.68274111675126 Y2.9289340101522843 I-0.35279187817258884 J0.35279187817258884 F1500
G3 X220.7208121827411 Y3.1218274111675126 I-0.4619289340101523 J0.1903553299492386
G3 X220.68274111675126 Y3.3121827411167515 I-0.5 J0
G3 X220.57360406091368 Y3.474619289340102 I-0.4619289340101523 J-0.1903553299492386
G3 X220.41116751269038 Y3.583756345177665 I-0.35279187817258884 J-0.35279187817258884
G3 X220.2208121827411 Y3.6218274111675126 I-0.1903553299492386 J-0.4619289340101523
G3 X220.03045685279187 Y3.583756345177665 I0 J-0.5
G3 X219.86802030456855 Y3.474619289340102 I0.1903553299492386 J-0.4619289340101523
G3 X219.75888324873097 Y3.3121827411167515 I0.35279187817258884 J-0.35279187817258884
G3 X219.72081218274113 Y3.1218274111675126 I0.4619289340101523 J-0.1903553299492386
G3 X219.75888324873097 Y2.9289340101522843 I0.5 J0
G3 X219.86802030456855 Y2.766497461928934 I0.4619289340101523 J0.1903553299492386
G3 X220.03045685279187 Y2.6598984771573604 I0.35279187817258884 J0.35279187817258884
G3 X220.2208121827411 Y2.6218274111675126 I0.1903553299492386 J0.4619289340101523
G3 X220.41116751269038 Y2.6598984771573604 I0 J0.5
G3 X220.57360406091368 Y2.766497461928934 I-0.1903553299492386 J0.4619289340101523

(bordure)
G0 Z15
G0 X0.12081218274111676 Y-1.3791878172588832
G1 Z-1.5 F800
G1 X313.1218274111675 Y-1.3781725888324872 F1500
G3 X314.62182741116754 Y0.1218274111675127 I0 J1.5
G1 X314.62182741116754 Y250.12182741116754
G3 X313.1218274111675 Y251.62182741116752 I-1.5 J0
G1 X0.1218274111675127 Y251.62182741116752
G3 X-1.3781725888324872 Y250.12182741116754 I0 J-1.5
G1 X-1.3781725888324872 Y0.1218274111675127
G3 X0.1218274111675127 Y-1.3781725888324872 I1.5 J0
G1 Z-3 F800
G1 X313.1218274111675 Y-1.3781725888324872 F1500
G3 X314.62182741116754 Y0.1218274111675127 I0 J1.5
G1 X314.62182741116754 Y250.12182741116754
G3 X313.1218274111675 Y251.62182741116752 I-1.5 J0
G1 X0.1218274111675127 Y251.62182741116752
G3 X-1.3781725888324872 Y250.12182741116754 I0 J-1.5
G1 X-1.3781725888324872 Y0.1218274111675127
G3 X0.1218274111675127 Y-1.3781725888324872 I1.5 J0
G1 Z-4.5 F800
G1 X313.1218274111675 Y-1.3781725888324872 F1500
G3 X314.62182741116754 Y0.1218274111675127 I0 J1.5
G1 X314.62182741116754 Y250.12182741116754
G3 X313.1218274111675 Y251.62182741116752 I-1.5 J0
G1 X0.1218274111675127 Y251.62182741116752
G3 X-1.3781725888324872 Y250.12182741116754 I0 J-1.5
G1 X-1.3781725888324872 Y0.1218274111675127
G3 X0.1218274111675127 Y-1.3781725888324872 I1.5 J0
G1 Z-6 F800
G1 X313.1218274111675 Y-1.3781725888324872 F1500
G3 X314.62182741116754 Y0.1218274111675127 I0 J1.5
G1 X314.62182741116754 Y250.12182741116754
G3 X313.1218274111675 Y251.62182741116752 I-1.5 J0
G1 X0.1218274111675127 Y251.62182741116752
G3 X-1.3781725888324872 Y250.12182741116754 I0 J-1.5
G1 X-1.3781725888324872 Y0.1218274111675127
G3 X0.1218274111675127 Y-1.3781725888324872 I1.5 J0
G1 Z-7 F800
G1 X313.1218274111675 Y-1.3781725888324872 F1500
G3 X314.62182741116754 Y0.1218274111675127 I0 J1.5
G1 X314.62182741116754 Y250.12182741116754
G3 X313.1218274111675 Y251.62182741116752 I-1.5 J0
G1 X0.1218274111675127 Y251.62182741116752
G3 X-1.3781725888324872 Y250.12182741116754 I0 J-1.5
G1 X-1.3781725888324872 Y0.1218274111675127
G3 X0.1218274111675127 Y-1.3781725888324872 I1.5 J0
G0 Z15
M5
M30
