(Generated by PartKam Version 0.05)

G21 G90 G40

(connecteurs bananes)
G0 Z15
T0 M6
G17
M3
G0 X80.102538071066 Y28.25532994923858
G1 Z-1.5 F800
G3 X80.77664974619289 Y26.931472081218274 I4.517766497461929 J1.4670050761421318 F1500
G3 X81.82741116751268 Y25.878172588832488 I3.8426395939086295 J2.7918781725888326
G3 X83.15228426395939 Y25.20304568527919 I2.7918781725888326 J3.8426395939086295
G3 X84.6218274111675 Y24.972081218274113 I1.469543147208122 J4.517766497461929
G3 X86.08883248730965 Y25.20304568527919 I0 J4.751269035532995
G3 X87.41370558375635 Y25.878172588832488 I-1.469543147208122 J4.517766497461929
G3 X88.46446700507614 Y26.931472081218274 I-2.7918781725888326 J3.8426395939086295
G3 X89.13959390862944 Y28.256345177664976 I-3.8426395939086295 J2.7918781725888326
G3 X89.37055837563452 Y29.72081218274112 I-4.517766497461929 J1.4670050761421318
G1 X89.37055837563452 Y29.723350253807105
G1 X89.37055837563452 Y29.725888324873097
G3 X89.13959390862944 Y31.192893401015226 I-4.748730964467005 J0
G3 X88.46446700507614 Y32.51776649746193 I-4.517766497461929 J-1.4670050761421318
G3 X87.41370558375635 Y33.568527918781726 I-3.8426395939086295 J-2.7918781725888326
G3 X86.08883248730965 Y34.243654822335024 I-2.7918781725888326 J-3.8426395939086295
G3 X84.6218274111675 Y34.47715736040609 I-1.4670050761421318 J-4.517766497461929
G3 X83.15228426395939 Y34.243654822335024 I0 J-4.748730964467005
G3 X81.82741116751268 Y33.568527918781726 I1.4670050761421318 J-4.517766497461929
G3 X80.77664974619289 Y32.51776649746193 I2.7918781725888326 J-3.8426395939086295
G3 X80.1015228426396 Y31.192893401015226 I3.8426395939086295 J-2.7918781725888326
G3 X79.87055837563452 Y29.725888324873097 I4.517766497461929 J-1.4670050761421318
G1 X79.87055837563452 Y29.723350253807105
G1 X79.87055837563452 Y29.72081218274112
G3 X80.1015228426396 Y28.256345177664976 I4.751269035532995 J0
G1 Z-3 F800
G3 X80.77664974619289 Y26.931472081218274 I4.517766497461929 J1.4670050761421318 F1500
G3 X81.82741116751268 Y25.878172588832488 I3.8426395939086295 J2.7918781725888326
G3 X83.15228426395939 Y25.20304568527919 I2.7918781725888326 J3.8426395939086295
G3 X84.6218274111675 Y24.972081218274113 I1.469543147208122 J4.517766497461929
G3 X86.08883248730965 Y25.20304568527919 I0 J4.751269035532995
G3 X87.41370558375635 Y25.878172588832488 I-1.469543147208122 J4.517766497461929
G3 X88.46446700507614 Y26.931472081218274 I-2.7918781725888326 J3.8426395939086295
G3 X89.13959390862944 Y28.256345177664976 I-3.8426395939086295 J2.7918781725888326
G3 X89.37055837563452 Y29.72081218274112 I-4.517766497461929 J1.4670050761421318
G1 X89.37055837563452 Y29.723350253807105
G1 X89.37055837563452 Y29.725888324873097
G3 X89.13959390862944 Y31.192893401015226 I-4.748730964467005 J0
G3 X88.46446700507614 Y32.51776649746193 I-4.517766497461929 J-1.4670050761421318
G3 X87.41370558375635 Y33.568527918781726 I-3.8426395939086295 J-2.7918781725888326
G3 X86.08883248730965 Y34.243654822335024 I-2.7918781725888326 J-3.8426395939086295
G3 X84.6218274111675 Y34.47715736040609 I-1.4670050761421318 J-4.517766497461929
G3 X83.15228426395939 Y34.243654822335024 I0 J-4.748730964467005
G3 X81.82741116751268 Y33.568527918781726 I1.4670050761421318 J-4.517766497461929
G3 X80.77664974619289 Y32.51776649746193 I2.7918781725888326 J-3.8426395939086295
G3 X80.1015228426396 Y31.192893401015226 I3.8426395939086295 J-2.7918781725888326
G3 X79.87055837563452 Y29.725888324873097 I4.517766497461929 J-1.4670050761421318
G1 X79.87055837563452 Y29.723350253807105
G1 X79.87055837563452 Y29.72081218274112
G3 X80.1015228426396 Y28.256345177664976 I4.751269035532995 J0
G1 Z-4.5 F800
G3 X80.77664974619289 Y26.931472081218274 I4.517766497461929 J1.4670050761421318 F1500
G3 X81.82741116751268 Y25.878172588832488 I3.8426395939086295 J2.7918781725888326
G3 X83.15228426395939 Y25.20304568527919 I2.7918781725888326 J3.8426395939086295
G3 X84.6218274111675 Y24.972081218274113 I1.469543147208122 J4.517766497461929
G3 X86.08883248730965 Y25.20304568527919 I0 J4.751269035532995
G3 X87.41370558375635 Y25.878172588832488 I-1.469543147208122 J4.517766497461929
G3 X88.46446700507614 Y26.931472081218274 I-2.7918781725888326 J3.8426395939086295
G3 X89.13959390862944 Y28.256345177664976 I-3.8426395939086295 J2.7918781725888326
G3 X89.37055837563452 Y29.72081218274112 I-4.517766497461929 J1.4670050761421318
G1 X89.37055837563452 Y29.723350253807105
G1 X89.37055837563452 Y29.725888324873097
G3 X89.13959390862944 Y31.192893401015226 I-4.748730964467005 J0
G3 X88.46446700507614 Y32.51776649746193 I-4.517766497461929 J-1.4670050761421318
G3 X87.41370558375635 Y33.568527918781726 I-3.8426395939086295 J-2.7918781725888326
G3 X86.08883248730965 Y34.243654822335024 I-2.7918781725888326 J-3.8426395939086295
G3 X84.6218274111675 Y34.47715736040609 I-1.4670050761421318 J-4.517766497461929
G3 X83.15228426395939 Y34.243654822335024 I0 J-4.748730964467005
G3 X81.82741116751268 Y33.568527918781726 I1.4670050761421318 J-4.517766497461929
G3 X80.77664974619289 Y32.51776649746193 I2.7918781725888326 J-3.8426395939086295
G3 X80.1015228426396 Y31.192893401015226 I3.8426395939086295 J-2.7918781725888326
G3 X79.87055837563452 Y29.725888324873097 I4.517766497461929 J-1.4670050761421318
G1 X79.87055837563452 Y29.723350253807105
G1 X79.87055837563452 Y29.72081218274112
G3 X80.1015228426396 Y28.256345177664976 I4.751269035532995 J0
G1 Z-6 F800
G3 X80.77664974619289 Y26.931472081218274 I4.517766497461929 J1.4670050761421318 F1500
G3 X81.82741116751268 Y25.878172588832488 I3.8426395939086295 J2.7918781725888326
G3 X83.15228426395939 Y25.20304568527919 I2.7918781725888326 J3.8426395939086295
G3 X84.6218274111675 Y24.972081218274113 I1.469543147208122 J4.517766497461929
G3 X86.08883248730965 Y25.20304568527919 I0 J4.751269035532995
G3 X87.41370558375635 Y25.878172588832488 I-1.469543147208122 J4.517766497461929
G3 X88.46446700507614 Y26.931472081218274 I-2.7918781725888326 J3.8426395939086295
G3 X89.13959390862944 Y28.256345177664976 I-3.8426395939086295 J2.7918781725888326
G3 X89.37055837563452 Y29.72081218274112 I-4.517766497461929 J1.4670050761421318
G1 X89.37055837563452 Y29.723350253807105
G1 X89.37055837563452 Y29.725888324873097
G3 X89.13959390862944 Y31.192893401015226 I-4.748730964467005 J0
G3 X88.46446700507614 Y32.51776649746193 I-4.517766497461929 J-1.4670050761421318
G3 X87.41370558375635 Y33.568527918781726 I-3.8426395939086295 J-2.7918781725888326
G3 X86.08883248730965 Y34.243654822335024 I-2.7918781725888326 J-3.8426395939086295
G3 X84.6218274111675 Y34.47715736040609 I-1.4670050761421318 J-4.517766497461929
G3 X83.15228426395939 Y34.243654822335024 I0 J-4.748730964467005
G3 X81.82741116751268 Y33.568527918781726 I1.4670050761421318 J-4.517766497461929
G3 X80.77664974619289 Y32.51776649746193 I2.7918781725888326 J-3.8426395939086295
G3 X80.1015228426396 Y31.192893401015226 I3.8426395939086295 J-2.7918781725888326
G3 X79.87055837563452 Y29.725888324873097 I4.517766497461929 J-1.4670050761421318
G1 X79.87055837563452 Y29.723350253807105
G1 X79.87055837563452 Y29.72081218274112
G3 X80.1015228426396 Y28.256345177664976 I4.751269035532995 J0
G1 Z-7 F800
G3 X80.77664974619289 Y26.931472081218274 I4.517766497461929 J1.4670050761421318 F1500
G3 X81.82741116751268 Y25.878172588832488 I3.8426395939086295 J2.7918781725888326
G3 X83.15228426395939 Y25.20304568527919 I2.7918781725888326 J3.8426395939086295
G3 X84.6218274111675 Y24.972081218274113 I1.469543147208122 J4.517766497461929
G3 X86.08883248730965 Y25.20304568527919 I0 J4.751269035532995
G3 X87.41370558375635 Y25.878172588832488 I-1.469543147208122 J4.517766497461929
G3 X88.46446700507614 Y26.931472081218274 I-2.7918781725888326 J3.8426395939086295
G3 X89.13959390862944 Y28.256345177664976 I-3.8426395939086295 J2.7918781725888326
G3 X89.37055837563452 Y29.72081218274112 I-4.517766497461929 J1.4670050761421318
G1 X89.37055837563452 Y29.723350253807105
G1 X89.37055837563452 Y29.725888324873097
G3 X89.13959390862944 Y31.192893401015226 I-4.748730964467005 J0
G3 X88.46446700507614 Y32.51776649746193 I-4.517766497461929 J-1.4670050761421318
G3 X87.41370558375635 Y33.568527918781726 I-3.8426395939086295 J-2.7918781725888326
G3 X86.08883248730965 Y34.243654822335024 I-2.7918781725888326 J-3.8426395939086295
G3 X84.6218274111675 Y34.47715736040609 I-1.4670050761421318 J-4.517766497461929
G3 X83.15228426395939 Y34.243654822335024 I0 J-4.748730964467005
G3 X81.82741116751268 Y33.568527918781726 I1.4670050761421318 J-4.517766497461929
G3 X80.77664974619289 Y32.51776649746193 I2.7918781725888326 J-3.8426395939086295
G3 X80.1015228426396 Y31.192893401015226 I3.8426395939086295 J-2.7918781725888326
G3 X79.87055837563452 Y29.725888324873097 I4.517766497461929 J-1.4670050761421318
G1 X79.87055837563452 Y29.723350253807105
G1 X79.87055837563452 Y29.72081218274112
G3 X80.1015228426396 Y28.256345177664976 I4.751269035532995 J0
G0 Z15
G0 X209.1522842639594 Y76.9236040609137
G1 Z-1.5 F800
G3 X208.4771573604061 Y75.5989847715736 I3.8426395939086295 J-2.7918781725888326 F1500
G3 X208.24619289340103 Y74.13197969543147 I4.517766497461929 J-1.4670050761421318
G1 X208.24619289340103 Y74.12944162436548
G1 X208.24619289340103 Y74.12690355329948
G3 X208.4771573604061 Y72.66243654822335 I4.748730964467005 J0
G3 X209.1522842639594 Y71.33756345177665 I4.517766497461929 J1.4670050761421318
G3 X210.2030456852792 Y70.28426395939087 I3.8426395939086295 J2.7918781725888326
G3 X211.5279187817259 Y69.60913705583756 I2.7918781725888326 J3.8426395939086295
G3 X212.99492385786803 Y69.37817258883248 I1.4670050761421318 J4.517766497461929
G3 X214.46446700507613 Y69.60913705583756 I0 J4.748730964467005
G3 X215.78934010152284 Y70.28426395939087 I-1.4670050761421318 J4.517766497461929
G3 X216.84010152284262 Y71.33756345177665 I-2.7918781725888326 J3.8426395939086295
G3 X217.51269035532997 Y72.66243654822335 I-3.8426395939086295 J2.7918781725888326
G3 X217.74619289340103 Y74.12690355329948 I-4.517766497461929 J1.4670050761421318
G1 X217.74619289340103 Y74.12944162436548
G1 X217.74619289340103 Y74.13197969543147
G3 X217.51269035532997 Y75.5989847715736 I-4.748730964467005 J0
G3 X216.84010152284262 Y76.9238578680203 I-4.517766497461929 J-1.4670050761421318
G3 X215.78934010152284 Y77.9746192893401 I-3.8426395939086295 J-2.7918781725888326
G3 X214.46446700507613 Y78.6497461928934 I-2.7918781725888326 J-3.8426395939086295
G3 X212.99492385786803 Y78.88324873096447 I-1.4670050761421318 J-4.517766497461929
G3 X211.5279187817259 Y78.6497461928934 I0 J-4.748730964467005
G3 X210.2030456852792 Y77.9746192893401 I1.4670050761421318 J-4.517766497461929
G3 X209.1522842639594 Y76.9238578680203 I2.7918781725888326 J-3.8426395939086295
G1 Z-3 F800
G3 X208.4771573604061 Y75.5989847715736 I3.8426395939086295 J-2.7918781725888326 F1500
G3 X208.24619289340103 Y74.13197969543147 I4.517766497461929 J-1.4670050761421318
G1 X208.24619289340103 Y74.12944162436548
G1 X208.24619289340103 Y74.12690355329948
G3 X208.4771573604061 Y72.66243654822335 I4.748730964467005 J0
G3 X209.1522842639594 Y71.33756345177665 I4.517766497461929 J1.4670050761421318
G3 X210.2030456852792 Y70.28426395939087 I3.8426395939086295 J2.7918781725888326
G3 X211.5279187817259 Y69.60913705583756 I2.7918781725888326 J3.8426395939086295
G3 X212.99492385786803 Y69.37817258883248 I1.4670050761421318 J4.517766497461929
G3 X214.46446700507613 Y69.60913705583756 I0 J4.748730964467005
G3 X215.78934010152284 Y70.28426395939087 I-1.4670050761421318 J4.517766497461929
G3 X216.84010152284262 Y71.33756345177665 I-2.7918781725888326 J3.8426395939086295
G3 X217.51269035532997 Y72.66243654822335 I-3.8426395939086295 J2.7918781725888326
G3 X217.74619289340103 Y74.12690355329948 I-4.517766497461929 J1.4670050761421318
G1 X217.74619289340103 Y74.12944162436548
G1 X217.74619289340103 Y74.13197969543147
G3 X217.51269035532997 Y75.5989847715736 I-4.748730964467005 J0
G3 X216.84010152284262 Y76.9238578680203 I-4.517766497461929 J-1.4670050761421318
G3 X215.78934010152284 Y77.9746192893401 I-3.8426395939086295 J-2.7918781725888326
G3 X214.46446700507613 Y78.6497461928934 I-2.7918781725888326 J-3.8426395939086295
G3 X212.99492385786803 Y78.88324873096447 I-1.4670050761421318 J-4.517766497461929
G3 X211.5279187817259 Y78.6497461928934 I0 J-4.748730964467005
G3 X210.2030456852792 Y77.9746192893401 I1.4670050761421318 J-4.517766497461929
G3 X209.1522842639594 Y76.9238578680203 I2.7918781725888326 J-3.8426395939086295
G1 Z-4.5 F800
G3 X208.4771573604061 Y75.5989847715736 I3.8426395939086295 J-2.7918781725888326 F1500
G3 X208.24619289340103 Y74.13197969543147 I4.517766497461929 J-1.4670050761421318
G1 X208.24619289340103 Y74.12944162436548
G1 X208.24619289340103 Y74.12690355329948
G3 X208.4771573604061 Y72.66243654822335 I4.748730964467005 J0
G3 X209.1522842639594 Y71.33756345177665 I4.517766497461929 J1.4670050761421318
G3 X210.2030456852792 Y70.28426395939087 I3.8426395939086295 J2.7918781725888326
G3 X211.5279187817259 Y69.60913705583756 I2.7918781725888326 J3.8426395939086295
G3 X212.99492385786803 Y69.37817258883248 I1.4670050761421318 J4.517766497461929
G3 X214.46446700507613 Y69.60913705583756 I0 J4.748730964467005
G3 X215.78934010152284 Y70.28426395939087 I-1.4670050761421318 J4.517766497461929
G3 X216.84010152284262 Y71.33756345177665 I-2.7918781725888326 J3.8426395939086295
G3 X217.51269035532997 Y72.66243654822335 I-3.8426395939086295 J2.7918781725888326
G3 X217.74619289340103 Y74.12690355329948 I-4.517766497461929 J1.4670050761421318
G1 X217.74619289340103 Y74.12944162436548
G1 X217.74619289340103 Y74.13197969543147
G3 X217.51269035532997 Y75.5989847715736 I-4.748730964467005 J0
G3 X216.84010152284262 Y76.9238578680203 I-4.517766497461929 J-1.4670050761421318
G3 X215.78934010152284 Y77.9746192893401 I-3.8426395939086295 J-2.7918781725888326
G3 X214.46446700507613 Y78.6497461928934 I-2.7918781725888326 J-3.8426395939086295
G3 X212.99492385786803 Y78.88324873096447 I-1.4670050761421318 J-4.517766497461929
G3 X211.5279187817259 Y78.6497461928934 I0 J-4.748730964467005
G3 X210.2030456852792 Y77.9746192893401 I1.4670050761421318 J-4.517766497461929
G3 X209.1522842639594 Y76.9238578680203 I2.7918781725888326 J-3.8426395939086295
G1 Z-6 F800
G3 X208.4771573604061 Y75.5989847715736 I3.8426395939086295 J-2.7918781725888326 F1500
G3 X208.24619289340103 Y74.13197969543147 I4.517766497461929 J-1.4670050761421318
G1 X208.24619289340103 Y74.12944162436548
G1 X208.24619289340103 Y74.12690355329948
G3 X208.4771573604061 Y72.66243654822335 I4.748730964467005 J0
G3 X209.1522842639594 Y71.33756345177665 I4.517766497461929 J1.4670050761421318
G3 X210.2030456852792 Y70.28426395939087 I3.8426395939086295 J2.7918781725888326
G3 X211.5279187817259 Y69.60913705583756 I2.7918781725888326 J3.8426395939086295
G3 X212.99492385786803 Y69.37817258883248 I1.4670050761421318 J4.517766497461929
G3 X214.46446700507613 Y69.60913705583756 I0 J4.748730964467005
G3 X215.78934010152284 Y70.28426395939087 I-1.4670050761421318 J4.517766497461929
G3 X216.84010152284262 Y71.33756345177665 I-2.7918781725888326 J3.8426395939086295
G3 X217.51269035532997 Y72.66243654822335 I-3.8426395939086295 J2.7918781725888326
G3 X217.74619289340103 Y74.12690355329948 I-4.517766497461929 J1.4670050761421318
G1 X217.74619289340103 Y74.12944162436548
G1 X217.74619289340103 Y74.13197969543147
G3 X217.51269035532997 Y75.5989847715736 I-4.748730964467005 J0
G3 X216.84010152284262 Y76.9238578680203 I-4.517766497461929 J-1.4670050761421318
G3 X215.78934010152284 Y77.9746192893401 I-3.8426395939086295 J-2.7918781725888326
G3 X214.46446700507613 Y78.6497461928934 I-2.7918781725888326 J-3.8426395939086295
G3 X212.99492385786803 Y78.88324873096447 I-1.4670050761421318 J-4.517766497461929
G3 X211.5279187817259 Y78.6497461928934 I0 J-4.748730964467005
G3 X210.2030456852792 Y77.9746192893401 I1.4670050761421318 J-4.517766497461929
G3 X209.1522842639594 Y76.9238578680203 I2.7918781725888326 J-3.8426395939086295
G1 Z-7 F800
G3 X208.4771573604061 Y75.5989847715736 I3.8426395939086295 J-2.7918781725888326 F1500
G3 X208.24619289340103 Y74.13197969543147 I4.517766497461929 J-1.4670050761421318
G1 X208.24619289340103 Y74.12944162436548
G1 X208.24619289340103 Y74.12690355329948
G3 X208.4771573604061 Y72.66243654822335 I4.748730964467005 J0
G3 X209.1522842639594 Y71.33756345177665 I4.517766497461929 J1.4670050761421318
G3 X210.2030456852792 Y70.28426395939087 I3.8426395939086295 J2.7918781725888326
G3 X211.5279187817259 Y69.60913705583756 I2.7918781725888326 J3.8426395939086295
G3 X212.99492385786803 Y69.37817258883248 I1.4670050761421318 J4.517766497461929
G3 X214.46446700507613 Y69.60913705583756 I0 J4.748730964467005
G3 X215.78934010152284 Y70.28426395939087 I-1.4670050761421318 J4.517766497461929
G3 X216.84010152284262 Y71.33756345177665 I-2.7918781725888326 J3.8426395939086295
G3 X217.51269035532997 Y72.66243654822335 I-3.8426395939086295 J2.7918781725888326
G3 X217.74619289340103 Y74.12690355329948 I-4.517766497461929 J1.4670050761421318
G1 X217.74619289340103 Y74.12944162436548
G1 X217.74619289340103 Y74.13197969543147
G3 X217.51269035532997 Y75.5989847715736 I-4.748730964467005 J0
G3 X216.84010152284262 Y76.9238578680203 I-4.517766497461929 J-1.4670050761421318
G3 X215.78934010152284 Y77.9746192893401 I-3.8426395939086295 J-2.7918781725888326
G3 X214.46446700507613 Y78.6497461928934 I-2.7918781725888326 J-3.8426395939086295
G3 X212.99492385786803 Y78.88324873096447 I-1.4670050761421318 J-4.517766497461929
G3 X211.5279187817259 Y78.6497461928934 I0 J-4.748730964467005
G3 X210.2030456852792 Y77.9746192893401 I1.4670050761421318 J-4.517766497461929
G3 X209.1522842639594 Y76.9238578680203 I2.7918781725888326 J-3.8426395939086295
G0 Z15
G0 X211.52766497461928 Y108.25380710659898
G1 Z-1.5 F800
G3 X210.2030456852792 Y107.57868020304569 I1.4670050761421318 J-4.517766497461929 F1500
G3 X209.1522842639594 Y106.5279187817259 I2.7918781725888326 J-3.8426395939086295
G3 X208.4771573604061 Y105.20304568527919 I3.8426395939086295 J-2.7918781725888326
G3 X208.24619289340103 Y103.73604060913706 I4.517766497461929 J-1.4670050761421318
G1 X208.24619289340103 Y103.73350253807106
G1 X208.24619289340103 Y103.73096446700508
G3 X208.4771573604061 Y102.26395939086295 I4.748730964467005 J0
G3 X209.1522842639594 Y100.93908629441626 I4.517766497461929 J1.4670050761421318
G3 X210.2030456852792 Y99.88832487309645 I3.8426395939086295 J2.7918781725888326
G3 X211.5279187817259 Y99.21319796954315 I2.7918781725888326 J3.8426395939086295
G3 X212.99492385786803 Y98.98223350253808 I1.4670050761421318 J4.517766497461929
G3 X214.46446700507613 Y99.21319796954315 I0 J4.748730964467005
G3 X215.78934010152284 Y99.88832487309645 I-1.4670050761421318 J4.517766497461929
G3 X216.84010152284262 Y100.93908629441626 I-2.7918781725888326 J3.8426395939086295
G3 X217.51269035532997 Y102.26395939086295 I-3.8426395939086295 J2.7918781725888326
G3 X217.74619289340103 Y103.73096446700508 I-4.517766497461929 J1.4670050761421318
G1 X217.74619289340103 Y103.73350253807106
G1 X217.74619289340103 Y103.73604060913706
G3 X217.51269035532997 Y105.20304568527919 I-4.748730964467005 J0
G3 X216.84010152284262 Y106.5279187817259 I-4.517766497461929 J-1.4670050761421318
G3 X215.78934010152284 Y107.57868020304569 I-3.8426395939086295 J-2.7918781725888326
G3 X214.46446700507613 Y108.25380710659898 I-2.7918781725888326 J-3.8426395939086295
G3 X212.99492385786803 Y108.48730964467006 I-1.4670050761421318 J-4.517766497461929
G3 X211.5279187817259 Y108.25380710659898 I0 J-4.748730964467005
G1 Z-3 F800
G3 X210.2030456852792 Y107.57868020304569 I1.4670050761421318 J-4.517766497461929 F1500
G3 X209.1522842639594 Y106.5279187817259 I2.7918781725888326 J-3.8426395939086295
G3 X208.4771573604061 Y105.20304568527919 I3.8426395939086295 J-2.7918781725888326
G3 X208.24619289340103 Y103.73604060913706 I4.517766497461929 J-1.4670050761421318
G1 X208.24619289340103 Y103.73350253807106
G1 X208.24619289340103 Y103.73096446700508
G3 X208.4771573604061 Y102.26395939086295 I4.748730964467005 J0
G3 X209.1522842639594 Y100.93908629441626 I4.517766497461929 J1.4670050761421318
G3 X210.2030456852792 Y99.88832487309645 I3.8426395939086295 J2.7918781725888326
G3 X211.5279187817259 Y99.21319796954315 I2.7918781725888326 J3.8426395939086295
G3 X212.99492385786803 Y98.98223350253808 I1.4670050761421318 J4.517766497461929
G3 X214.46446700507613 Y99.21319796954315 I0 J4.748730964467005
G3 X215.78934010152284 Y99.88832487309645 I-1.4670050761421318 J4.517766497461929
G3 X216.84010152284262 Y100.93908629441626 I-2.7918781725888326 J3.8426395939086295
G3 X217.51269035532997 Y102.26395939086295 I-3.8426395939086295 J2.7918781725888326
G3 X217.74619289340103 Y103.73096446700508 I-4.517766497461929 J1.4670050761421318
G1 X217.74619289340103 Y103.73350253807106
G1 X217.74619289340103 Y103.73604060913706
G3 X217.51269035532997 Y105.20304568527919 I-4.748730964467005 J0
G3 X216.84010152284262 Y106.5279187817259 I-4.517766497461929 J-1.4670050761421318
G3 X215.78934010152284 Y107.57868020304569 I-3.8426395939086295 J-2.7918781725888326
G3 X214.46446700507613 Y108.25380710659898 I-2.7918781725888326 J-3.8426395939086295
G3 X212.99492385786803 Y108.48730964467006 I-1.4670050761421318 J-4.517766497461929
G3 X211.5279187817259 Y108.25380710659898 I0 J-4.748730964467005
G1 Z-4.5 F800
G3 X210.2030456852792 Y107.57868020304569 I1.4670050761421318 J-4.517766497461929 F1500
G3 X209.1522842639594 Y106.5279187817259 I2.7918781725888326 J-3.8426395939086295
G3 X208.4771573604061 Y105.20304568527919 I3.8426395939086295 J-2.7918781725888326
G3 X208.24619289340103 Y103.73604060913706 I4.517766497461929 J-1.4670050761421318
G1 X208.24619289340103 Y103.73350253807106
G1 X208.24619289340103 Y103.73096446700508
G3 X208.4771573604061 Y102.26395939086295 I4.748730964467005 J0
G3 X209.1522842639594 Y100.93908629441626 I4.517766497461929 J1.4670050761421318
G3 X210.2030456852792 Y99.88832487309645 I3.8426395939086295 J2.7918781725888326
G3 X211.5279187817259 Y99.21319796954315 I2.7918781725888326 J3.8426395939086295
G3 X212.99492385786803 Y98.98223350253808 I1.4670050761421318 J4.517766497461929
G3 X214.46446700507613 Y99.21319796954315 I0 J4.748730964467005
G3 X215.78934010152284 Y99.88832487309645 I-1.4670050761421318 J4.517766497461929
G3 X216.84010152284262 Y100.93908629441626 I-2.7918781725888326 J3.8426395939086295
G3 X217.51269035532997 Y102.26395939086295 I-3.8426395939086295 J2.7918781725888326
G3 X217.74619289340103 Y103.73096446700508 I-4.517766497461929 J1.4670050761421318
G1 X217.74619289340103 Y103.73350253807106
G1 X217.74619289340103 Y103.73604060913706
G3 X217.51269035532997 Y105.20304568527919 I-4.748730964467005 J0
G3 X216.84010152284262 Y106.5279187817259 I-4.517766497461929 J-1.4670050761421318
G3 X215.78934010152284 Y107.57868020304569 I-3.8426395939086295 J-2.7918781725888326
G3 X214.46446700507613 Y108.25380710659898 I-2.7918781725888326 J-3.8426395939086295
G3 X212.99492385786803 Y108.48730964467006 I-1.4670050761421318 J-4.517766497461929
G3 X211.5279187817259 Y108.25380710659898 I0 J-4.748730964467005
G1 Z-6 F800
G3 X210.2030456852792 Y107.57868020304569 I1.4670050761421318 J-4.517766497461929 F1500
G3 X209.1522842639594 Y106.5279187817259 I2.7918781725888326 J-3.8426395939086295
G3 X208.4771573604061 Y105.20304568527919 I3.8426395939086295 J-2.7918781725888326
G3 X208.24619289340103 Y103.73604060913706 I4.517766497461929 J-1.4670050761421318
G1 X208.24619289340103 Y103.73350253807106
G1 X208.24619289340103 Y103.73096446700508
G3 X208.4771573604061 Y102.26395939086295 I4.748730964467005 J0
G3 X209.1522842639594 Y100.93908629441626 I4.517766497461929 J1.4670050761421318
G3 X210.2030456852792 Y99.88832487309645 I3.8426395939086295 J2.7918781725888326
G3 X211.5279187817259 Y99.21319796954315 I2.7918781725888326 J3.8426395939086295
G3 X212.99492385786803 Y98.98223350253808 I1.4670050761421318 J4.517766497461929
G3 X214.46446700507613 Y99.21319796954315 I0 J4.748730964467005
G3 X215.78934010152284 Y99.88832487309645 I-1.4670050761421318 J4.517766497461929
G3 X216.84010152284262 Y100.93908629441626 I-2.7918781725888326 J3.8426395939086295
G3 X217.51269035532997 Y102.26395939086295 I-3.8426395939086295 J2.7918781725888326
G3 X217.74619289340103 Y103.73096446700508 I-4.517766497461929 J1.4670050761421318
G1 X217.74619289340103 Y103.73350253807106
G1 X217.74619289340103 Y103.73604060913706
G3 X217.51269035532997 Y105.20304568527919 I-4.748730964467005 J0
G3 X216.84010152284262 Y106.5279187817259 I-4.517766497461929 J-1.4670050761421318
G3 X215.78934010152284 Y107.57868020304569 I-3.8426395939086295 J-2.7918781725888326
G3 X214.46446700507613 Y108.25380710659898 I-2.7918781725888326 J-3.8426395939086295
G3 X212.99492385786803 Y108.48730964467006 I-1.4670050761421318 J-4.517766497461929
G3 X211.5279187817259 Y108.25380710659898 I0 J-4.748730964467005
G1 Z-7 F800
G3 X210.2030456852792 Y107.57868020304569 I1.4670050761421318 J-4.517766497461929 F1500
G3 X209.1522842639594 Y106.5279187817259 I2.7918781725888326 J-3.8426395939086295
G3 X208.4771573604061 Y105.20304568527919 I3.8426395939086295 J-2.7918781725888326
G3 X208.24619289340103 Y103.73604060913706 I4.517766497461929 J-1.4670050761421318
G1 X208.24619289340103 Y103.73350253807106
G1 X208.24619289340103 Y103.73096446700508
G3 X208.4771573604061 Y102.26395939086295 I4.748730964467005 J0
G3 X209.1522842639594 Y100.93908629441626 I4.517766497461929 J1.4670050761421318
G3 X210.2030456852792 Y99.88832487309645 I3.8426395939086295 J2.7918781725888326
G3 X211.5279187817259 Y99.21319796954315 I2.7918781725888326 J3.8426395939086295
G3 X212.99492385786803 Y98.98223350253808 I1.4670050761421318 J4.517766497461929
G3 X214.46446700507613 Y99.21319796954315 I0 J4.748730964467005
G3 X215.78934010152284 Y99.88832487309645 I-1.4670050761421318 J4.517766497461929
G3 X216.84010152284262 Y100.93908629441626 I-2.7918781725888326 J3.8426395939086295
G3 X217.51269035532997 Y102.26395939086295 I-3.8426395939086295 J2.7918781725888326
G3 X217.74619289340103 Y103.73096446700508 I-4.517766497461929 J1.4670050761421318
G1 X217.74619289340103 Y103.73350253807106
G1 X217.74619289340103 Y103.73604060913706
G3 X217.51269035532997 Y105.20304568527919 I-4.748730964467005 J0
G3 X216.84010152284262 Y106.5279187817259 I-4.517766497461929 J-1.4670050761421318
G3 X215.78934010152284 Y107.57868020304569 I-3.8426395939086295 J-2.7918781725888326
G3 X214.46446700507613 Y108.25380710659898 I-2.7918781725888326 J-3.8426395939086295
G3 X212.99492385786803 Y108.48730964467006 I-1.4670050761421318 J-4.517766497461929
G3 X211.5279187817259 Y108.25380710659898 I0 J-4.748730964467005
G0 Z15
G0 X178.77766497461928 Y108.25380710659898
G1 Z-1.5 F800
G3 X177.4543147208122 Y107.57868020304569 I1.4670050761421318 J-4.517766497461929 F1500
G3 X176.4010152284264 Y106.5279187817259 I2.7918781725888326 J-3.8426395939086295
G3 X175.7284263959391 Y105.20304568527919 I3.8426395939086295 J-2.7918781725888326
G3 X175.49492385786803 Y103.73604060913706 I4.517766497461929 J-1.4670050761421318
G1 X175.49492385786803 Y103.73350253807106
G1 X175.49492385786803 Y103.73096446700508
G3 X175.7284263959391 Y102.26395939086295 I4.748730964467005 J0
G3 X176.4010152284264 Y100.93908629441626 I4.517766497461929 J1.4670050761421318
G3 X177.4543147208122 Y99.88832487309645 I3.8426395939086295 J2.7918781725888326
G3 X178.7766497461929 Y99.21319796954315 I2.7918781725888326 J3.8426395939086295
G3 X180.24619289340103 Y98.98223350253808 I1.4670050761421318 J4.517766497461929
G3 X181.71319796954316 Y99.21319796954315 I0 J4.748730964467005
G3 X183.03807106598984 Y99.88832487309645 I-1.4670050761421318 J4.517766497461929
G3 X184.08883248730967 Y100.93908629441626 I-2.7918781725888326 J3.8426395939086295
G3 X184.76395939086296 Y102.26395939086295 I-3.8426395939086295 J2.7918781725888326
G3 X184.994923857868 Y103.73096446700508 I-4.517766497461929 J1.4670050761421318
G1 X184.994923857868 Y103.73350253807106
G1 X184.994923857868 Y103.73604060913706
G3 X184.76395939086296 Y105.20304568527919 I-4.748730964467005 J0
G3 X184.08883248730967 Y106.5279187817259 I-4.517766497461929 J-1.4670050761421318
G3 X183.03807106598984 Y107.57868020304569 I-3.8426395939086295 J-2.7918781725888326
G3 X181.71319796954316 Y108.25380710659898 I-2.7918781725888326 J-3.8426395939086295
G3 X180.24619289340103 Y108.48730964467006 I-1.4670050761421318 J-4.517766497461929
G3 X178.7766497461929 Y108.25380710659898 I0 J-4.748730964467005
G1 Z-3 F800
G3 X177.4543147208122 Y107.57868020304569 I1.4670050761421318 J-4.517766497461929 F1500
G3 X176.4010152284264 Y106.5279187817259 I2.7918781725888326 J-3.8426395939086295
G3 X175.7284263959391 Y105.20304568527919 I3.8426395939086295 J-2.7918781725888326
G3 X175.49492385786803 Y103.73604060913706 I4.517766497461929 J-1.4670050761421318
G1 X175.49492385786803 Y103.73350253807106
G1 X175.49492385786803 Y103.73096446700508
G3 X175.7284263959391 Y102.26395939086295 I4.748730964467005 J0
G3 X176.4010152284264 Y100.93908629441626 I4.517766497461929 J1.4670050761421318
G3 X177.4543147208122 Y99.88832487309645 I3.8426395939086295 J2.7918781725888326
G3 X178.7766497461929 Y99.21319796954315 I2.7918781725888326 J3.8426395939086295
G3 X180.24619289340103 Y98.98223350253808 I1.4670050761421318 J4.517766497461929
G3 X181.71319796954316 Y99.21319796954315 I0 J4.748730964467005
G3 X183.03807106598984 Y99.88832487309645 I-1.4670050761421318 J4.517766497461929
G3 X184.08883248730967 Y100.93908629441626 I-2.7918781725888326 J3.8426395939086295
G3 X184.76395939086296 Y102.26395939086295 I-3.8426395939086295 J2.7918781725888326
G3 X184.994923857868 Y103.73096446700508 I-4.517766497461929 J1.4670050761421318
G1 X184.994923857868 Y103.73350253807106
G1 X184.994923857868 Y103.73604060913706
G3 X184.76395939086296 Y105.20304568527919 I-4.748730964467005 J0
G3 X184.08883248730967 Y106.5279187817259 I-4.517766497461929 J-1.4670050761421318
G3 X183.03807106598984 Y107.57868020304569 I-3.8426395939086295 J-2.7918781725888326
G3 X181.71319796954316 Y108.25380710659898 I-2.7918781725888326 J-3.8426395939086295
G3 X180.24619289340103 Y108.48730964467006 I-1.4670050761421318 J-4.517766497461929
G3 X178.7766497461929 Y108.25380710659898 I0 J-4.748730964467005
G1 Z-4.5 F800
G3 X177.4543147208122 Y107.57868020304569 I1.4670050761421318 J-4.517766497461929 F1500
G3 X176.4010152284264 Y106.5279187817259 I2.7918781725888326 J-3.8426395939086295
G3 X175.7284263959391 Y105.20304568527919 I3.8426395939086295 J-2.7918781725888326
G3 X175.49492385786803 Y103.73604060913706 I4.517766497461929 J-1.4670050761421318
G1 X175.49492385786803 Y103.73350253807106
G1 X175.49492385786803 Y103.73096446700508
G3 X175.7284263959391 Y102.26395939086295 I4.748730964467005 J0
G3 X176.4010152284264 Y100.93908629441626 I4.517766497461929 J1.4670050761421318
G3 X177.4543147208122 Y99.88832487309645 I3.8426395939086295 J2.7918781725888326
G3 X178.7766497461929 Y99.21319796954315 I2.7918781725888326 J3.8426395939086295
G3 X180.24619289340103 Y98.98223350253808 I1.4670050761421318 J4.517766497461929
G3 X181.71319796954316 Y99.21319796954315 I0 J4.748730964467005
G3 X183.03807106598984 Y99.88832487309645 I-1.4670050761421318 J4.517766497461929
G3 X184.08883248730967 Y100.93908629441626 I-2.7918781725888326 J3.8426395939086295
G3 X184.76395939086296 Y102.26395939086295 I-3.8426395939086295 J2.7918781725888326
G3 X184.994923857868 Y103.73096446700508 I-4.517766497461929 J1.4670050761421318
G1 X184.994923857868 Y103.73350253807106
G1 X184.994923857868 Y103.73604060913706
G3 X184.76395939086296 Y105.20304568527919 I-4.748730964467005 J0
G3 X184.08883248730967 Y106.5279187817259 I-4.517766497461929 J-1.4670050761421318
G3 X183.03807106598984 Y107.57868020304569 I-3.8426395939086295 J-2.7918781725888326
G3 X181.71319796954316 Y108.25380710659898 I-2.7918781725888326 J-3.8426395939086295
G3 X180.24619289340103 Y108.48730964467006 I-1.4670050761421318 J-4.517766497461929
G3 X178.7766497461929 Y108.25380710659898 I0 J-4.748730964467005
G1 Z-6 F800
G3 X177.4543147208122 Y107.57868020304569 I1.4670050761421318 J-4.517766497461929 F1500
G3 X176.4010152284264 Y106.5279187817259 I2.7918781725888326 J-3.8426395939086295
G3 X175.7284263959391 Y105.20304568527919 I3.8426395939086295 J-2.7918781725888326
G3 X175.49492385786803 Y103.73604060913706 I4.517766497461929 J-1.4670050761421318
G1 X175.49492385786803 Y103.73350253807106
G1 X175.49492385786803 Y103.73096446700508
G3 X175.7284263959391 Y102.26395939086295 I4.748730964467005 J0
G3 X176.4010152284264 Y100.93908629441626 I4.517766497461929 J1.4670050761421318
G3 X177.4543147208122 Y99.88832487309645 I3.8426395939086295 J2.7918781725888326
G3 X178.7766497461929 Y99.21319796954315 I2.7918781725888326 J3.8426395939086295
G3 X180.24619289340103 Y98.98223350253808 I1.4670050761421318 J4.517766497461929
G3 X181.71319796954316 Y99.21319796954315 I0 J4.748730964467005
G3 X183.03807106598984 Y99.88832487309645 I-1.4670050761421318 J4.517766497461929
G3 X184.08883248730967 Y100.93908629441626 I-2.7918781725888326 J3.8426395939086295
G3 X184.76395939086296 Y102.26395939086295 I-3.8426395939086295 J2.7918781725888326
G3 X184.994923857868 Y103.73096446700508 I-4.517766497461929 J1.4670050761421318
G1 X184.994923857868 Y103.73350253807106
G1 X184.994923857868 Y103.73604060913706
G3 X184.76395939086296 Y105.20304568527919 I-4.748730964467005 J0
G3 X184.08883248730967 Y106.5279187817259 I-4.517766497461929 J-1.4670050761421318
G3 X183.03807106598984 Y107.57868020304569 I-3.8426395939086295 J-2.7918781725888326
G3 X181.71319796954316 Y108.25380710659898 I-2.7918781725888326 J-3.8426395939086295
G3 X180.24619289340103 Y108.48730964467006 I-1.4670050761421318 J-4.517766497461929
G3 X178.7766497461929 Y108.25380710659898 I0 J-4.748730964467005
G1 Z-7 F800
G3 X177.4543147208122 Y107.57868020304569 I1.4670050761421318 J-4.517766497461929 F1500
G3 X176.4010152284264 Y106.5279187817259 I2.7918781725888326 J-3.8426395939086295
G3 X175.7284263959391 Y105.20304568527919 I3.8426395939086295 J-2.7918781725888326
G3 X175.49492385786803 Y103.73604060913706 I4.517766497461929 J-1.4670050761421318
G1 X175.49492385786803 Y103.73350253807106
G1 X175.49492385786803 Y103.73096446700508
G3 X175.7284263959391 Y102.26395939086295 I4.748730964467005 J0
G3 X176.4010152284264 Y100.93908629441626 I4.517766497461929 J1.4670050761421318
G3 X177.4543147208122 Y99.88832487309645 I3.8426395939086295 J2.7918781725888326
G3 X178.7766497461929 Y99.21319796954315 I2.7918781725888326 J3.8426395939086295
G3 X180.24619289340103 Y98.98223350253808 I1.4670050761421318 J4.517766497461929
G3 X181.71319796954316 Y99.21319796954315 I0 J4.748730964467005
G3 X183.03807106598984 Y99.88832487309645 I-1.4670050761421318 J4.517766497461929
G3 X184.08883248730967 Y100.93908629441626 I-2.7918781725888326 J3.8426395939086295
G3 X184.76395939086296 Y102.26395939086295 I-3.8426395939086295 J2.7918781725888326
G3 X184.994923857868 Y103.73096446700508 I-4.517766497461929 J1.4670050761421318
G1 X184.994923857868 Y103.73350253807106
G1 X184.994923857868 Y103.73604060913706
G3 X184.76395939086296 Y105.20304568527919 I-4.748730964467005 J0
G3 X184.08883248730967 Y106.5279187817259 I-4.517766497461929 J-1.4670050761421318
G3 X183.03807106598984 Y107.57868020304569 I-3.8426395939086295 J-2.7918781725888326
G3 X181.71319796954316 Y108.25380710659898 I-2.7918781725888326 J-3.8426395939086295
G3 X180.24619289340103 Y108.48730964467006 I-1.4670050761421318 J-4.517766497461929
G3 X178.7766497461929 Y108.25380710659898 I0 J-4.748730964467005
G0 Z15
G0 X184.76370558375635 Y31.193401015228428
G1 Z-1.5 F800
G3 X184.08883248730967 Y32.51776649746193 I-4.517766497461929 J-1.4670050761421318 F1500
G3 X183.03807106598984 Y33.568527918781726 I-3.8426395939086295 J-2.7918781725888326
G3 X181.71319796954316 Y34.243654822335024 I-2.7918781725888326 J-3.8426395939086295
G3 X180.24619289340103 Y34.47715736040609 I-1.4670050761421318 J-4.517766497461929
G3 X178.7766497461929 Y34.243654822335024 I0 J-4.748730964467005
G3 X177.4543147208122 Y33.568527918781726 I1.4670050761421318 J-4.517766497461929
G3 X176.4010152284264 Y32.51776649746193 I2.7918781725888326 J-3.8426395939086295
G3 X175.7284263959391 Y31.192893401015226 I3.8426395939086295 J-2.7918781725888326
G3 X175.49492385786803 Y29.725888324873097 I4.517766497461929 J-1.4670050761421318
G1 X175.49492385786803 Y29.723350253807105
G1 X175.49492385786803 Y29.72081218274112
G3 X175.7284263959391 Y28.256345177664976 I4.748730964467005 J0
G3 X176.4010152284264 Y26.931472081218274 I4.517766497461929 J1.4670050761421318
G3 X177.4543147208122 Y25.880710659898476 I3.8426395939086295 J2.7918781725888326
G3 X178.7766497461929 Y25.205583756345177 I2.7918781725888326 J3.8426395939086295
G3 X180.24619289340103 Y24.972081218274113 I1.4670050761421318 J4.517766497461929
G3 X181.71319796954316 Y25.205583756345177 I0 J4.748730964467005
G3 X183.03807106598984 Y25.880710659898476 I-1.4670050761421318 J4.517766497461929
G3 X184.08883248730967 Y26.931472081218274 I-2.7918781725888326 J3.8426395939086295
G3 X184.76395939086296 Y28.256345177664976 I-3.8426395939086295 J2.7918781725888326
G3 X184.994923857868 Y29.72081218274112 I-4.517766497461929 J1.4670050761421318
G1 X184.994923857868 Y29.723350253807105
G1 X184.994923857868 Y29.725888324873097
G3 X184.76395939086296 Y31.192893401015226 I-4.748730964467005 J0
G1 Z-3 F800
G3 X184.08883248730967 Y32.51776649746193 I-4.517766497461929 J-1.4670050761421318 F1500
G3 X183.03807106598984 Y33.568527918781726 I-3.8426395939086295 J-2.7918781725888326
G3 X181.71319796954316 Y34.243654822335024 I-2.7918781725888326 J-3.8426395939086295
G3 X180.24619289340103 Y34.47715736040609 I-1.4670050761421318 J-4.517766497461929
G3 X178.7766497461929 Y34.243654822335024 I0 J-4.748730964467005
G3 X177.4543147208122 Y33.568527918781726 I1.4670050761421318 J-4.517766497461929
G3 X176.4010152284264 Y32.51776649746193 I2.7918781725888326 J-3.8426395939086295
G3 X175.7284263959391 Y31.192893401015226 I3.8426395939086295 J-2.7918781725888326
G3 X175.49492385786803 Y29.725888324873097 I4.517766497461929 J-1.4670050761421318
G1 X175.49492385786803 Y29.723350253807105
G1 X175.49492385786803 Y29.72081218274112
G3 X175.7284263959391 Y28.256345177664976 I4.748730964467005 J0
G3 X176.4010152284264 Y26.931472081218274 I4.517766497461929 J1.4670050761421318
G3 X177.4543147208122 Y25.880710659898476 I3.8426395939086295 J2.7918781725888326
G3 X178.7766497461929 Y25.205583756345177 I2.7918781725888326 J3.8426395939086295
G3 X180.24619289340103 Y24.972081218274113 I1.4670050761421318 J4.517766497461929
G3 X181.71319796954316 Y25.205583756345177 I0 J4.748730964467005
G3 X183.03807106598984 Y25.880710659898476 I-1.4670050761421318 J4.517766497461929
G3 X184.08883248730967 Y26.931472081218274 I-2.7918781725888326 J3.8426395939086295
G3 X184.76395939086296 Y28.256345177664976 I-3.8426395939086295 J2.7918781725888326
G3 X184.994923857868 Y29.72081218274112 I-4.517766497461929 J1.4670050761421318
G1 X184.994923857868 Y29.723350253807105
G1 X184.994923857868 Y29.725888324873097
G3 X184.76395939086296 Y31.192893401015226 I-4.748730964467005 J0
G1 Z-4.5 F800
G3 X184.08883248730967 Y32.51776649746193 I-4.517766497461929 J-1.4670050761421318 F1500
G3 X183.03807106598984 Y33.568527918781726 I-3.8426395939086295 J-2.7918781725888326
G3 X181.71319796954316 Y34.243654822335024 I-2.7918781725888326 J-3.8426395939086295
G3 X180.24619289340103 Y34.47715736040609 I-1.4670050761421318 J-4.517766497461929
G3 X178.7766497461929 Y34.243654822335024 I0 J-4.748730964467005
G3 X177.4543147208122 Y33.568527918781726 I1.4670050761421318 J-4.517766497461929
G3 X176.4010152284264 Y32.51776649746193 I2.7918781725888326 J-3.8426395939086295
G3 X175.7284263959391 Y31.192893401015226 I3.8426395939086295 J-2.7918781725888326
G3 X175.49492385786803 Y29.725888324873097 I4.517766497461929 J-1.4670050761421318
G1 X175.49492385786803 Y29.723350253807105
G1 X175.49492385786803 Y29.72081218274112
G3 X175.7284263959391 Y28.256345177664976 I4.748730964467005 J0
G3 X176.4010152284264 Y26.931472081218274 I4.517766497461929 J1.4670050761421318
G3 X177.4543147208122 Y25.880710659898476 I3.8426395939086295 J2.7918781725888326
G3 X178.7766497461929 Y25.205583756345177 I2.7918781725888326 J3.8426395939086295
G3 X180.24619289340103 Y24.972081218274113 I1.4670050761421318 J4.517766497461929
G3 X181.71319796954316 Y25.205583756345177 I0 J4.748730964467005
G3 X183.03807106598984 Y25.880710659898476 I-1.4670050761421318 J4.517766497461929
G3 X184.08883248730967 Y26.931472081218274 I-2.7918781725888326 J3.8426395939086295
G3 X184.76395939086296 Y28.256345177664976 I-3.8426395939086295 J2.7918781725888326
G3 X184.994923857868 Y29.72081218274112 I-4.517766497461929 J1.4670050761421318
G1 X184.994923857868 Y29.723350253807105
G1 X184.994923857868 Y29.725888324873097
G3 X184.76395939086296 Y31.192893401015226 I-4.748730964467005 J0
G1 Z-6 F800
G3 X184.08883248730967 Y32.51776649746193 I-4.517766497461929 J-1.4670050761421318 F1500
G3 X183.03807106598984 Y33.568527918781726 I-3.8426395939086295 J-2.7918781725888326
G3 X181.71319796954316 Y34.243654822335024 I-2.7918781725888326 J-3.8426395939086295
G3 X180.24619289340103 Y34.47715736040609 I-1.4670050761421318 J-4.517766497461929
G3 X178.7766497461929 Y34.243654822335024 I0 J-4.748730964467005
G3 X177.4543147208122 Y33.568527918781726 I1.4670050761421318 J-4.517766497461929
G3 X176.4010152284264 Y32.51776649746193 I2.7918781725888326 J-3.8426395939086295
G3 X175.7284263959391 Y31.192893401015226 I3.8426395939086295 J-2.7918781725888326
G3 X175.49492385786803 Y29.725888324873097 I4.517766497461929 J-1.4670050761421318
G1 X175.49492385786803 Y29.723350253807105
G1 X175.49492385786803 Y29.72081218274112
G3 X175.7284263959391 Y28.256345177664976 I4.748730964467005 J0
G3 X176.4010152284264 Y26.931472081218274 I4.517766497461929 J1.4670050761421318
G3 X177.4543147208122 Y25.880710659898476 I3.8426395939086295 J2.7918781725888326
G3 X178.7766497461929 Y25.205583756345177 I2.7918781725888326 J3.8426395939086295
G3 X180.24619289340103 Y24.972081218274113 I1.4670050761421318 J4.517766497461929
G3 X181.71319796954316 Y25.205583756345177 I0 J4.748730964467005
G3 X183.03807106598984 Y25.880710659898476 I-1.4670050761421318 J4.517766497461929
G3 X184.08883248730967 Y26.931472081218274 I-2.7918781725888326 J3.8426395939086295
G3 X184.76395939086296 Y28.256345177664976 I-3.8426395939086295 J2.7918781725888326
G3 X184.994923857868 Y29.72081218274112 I-4.517766497461929 J1.4670050761421318
G1 X184.994923857868 Y29.723350253807105
G1 X184.994923857868 Y29.725888324873097
G3 X184.76395939086296 Y31.192893401015226 I-4.748730964467005 J0
G1 Z-7 F800
G3 X184.08883248730967 Y32.51776649746193 I-4.517766497461929 J-1.4670050761421318 F1500
G3 X183.03807106598984 Y33.568527918781726 I-3.8426395939086295 J-2.7918781725888326
G3 X181.71319796954316 Y34.243654822335024 I-2.7918781725888326 J-3.8426395939086295
G3 X180.24619289340103 Y34.47715736040609 I-1.4670050761421318 J-4.517766497461929
G3 X178.7766497461929 Y34.243654822335024 I0 J-4.748730964467005
G3 X177.4543147208122 Y33.568527918781726 I1.4670050761421318 J-4.517766497461929
G3 X176.4010152284264 Y32.51776649746193 I2.7918781725888326 J-3.8426395939086295
G3 X175.7284263959391 Y31.192893401015226 I3.8426395939086295 J-2.7918781725888326
G3 X175.49492385786803 Y29.725888324873097 I4.517766497461929 J-1.4670050761421318
G1 X175.49492385786803 Y29.723350253807105
G1 X175.49492385786803 Y29.72081218274112
G3 X175.7284263959391 Y28.256345177664976 I4.748730964467005 J0
G3 X176.4010152284264 Y26.931472081218274 I4.517766497461929 J1.4670050761421318
G3 X177.4543147208122 Y25.880710659898476 I3.8426395939086295 J2.7918781725888326
G3 X178.7766497461929 Y25.205583756345177 I2.7918781725888326 J3.8426395939086295
G3 X180.24619289340103 Y24.972081218274113 I1.4670050761421318 J4.517766497461929
G3 X181.71319796954316 Y25.205583756345177 I0 J4.748730964467005
G3 X183.03807106598984 Y25.880710659898476 I-1.4670050761421318 J4.517766497461929
G3 X184.08883248730967 Y26.931472081218274 I-2.7918781725888326 J3.8426395939086295
G3 X184.76395939086296 Y28.256345177664976 I-3.8426395939086295 J2.7918781725888326
G3 X184.994923857868 Y29.72081218274112 I-4.517766497461929 J1.4670050761421318
G1 X184.994923857868 Y29.723350253807105
G1 X184.994923857868 Y29.725888324873097
G3 X184.76395939086296 Y31.192893401015226 I-4.748730964467005 J0
G0 Z15
G0 X208.4776649746193 Y28.255583756345178
G1 Z-1.5 F800
G3 X209.1522842639594 Y26.931472081218274 I4.517766497461929 J1.4670050761421318 F1500
G3 X210.2030456852792 Y25.880710659898476 I3.8426395939086295 J2.7918781725888326
G3 X211.5279187817259 Y25.205583756345177 I2.7918781725888326 J3.8426395939086295
G3 X212.99492385786803 Y24.972081218274113 I1.4670050761421318 J4.517766497461929
G3 X214.46446700507613 Y25.205583756345177 I0 J4.748730964467005
G3 X215.78934010152284 Y25.880710659898476 I-1.4670050761421318 J4.517766497461929
G3 X216.84010152284262 Y26.931472081218274 I-2.7918781725888326 J3.8426395939086295
G3 X217.51269035532997 Y28.256345177664976 I-3.8426395939086295 J2.7918781725888326
G3 X217.74619289340103 Y29.72081218274112 I-4.517766497461929 J1.4670050761421318
G1 X217.74619289340103 Y29.723350253807105
G1 X217.74619289340103 Y29.725888324873097
G3 X217.51269035532997 Y31.192893401015226 I-4.748730964467005 J0
G3 X216.84010152284262 Y32.51776649746193 I-4.517766497461929 J-1.4670050761421318
G3 X215.78934010152284 Y33.568527918781726 I-3.8426395939086295 J-2.7918781725888326
G3 X214.46446700507613 Y34.243654822335024 I-2.7918781725888326 J-3.8426395939086295
G3 X212.99492385786803 Y34.47715736040609 I-1.4670050761421318 J-4.517766497461929
G3 X211.5279187817259 Y34.243654822335024 I0 J-4.748730964467005
G3 X210.2030456852792 Y33.568527918781726 I1.4670050761421318 J-4.517766497461929
G3 X209.1522842639594 Y32.51776649746193 I2.7918781725888326 J-3.8426395939086295
G3 X208.4771573604061 Y31.192893401015226 I3.8426395939086295 J-2.7918781725888326
G3 X208.24619289340103 Y29.725888324873097 I4.517766497461929 J-1.4670050761421318
G1 X208.24619289340103 Y29.723350253807105
G1 X208.24619289340103 Y29.72081218274112
G3 X208.4771573604061 Y28.256345177664976 I4.748730964467005 J0
G1 Z-3 F800
G3 X209.1522842639594 Y26.931472081218274 I4.517766497461929 J1.4670050761421318 F1500
G3 X210.2030456852792 Y25.880710659898476 I3.8426395939086295 J2.7918781725888326
G3 X211.5279187817259 Y25.205583756345177 I2.7918781725888326 J3.8426395939086295
G3 X212.99492385786803 Y24.972081218274113 I1.4670050761421318 J4.517766497461929
G3 X214.46446700507613 Y25.205583756345177 I0 J4.748730964467005
G3 X215.78934010152284 Y25.880710659898476 I-1.4670050761421318 J4.517766497461929
G3 X216.84010152284262 Y26.931472081218274 I-2.7918781725888326 J3.8426395939086295
G3 X217.51269035532997 Y28.256345177664976 I-3.8426395939086295 J2.7918781725888326
G3 X217.74619289340103 Y29.72081218274112 I-4.517766497461929 J1.4670050761421318
G1 X217.74619289340103 Y29.723350253807105
G1 X217.74619289340103 Y29.725888324873097
G3 X217.51269035532997 Y31.192893401015226 I-4.748730964467005 J0
G3 X216.84010152284262 Y32.51776649746193 I-4.517766497461929 J-1.4670050761421318
G3 X215.78934010152284 Y33.568527918781726 I-3.8426395939086295 J-2.7918781725888326
G3 X214.46446700507613 Y34.243654822335024 I-2.7918781725888326 J-3.8426395939086295
G3 X212.99492385786803 Y34.47715736040609 I-1.4670050761421318 J-4.517766497461929
G3 X211.5279187817259 Y34.243654822335024 I0 J-4.748730964467005
G3 X210.2030456852792 Y33.568527918781726 I1.4670050761421318 J-4.517766497461929
G3 X209.1522842639594 Y32.51776649746193 I2.7918781725888326 J-3.8426395939086295
G3 X208.4771573604061 Y31.192893401015226 I3.8426395939086295 J-2.7918781725888326
G3 X208.24619289340103 Y29.725888324873097 I4.517766497461929 J-1.4670050761421318
G1 X208.24619289340103 Y29.723350253807105
G1 X208.24619289340103 Y29.72081218274112
G3 X208.4771573604061 Y28.256345177664976 I4.748730964467005 J0
G1 Z-4.5 F800
G3 X209.1522842639594 Y26.931472081218274 I4.517766497461929 J1.4670050761421318 F1500
G3 X210.2030456852792 Y25.880710659898476 I3.8426395939086295 J2.7918781725888326
G3 X211.5279187817259 Y25.205583756345177 I2.7918781725888326 J3.8426395939086295
G3 X212.99492385786803 Y24.972081218274113 I1.4670050761421318 J4.517766497461929
G3 X214.46446700507613 Y25.205583756345177 I0 J4.748730964467005
G3 X215.78934010152284 Y25.880710659898476 I-1.4670050761421318 J4.517766497461929
G3 X216.84010152284262 Y26.931472081218274 I-2.7918781725888326 J3.8426395939086295
G3 X217.51269035532997 Y28.256345177664976 I-3.8426395939086295 J2.7918781725888326
G3 X217.74619289340103 Y29.72081218274112 I-4.517766497461929 J1.4670050761421318
G1 X217.74619289340103 Y29.723350253807105
G1 X217.74619289340103 Y29.725888324873097
G3 X217.51269035532997 Y31.192893401015226 I-4.748730964467005 J0
G3 X216.84010152284262 Y32.51776649746193 I-4.517766497461929 J-1.4670050761421318
G3 X215.78934010152284 Y33.568527918781726 I-3.8426395939086295 J-2.7918781725888326
G3 X214.46446700507613 Y34.243654822335024 I-2.7918781725888326 J-3.8426395939086295
G3 X212.99492385786803 Y34.47715736040609 I-1.4670050761421318 J-4.517766497461929
G3 X211.5279187817259 Y34.243654822335024 I0 J-4.748730964467005
G3 X210.2030456852792 Y33.568527918781726 I1.4670050761421318 J-4.517766497461929
G3 X209.1522842639594 Y32.51776649746193 I2.7918781725888326 J-3.8426395939086295
G3 X208.4771573604061 Y31.192893401015226 I3.8426395939086295 J-2.7918781725888326
G3 X208.24619289340103 Y29.725888324873097 I4.517766497461929 J-1.4670050761421318
G1 X208.24619289340103 Y29.723350253807105
G1 X208.24619289340103 Y29.72081218274112
G3 X208.4771573604061 Y28.256345177664976 I4.748730964467005 J0
G1 Z-6 F800
G3 X209.1522842639594 Y26.931472081218274 I4.517766497461929 J1.4670050761421318 F1500
G3 X210.2030456852792 Y25.880710659898476 I3.8426395939086295 J2.7918781725888326
G3 X211.5279187817259 Y25.205583756345177 I2.7918781725888326 J3.8426395939086295
G3 X212.99492385786803 Y24.972081218274113 I1.4670050761421318 J4.517766497461929
G3 X214.46446700507613 Y25.205583756345177 I0 J4.748730964467005
G3 X215.78934010152284 Y25.880710659898476 I-1.4670050761421318 J4.517766497461929
G3 X216.84010152284262 Y26.931472081218274 I-2.7918781725888326 J3.8426395939086295
G3 X217.51269035532997 Y28.256345177664976 I-3.8426395939086295 J2.7918781725888326
G3 X217.74619289340103 Y29.72081218274112 I-4.517766497461929 J1.4670050761421318
G1 X217.74619289340103 Y29.723350253807105
G1 X217.74619289340103 Y29.725888324873097
G3 X217.51269035532997 Y31.192893401015226 I-4.748730964467005 J0
G3 X216.84010152284262 Y32.51776649746193 I-4.517766497461929 J-1.4670050761421318
G3 X215.78934010152284 Y33.568527918781726 I-3.8426395939086295 J-2.7918781725888326
G3 X214.46446700507613 Y34.243654822335024 I-2.7918781725888326 J-3.8426395939086295
G3 X212.99492385786803 Y34.47715736040609 I-1.4670050761421318 J-4.517766497461929
G3 X211.5279187817259 Y34.243654822335024 I0 J-4.748730964467005
G3 X210.2030456852792 Y33.568527918781726 I1.4670050761421318 J-4.517766497461929
G3 X209.1522842639594 Y32.51776649746193 I2.7918781725888326 J-3.8426395939086295
G3 X208.4771573604061 Y31.192893401015226 I3.8426395939086295 J-2.7918781725888326
G3 X208.24619289340103 Y29.725888324873097 I4.517766497461929 J-1.4670050761421318
G1 X208.24619289340103 Y29.723350253807105
G1 X208.24619289340103 Y29.72081218274112
G3 X208.4771573604061 Y28.256345177664976 I4.748730964467005 J0
G1 Z-7 F800
G3 X209.1522842639594 Y26.931472081218274 I4.517766497461929 J1.4670050761421318 F1500
G3 X210.2030456852792 Y25.880710659898476 I3.8426395939086295 J2.7918781725888326
G3 X211.5279187817259 Y25.205583756345177 I2.7918781725888326 J3.8426395939086295
G3 X212.99492385786803 Y24.972081218274113 I1.4670050761421318 J4.517766497461929
G3 X214.46446700507613 Y25.205583756345177 I0 J4.748730964467005
G3 X215.78934010152284 Y25.880710659898476 I-1.4670050761421318 J4.517766497461929
G3 X216.84010152284262 Y26.931472081218274 I-2.7918781725888326 J3.8426395939086295
G3 X217.51269035532997 Y28.256345177664976 I-3.8426395939086295 J2.7918781725888326
G3 X217.74619289340103 Y29.72081218274112 I-4.517766497461929 J1.4670050761421318
G1 X217.74619289340103 Y29.723350253807105
G1 X217.74619289340103 Y29.725888324873097
G3 X217.51269035532997 Y31.192893401015226 I-4.748730964467005 J0
G3 X216.84010152284262 Y32.51776649746193 I-4.517766497461929 J-1.4670050761421318
G3 X215.78934010152284 Y33.568527918781726 I-3.8426395939086295 J-2.7918781725888326
G3 X214.46446700507613 Y34.243654822335024 I-2.7918781725888326 J-3.8426395939086295
G3 X212.99492385786803 Y34.47715736040609 I-1.4670050761421318 J-4.517766497461929
G3 X211.5279187817259 Y34.243654822335024 I0 J-4.748730964467005
G3 X210.2030456852792 Y33.568527918781726 I1.4670050761421318 J-4.517766497461929
G3 X209.1522842639594 Y32.51776649746193 I2.7918781725888326 J-3.8426395939086295
G3 X208.4771573604061 Y31.192893401015226 I3.8426395939086295 J-2.7918781725888326
G3 X208.24619289340103 Y29.725888324873097 I4.517766497461929 J-1.4670050761421318
G1 X208.24619289340103 Y29.723350253807105
G1 X208.24619289340103 Y29.72081218274112
G3 X208.4771573604061 Y28.256345177664976 I4.748730964467005 J0
G0 Z15
G0 X184.08934010152285 Y76.9236040609137
G1 Z-1.5 F800
G3 X183.03807106598984 Y77.9746192893401 I-3.8426395939086295 J-2.7918781725888326 F1500
G3 X181.71319796954316 Y78.6497461928934 I-2.7918781725888326 J-3.8426395939086295
G3 X180.24619289340103 Y78.88324873096447 I-1.4670050761421318 J-4.517766497461929
G3 X178.7766497461929 Y78.6497461928934 I0 J-4.748730964467005
G3 X177.4543147208122 Y77.9746192893401 I1.4670050761421318 J-4.517766497461929
G3 X176.4010152284264 Y76.9238578680203 I2.7918781725888326 J-3.8426395939086295
G3 X175.7284263959391 Y75.5989847715736 I3.8426395939086295 J-2.7918781725888326
G3 X175.49492385786803 Y74.13197969543147 I4.517766497461929 J-1.4670050761421318
G1 X175.49492385786803 Y74.12944162436548
G1 X175.49492385786803 Y74.12690355329948
G3 X175.7284263959391 Y72.66243654822335 I4.748730964467005 J0
G3 X176.4010152284264 Y71.33756345177665 I4.517766497461929 J1.4670050761421318
G3 X177.4543147208122 Y70.28426395939087 I3.8426395939086295 J2.7918781725888326
G3 X178.7766497461929 Y69.60913705583756 I2.7918781725888326 J3.8426395939086295
G3 X180.24619289340103 Y69.37817258883248 I1.4670050761421318 J4.517766497461929
G3 X181.71319796954316 Y69.60913705583756 I0 J4.748730964467005
G3 X183.03807106598984 Y70.28426395939087 I-1.4670050761421318 J4.517766497461929
G3 X184.08883248730967 Y71.33756345177665 I-2.7918781725888326 J3.8426395939086295
G3 X184.76395939086296 Y72.66243654822335 I-3.8426395939086295 J2.7918781725888326
G3 X184.994923857868 Y74.12690355329948 I-4.517766497461929 J1.4670050761421318
G1 X184.994923857868 Y74.12944162436548
G1 X184.994923857868 Y74.13197969543147
G3 X184.76395939086296 Y75.5989847715736 I-4.748730964467005 J0
G3 X184.08883248730967 Y76.9238578680203 I-4.517766497461929 J-1.4670050761421318
G1 Z-3 F800
G3 X183.03807106598984 Y77.9746192893401 I-3.8426395939086295 J-2.7918781725888326 F1500
G3 X181.71319796954316 Y78.6497461928934 I-2.7918781725888326 J-3.8426395939086295
G3 X180.24619289340103 Y78.88324873096447 I-1.4670050761421318 J-4.517766497461929
G3 X178.7766497461929 Y78.6497461928934 I0 J-4.748730964467005
G3 X177.4543147208122 Y77.9746192893401 I1.4670050761421318 J-4.517766497461929
G3 X176.4010152284264 Y76.9238578680203 I2.7918781725888326 J-3.8426395939086295
G3 X175.7284263959391 Y75.5989847715736 I3.8426395939086295 J-2.7918781725888326
G3 X175.49492385786803 Y74.13197969543147 I4.517766497461929 J-1.4670050761421318
G1 X175.49492385786803 Y74.12944162436548
G1 X175.49492385786803 Y74.12690355329948
G3 X175.7284263959391 Y72.66243654822335 I4.748730964467005 J0
G3 X176.4010152284264 Y71.33756345177665 I4.517766497461929 J1.4670050761421318
G3 X177.4543147208122 Y70.28426395939087 I3.8426395939086295 J2.7918781725888326
G3 X178.7766497461929 Y69.60913705583756 I2.7918781725888326 J3.8426395939086295
G3 X180.24619289340103 Y69.37817258883248 I1.4670050761421318 J4.517766497461929
G3 X181.71319796954316 Y69.60913705583756 I0 J4.748730964467005
G3 X183.03807106598984 Y70.28426395939087 I-1.4670050761421318 J4.517766497461929
G3 X184.08883248730967 Y71.33756345177665 I-2.7918781725888326 J3.8426395939086295
G3 X184.76395939086296 Y72.66243654822335 I-3.8426395939086295 J2.7918781725888326
G3 X184.994923857868 Y74.12690355329948 I-4.517766497461929 J1.4670050761421318
G1 X184.994923857868 Y74.12944162436548
G1 X184.994923857868 Y74.13197969543147
G3 X184.76395939086296 Y75.5989847715736 I-4.748730964467005 J0
G3 X184.08883248730967 Y76.9238578680203 I-4.517766497461929 J-1.4670050761421318
G1 Z-4.5 F800
G3 X183.03807106598984 Y77.9746192893401 I-3.8426395939086295 J-2.7918781725888326 F1500
G3 X181.71319796954316 Y78.6497461928934 I-2.7918781725888326 J-3.8426395939086295
G3 X180.24619289340103 Y78.88324873096447 I-1.4670050761421318 J-4.517766497461929
G3 X178.7766497461929 Y78.6497461928934 I0 J-4.748730964467005
G3 X177.4543147208122 Y77.9746192893401 I1.4670050761421318 J-4.517766497461929
G3 X176.4010152284264 Y76.9238578680203 I2.7918781725888326 J-3.8426395939086295
G3 X175.7284263959391 Y75.5989847715736 I3.8426395939086295 J-2.7918781725888326
G3 X175.49492385786803 Y74.13197969543147 I4.517766497461929 J-1.4670050761421318
G1 X175.49492385786803 Y74.12944162436548
G1 X175.49492385786803 Y74.12690355329948
G3 X175.7284263959391 Y72.66243654822335 I4.748730964467005 J0
G3 X176.4010152284264 Y71.33756345177665 I4.517766497461929 J1.4670050761421318
G3 X177.4543147208122 Y70.28426395939087 I3.8426395939086295 J2.7918781725888326
G3 X178.7766497461929 Y69.60913705583756 I2.7918781725888326 J3.8426395939086295
G3 X180.24619289340103 Y69.37817258883248 I1.4670050761421318 J4.517766497461929
G3 X181.71319796954316 Y69.60913705583756 I0 J4.748730964467005
G3 X183.03807106598984 Y70.28426395939087 I-1.4670050761421318 J4.517766497461929
G3 X184.08883248730967 Y71.33756345177665 I-2.7918781725888326 J3.8426395939086295
G3 X184.76395939086296 Y72.66243654822335 I-3.8426395939086295 J2.7918781725888326
G3 X184.994923857868 Y74.12690355329948 I-4.517766497461929 J1.4670050761421318
G1 X184.994923857868 Y74.12944162436548
G1 X184.994923857868 Y74.13197969543147
G3 X184.76395939086296 Y75.5989847715736 I-4.748730964467005 J0
G3 X184.08883248730967 Y76.9238578680203 I-4.517766497461929 J-1.4670050761421318
G1 Z-6 F800
G3 X183.03807106598984 Y77.9746192893401 I-3.8426395939086295 J-2.7918781725888326 F1500
G3 X181.71319796954316 Y78.6497461928934 I-2.7918781725888326 J-3.8426395939086295
G3 X180.24619289340103 Y78.88324873096447 I-1.4670050761421318 J-4.517766497461929
G3 X178.7766497461929 Y78.6497461928934 I0 J-4.748730964467005
G3 X177.4543147208122 Y77.9746192893401 I1.4670050761421318 J-4.517766497461929
G3 X176.4010152284264 Y76.9238578680203 I2.7918781725888326 J-3.8426395939086295
G3 X175.7284263959391 Y75.5989847715736 I3.8426395939086295 J-2.7918781725888326
G3 X175.49492385786803 Y74.13197969543147 I4.517766497461929 J-1.4670050761421318
G1 X175.49492385786803 Y74.12944162436548
G1 X175.49492385786803 Y74.12690355329948
G3 X175.7284263959391 Y72.66243654822335 I4.748730964467005 J0
G3 X176.4010152284264 Y71.33756345177665 I4.517766497461929 J1.4670050761421318
G3 X177.4543147208122 Y70.28426395939087 I3.8426395939086295 J2.7918781725888326
G3 X178.7766497461929 Y69.60913705583756 I2.7918781725888326 J3.8426395939086295
G3 X180.24619289340103 Y69.37817258883248 I1.4670050761421318 J4.517766497461929
G3 X181.71319796954316 Y69.60913705583756 I0 J4.748730964467005
G3 X183.03807106598984 Y70.28426395939087 I-1.4670050761421318 J4.517766497461929
G3 X184.08883248730967 Y71.33756345177665 I-2.7918781725888326 J3.8426395939086295
G3 X184.76395939086296 Y72.66243654822335 I-3.8426395939086295 J2.7918781725888326
G3 X184.994923857868 Y74.12690355329948 I-4.517766497461929 J1.4670050761421318
G1 X184.994923857868 Y74.12944162436548
G1 X184.994923857868 Y74.13197969543147
G3 X184.76395939086296 Y75.5989847715736 I-4.748730964467005 J0
G3 X184.08883248730967 Y76.9238578680203 I-4.517766497461929 J-1.4670050761421318
G1 Z-7 F800
G3 X183.03807106598984 Y77.9746192893401 I-3.8426395939086295 J-2.7918781725888326 F1500
G3 X181.71319796954316 Y78.6497461928934 I-2.7918781725888326 J-3.8426395939086295
G3 X180.24619289340103 Y78.88324873096447 I-1.4670050761421318 J-4.517766497461929
G3 X178.7766497461929 Y78.6497461928934 I0 J-4.748730964467005
G3 X177.4543147208122 Y77.9746192893401 I1.4670050761421318 J-4.517766497461929
G3 X176.4010152284264 Y76.9238578680203 I2.7918781725888326 J-3.8426395939086295
G3 X175.7284263959391 Y75.5989847715736 I3.8426395939086295 J-2.7918781725888326
G3 X175.49492385786803 Y74.13197969543147 I4.517766497461929 J-1.4670050761421318
G1 X175.49492385786803 Y74.12944162436548
G1 X175.49492385786803 Y74.12690355329948
G3 X175.7284263959391 Y72.66243654822335 I4.748730964467005 J0
G3 X176.4010152284264 Y71.33756345177665 I4.517766497461929 J1.4670050761421318
G3 X177.4543147208122 Y70.28426395939087 I3.8426395939086295 J2.7918781725888326
G3 X178.7766497461929 Y69.60913705583756 I2.7918781725888326 J3.8426395939086295
G3 X180.24619289340103 Y69.37817258883248 I1.4670050761421318 J4.517766497461929
G3 X181.71319796954316 Y69.60913705583756 I0 J4.748730964467005
G3 X183.03807106598984 Y70.28426395939087 I-1.4670050761421318 J4.517766497461929
G3 X184.08883248730967 Y71.33756345177665 I-2.7918781725888326 J3.8426395939086295
G3 X184.76395939086296 Y72.66243654822335 I-3.8426395939086295 J2.7918781725888326
G3 X184.994923857868 Y74.12690355329948 I-4.517766497461929 J1.4670050761421318
G1 X184.994923857868 Y74.12944162436548
G1 X184.994923857868 Y74.13197969543147
G3 X184.76395939086296 Y75.5989847715736 I-4.748730964467005 J0
G3 X184.08883248730967 Y76.9238578680203 I-4.517766497461929 J-1.4670050761421318
G0 Z15
G0 X51.13883248730964 Y31.193401015228428
G1 Z-1.5 F800
G3 X50.464467005076145 Y32.51776649746193 I-4.517766497461929 J-1.4670050761421318 F1500
G3 X49.41370558375635 Y33.568527918781726 I-3.8426395939086295 J-2.7918781725888326
G3 X48.088832487309645 Y34.243654822335024 I-2.7918781725888326 J-3.8426395939086295
G3 X46.621827411167516 Y34.47715736040609 I-1.4670050761421318 J-4.517766497461929
G3 X45.152284263959395 Y34.243654822335024 I0 J-4.748730964467005
G3 X43.82741116751269 Y33.568527918781726 I1.4670050761421318 J-4.517766497461929
G3 X42.77664974619289 Y32.51776649746193 I2.7918781725888326 J-3.8426395939086295
G3 X42.101522842639596 Y31.192893401015226 I3.8426395939086295 J-2.7918781725888326
G3 X41.870558375634516 Y29.725888324873097 I4.517766497461929 J-1.4670050761421318
G1 X41.870558375634516 Y29.723350253807105
G1 X41.870558375634516 Y29.72081218274112
G3 X42.101522842639596 Y28.256345177664976 I4.748730964467005 J0
G3 X42.77664974619289 Y26.931472081218274 I4.517766497461929 J1.4670050761421318
G3 X43.82741116751269 Y25.880710659898476 I3.8426395939086295 J2.7918781725888326
G3 X45.152284263959395 Y25.205583756345177 I2.7918781725888326 J3.8426395939086295
G3 X46.621827411167516 Y24.972081218274113 I1.4670050761421318 J4.517766497461929
G3 X48.088832487309645 Y25.205583756345177 I0 J4.748730964467005
G3 X49.41370558375635 Y25.880710659898476 I-1.4670050761421318 J4.517766497461929
G3 X50.464467005076145 Y26.931472081218274 I-2.7918781725888326 J3.8426395939086295
G3 X51.13959390862944 Y28.256345177664976 I-3.8426395939086295 J2.7918781725888326
G3 X51.370558375634516 Y29.72081218274112 I-4.517766497461929 J1.4670050761421318
G1 X51.370558375634516 Y29.723350253807105
G1 X51.370558375634516 Y29.725888324873097
G3 X51.13959390862944 Y31.192893401015226 I-4.748730964467005 J0
G1 Z-3 F800
G3 X50.464467005076145 Y32.51776649746193 I-4.517766497461929 J-1.4670050761421318 F1500
G3 X49.41370558375635 Y33.568527918781726 I-3.8426395939086295 J-2.7918781725888326
G3 X48.088832487309645 Y34.243654822335024 I-2.7918781725888326 J-3.8426395939086295
G3 X46.621827411167516 Y34.47715736040609 I-1.4670050761421318 J-4.517766497461929
G3 X45.152284263959395 Y34.243654822335024 I0 J-4.748730964467005
G3 X43.82741116751269 Y33.568527918781726 I1.4670050761421318 J-4.517766497461929
G3 X42.77664974619289 Y32.51776649746193 I2.7918781725888326 J-3.8426395939086295
G3 X42.101522842639596 Y31.192893401015226 I3.8426395939086295 J-2.7918781725888326
G3 X41.870558375634516 Y29.725888324873097 I4.517766497461929 J-1.4670050761421318
G1 X41.870558375634516 Y29.723350253807105
G1 X41.870558375634516 Y29.72081218274112
G3 X42.101522842639596 Y28.256345177664976 I4.748730964467005 J0
G3 X42.77664974619289 Y26.931472081218274 I4.517766497461929 J1.4670050761421318
G3 X43.82741116751269 Y25.880710659898476 I3.8426395939086295 J2.7918781725888326
G3 X45.152284263959395 Y25.205583756345177 I2.7918781725888326 J3.8426395939086295
G3 X46.621827411167516 Y24.972081218274113 I1.4670050761421318 J4.517766497461929
G3 X48.088832487309645 Y25.205583756345177 I0 J4.748730964467005
G3 X49.41370558375635 Y25.880710659898476 I-1.4670050761421318 J4.517766497461929
G3 X50.464467005076145 Y26.931472081218274 I-2.7918781725888326 J3.8426395939086295
G3 X51.13959390862944 Y28.256345177664976 I-3.8426395939086295 J2.7918781725888326
G3 X51.370558375634516 Y29.72081218274112 I-4.517766497461929 J1.4670050761421318
G1 X51.370558375634516 Y29.723350253807105
G1 X51.370558375634516 Y29.725888324873097
G3 X51.13959390862944 Y31.192893401015226 I-4.748730964467005 J0
G1 Z-4.5 F800
G3 X50.464467005076145 Y32.51776649746193 I-4.517766497461929 J-1.4670050761421318 F1500
G3 X49.41370558375635 Y33.568527918781726 I-3.8426395939086295 J-2.7918781725888326
G3 X48.088832487309645 Y34.243654822335024 I-2.7918781725888326 J-3.8426395939086295
G3 X46.621827411167516 Y34.47715736040609 I-1.4670050761421318 J-4.517766497461929
G3 X45.152284263959395 Y34.243654822335024 I0 J-4.748730964467005
G3 X43.82741116751269 Y33.568527918781726 I1.4670050761421318 J-4.517766497461929
G3 X42.77664974619289 Y32.51776649746193 I2.7918781725888326 J-3.8426395939086295
G3 X42.101522842639596 Y31.192893401015226 I3.8426395939086295 J-2.7918781725888326
G3 X41.870558375634516 Y29.725888324873097 I4.517766497461929 J-1.4670050761421318
G1 X41.870558375634516 Y29.723350253807105
G1 X41.870558375634516 Y29.72081218274112
G3 X42.101522842639596 Y28.256345177664976 I4.748730964467005 J0
G3 X42.77664974619289 Y26.931472081218274 I4.517766497461929 J1.4670050761421318
G3 X43.82741116751269 Y25.880710659898476 I3.8426395939086295 J2.7918781725888326
G3 X45.152284263959395 Y25.205583756345177 I2.7918781725888326 J3.8426395939086295
G3 X46.621827411167516 Y24.972081218274113 I1.4670050761421318 J4.517766497461929
G3 X48.088832487309645 Y25.205583756345177 I0 J4.748730964467005
G3 X49.41370558375635 Y25.880710659898476 I-1.4670050761421318 J4.517766497461929
G3 X50.464467005076145 Y26.931472081218274 I-2.7918781725888326 J3.8426395939086295
G3 X51.13959390862944 Y28.256345177664976 I-3.8426395939086295 J2.7918781725888326
G3 X51.370558375634516 Y29.72081218274112 I-4.517766497461929 J1.4670050761421318
G1 X51.370558375634516 Y29.723350253807105
G1 X51.370558375634516 Y29.725888324873097
G3 X51.13959390862944 Y31.192893401015226 I-4.748730964467005 J0
G1 Z-6 F800
G3 X50.464467005076145 Y32.51776649746193 I-4.517766497461929 J-1.4670050761421318 F1500
G3 X49.41370558375635 Y33.568527918781726 I-3.8426395939086295 J-2.7918781725888326
G3 X48.088832487309645 Y34.243654822335024 I-2.7918781725888326 J-3.8426395939086295
G3 X46.621827411167516 Y34.47715736040609 I-1.4670050761421318 J-4.517766497461929
G3 X45.152284263959395 Y34.243654822335024 I0 J-4.748730964467005
G3 X43.82741116751269 Y33.568527918781726 I1.4670050761421318 J-4.517766497461929
G3 X42.77664974619289 Y32.51776649746193 I2.7918781725888326 J-3.8426395939086295
G3 X42.101522842639596 Y31.192893401015226 I3.8426395939086295 J-2.7918781725888326
G3 X41.870558375634516 Y29.725888324873097 I4.517766497461929 J-1.4670050761421318
G1 X41.870558375634516 Y29.723350253807105
G1 X41.870558375634516 Y29.72081218274112
G3 X42.101522842639596 Y28.256345177664976 I4.748730964467005 J0
G3 X42.77664974619289 Y26.931472081218274 I4.517766497461929 J1.4670050761421318
G3 X43.82741116751269 Y25.880710659898476 I3.8426395939086295 J2.7918781725888326
G3 X45.152284263959395 Y25.205583756345177 I2.7918781725888326 J3.8426395939086295
G3 X46.621827411167516 Y24.972081218274113 I1.4670050761421318 J4.517766497461929
G3 X48.088832487309645 Y25.205583756345177 I0 J4.748730964467005
G3 X49.41370558375635 Y25.880710659898476 I-1.4670050761421318 J4.517766497461929
G3 X50.464467005076145 Y26.931472081218274 I-2.7918781725888326 J3.8426395939086295
G3 X51.13959390862944 Y28.256345177664976 I-3.8426395939086295 J2.7918781725888326
G3 X51.370558375634516 Y29.72081218274112 I-4.517766497461929 J1.4670050761421318
G1 X51.370558375634516 Y29.723350253807105
G1 X51.370558375634516 Y29.725888324873097
G3 X51.13959390862944 Y31.192893401015226 I-4.748730964467005 J0
G1 Z-7 F800
G3 X50.464467005076145 Y32.51776649746193 I-4.517766497461929 J-1.4670050761421318 F1500
G3 X49.41370558375635 Y33.568527918781726 I-3.8426395939086295 J-2.7918781725888326
G3 X48.088832487309645 Y34.243654822335024 I-2.7918781725888326 J-3.8426395939086295
G3 X46.621827411167516 Y34.47715736040609 I-1.4670050761421318 J-4.517766497461929
G3 X45.152284263959395 Y34.243654822335024 I0 J-4.748730964467005
G3 X43.82741116751269 Y33.568527918781726 I1.4670050761421318 J-4.517766497461929
G3 X42.77664974619289 Y32.51776649746193 I2.7918781725888326 J-3.8426395939086295
G3 X42.101522842639596 Y31.192893401015226 I3.8426395939086295 J-2.7918781725888326
G3 X41.870558375634516 Y29.725888324873097 I4.517766497461929 J-1.4670050761421318
G1 X41.870558375634516 Y29.723350253807105
G1 X41.870558375634516 Y29.72081218274112
G3 X42.101522842639596 Y28.256345177664976 I4.748730964467005 J0
G3 X42.77664974619289 Y26.931472081218274 I4.517766497461929 J1.4670050761421318
G3 X43.82741116751269 Y25.880710659898476 I3.8426395939086295 J2.7918781725888326
G3 X45.152284263959395 Y25.205583756345177 I2.7918781725888326 J3.8426395939086295
G3 X46.621827411167516 Y24.972081218274113 I1.4670050761421318 J4.517766497461929
G3 X48.088832487309645 Y25.205583756345177 I0 J4.748730964467005
G3 X49.41370558375635 Y25.880710659898476 I-1.4670050761421318 J4.517766497461929
G3 X50.464467005076145 Y26.931472081218274 I-2.7918781725888326 J3.8426395939086295
G3 X51.13959390862944 Y28.256345177664976 I-3.8426395939086295 J2.7918781725888326
G3 X51.370558375634516 Y29.72081218274112 I-4.517766497461929 J1.4670050761421318
G1 X51.370558375634516 Y29.723350253807105
G1 X51.370558375634516 Y29.725888324873097
G3 X51.13959390862944 Y31.192893401015226 I-4.748730964467005 J0
G0 Z15
G0 X152.01319796954314 Y105.20152284263959
G1 Z-1.5 F800
G3 X151.33756345177665 Y106.5253807106599 I-4.517766497461929 J-1.4670050761421318 F1500
G3 X150.28680203045684 Y107.5761421319797 I-3.8426395939086295 J-2.7918781725888326
G3 X148.96446700507613 Y108.25126903553299 I-2.7918781725888326 J-3.8426395939086295
G3 X147.494923857868 Y108.48477157360406 I-1.4670050761421318 J-4.517766497461929
G3 X146.02791878172587 Y108.25126903553299 I0 J-4.751269035532995
G3 X144.7030456852792 Y107.5761421319797 I1.4670050761421318 J-4.517766497461929
G3 X143.6522842639594 Y106.5253807106599 I2.7918781725888326 J-3.8426395939086295
G3 X142.9771573604061 Y105.2005076142132 I3.8426395939086295 J-2.7918781725888326
G3 X142.74619289340103 Y103.73350253807106 I4.517766497461929 J-1.4670050761421318
G1 X142.74619289340103 Y103.73350253807106
G1 X142.74619289340103 Y103.73350253807106
G3 X142.9771573604061 Y102.26649746192894 I4.751269035532995 J0
G3 X143.6522842639594 Y100.94162436548224 I4.517766497461929 J1.4670050761421318
G3 X144.7030456852792 Y99.89086294416242 I3.8426395939086295 J2.7918781725888326
G3 X146.02791878172587 Y99.21573604060913 I2.7918781725888326 J3.8426395939086295
G3 X147.494923857868 Y98.98477157360405 I1.4670050761421318 J4.517766497461929
G3 X148.96446700507613 Y99.21573604060913 I0 J4.751269035532995
G3 X150.28680203045684 Y99.89086294416242 I-1.4670050761421318 J4.517766497461929
G3 X151.33756345177665 Y100.94162436548224 I-2.7918781725888326 J3.8426395939086295
G3 X152.01269035532994 Y102.26649746192894 I-3.8426395939086295 J2.7918781725888326
G3 X152.246192893401 Y103.73350253807106 I-4.517766497461929 J1.4670050761421318
G1 X152.246192893401 Y103.73350253807106
G1 X152.246192893401 Y103.73350253807106
G3 X152.01269035532994 Y105.2005076142132 I-4.751269035532995 J0
G1 Z-3 F800
G3 X151.33756345177665 Y106.5253807106599 I-4.517766497461929 J-1.4670050761421318 F1500
G3 X150.28680203045684 Y107.5761421319797 I-3.8426395939086295 J-2.7918781725888326
G3 X148.96446700507613 Y108.25126903553299 I-2.7918781725888326 J-3.8426395939086295
G3 X147.494923857868 Y108.48477157360406 I-1.4670050761421318 J-4.517766497461929
G3 X146.02791878172587 Y108.25126903553299 I0 J-4.751269035532995
G3 X144.7030456852792 Y107.5761421319797 I1.4670050761421318 J-4.517766497461929
G3 X143.6522842639594 Y106.5253807106599 I2.7918781725888326 J-3.8426395939086295
G3 X142.9771573604061 Y105.2005076142132 I3.8426395939086295 J-2.7918781725888326
G3 X142.74619289340103 Y103.73350253807106 I4.517766497461929 J-1.4670050761421318
G1 X142.74619289340103 Y103.73350253807106
G1 X142.74619289340103 Y103.73350253807106
G3 X142.9771573604061 Y102.26649746192894 I4.751269035532995 J0
G3 X143.6522842639594 Y100.94162436548224 I4.517766497461929 J1.4670050761421318
G3 X144.7030456852792 Y99.89086294416242 I3.8426395939086295 J2.7918781725888326
G3 X146.02791878172587 Y99.21573604060913 I2.7918781725888326 J3.8426395939086295
G3 X147.494923857868 Y98.98477157360405 I1.4670050761421318 J4.517766497461929
G3 X148.96446700507613 Y99.21573604060913 I0 J4.751269035532995
G3 X150.28680203045684 Y99.89086294416242 I-1.4670050761421318 J4.517766497461929
G3 X151.33756345177665 Y100.94162436548224 I-2.7918781725888326 J3.8426395939086295
G3 X152.01269035532994 Y102.26649746192894 I-3.8426395939086295 J2.7918781725888326
G3 X152.246192893401 Y103.73350253807106 I-4.517766497461929 J1.4670050761421318
G1 X152.246192893401 Y103.73350253807106
G1 X152.246192893401 Y103.73350253807106
G3 X152.01269035532994 Y105.2005076142132 I-4.751269035532995 J0
G1 Z-4.5 F800
G3 X151.33756345177665 Y106.5253807106599 I-4.517766497461929 J-1.4670050761421318 F1500
G3 X150.28680203045684 Y107.5761421319797 I-3.8426395939086295 J-2.7918781725888326
G3 X148.96446700507613 Y108.25126903553299 I-2.7918781725888326 J-3.8426395939086295
G3 X147.494923857868 Y108.48477157360406 I-1.4670050761421318 J-4.517766497461929
G3 X146.02791878172587 Y108.25126903553299 I0 J-4.751269035532995
G3 X144.7030456852792 Y107.5761421319797 I1.4670050761421318 J-4.517766497461929
G3 X143.6522842639594 Y106.5253807106599 I2.7918781725888326 J-3.8426395939086295
G3 X142.9771573604061 Y105.2005076142132 I3.8426395939086295 J-2.7918781725888326
G3 X142.74619289340103 Y103.73350253807106 I4.517766497461929 J-1.4670050761421318
G1 X142.74619289340103 Y103.73350253807106
G1 X142.74619289340103 Y103.73350253807106
G3 X142.9771573604061 Y102.26649746192894 I4.751269035532995 J0
G3 X143.6522842639594 Y100.94162436548224 I4.517766497461929 J1.4670050761421318
G3 X144.7030456852792 Y99.89086294416242 I3.8426395939086295 J2.7918781725888326
G3 X146.02791878172587 Y99.21573604060913 I2.7918781725888326 J3.8426395939086295
G3 X147.494923857868 Y98.98477157360405 I1.4670050761421318 J4.517766497461929
G3 X148.96446700507613 Y99.21573604060913 I0 J4.751269035532995
G3 X150.28680203045684 Y99.89086294416242 I-1.4670050761421318 J4.517766497461929
G3 X151.33756345177665 Y100.94162436548224 I-2.7918781725888326 J3.8426395939086295
G3 X152.01269035532994 Y102.26649746192894 I-3.8426395939086295 J2.7918781725888326
G3 X152.246192893401 Y103.73350253807106 I-4.517766497461929 J1.4670050761421318
G1 X152.246192893401 Y103.73350253807106
G1 X152.246192893401 Y103.73350253807106
G3 X152.01269035532994 Y105.2005076142132 I-4.751269035532995 J0
G1 Z-6 F800
G3 X151.33756345177665 Y106.5253807106599 I-4.517766497461929 J-1.4670050761421318 F1500
G3 X150.28680203045684 Y107.5761421319797 I-3.8426395939086295 J-2.7918781725888326
G3 X148.96446700507613 Y108.25126903553299 I-2.7918781725888326 J-3.8426395939086295
G3 X147.494923857868 Y108.48477157360406 I-1.4670050761421318 J-4.517766497461929
G3 X146.02791878172587 Y108.25126903553299 I0 J-4.751269035532995
G3 X144.7030456852792 Y107.5761421319797 I1.4670050761421318 J-4.517766497461929
G3 X143.6522842639594 Y106.5253807106599 I2.7918781725888326 J-3.8426395939086295
G3 X142.9771573604061 Y105.2005076142132 I3.8426395939086295 J-2.7918781725888326
G3 X142.74619289340103 Y103.73350253807106 I4.517766497461929 J-1.4670050761421318
G1 X142.74619289340103 Y103.73350253807106
G1 X142.74619289340103 Y103.73350253807106
G3 X142.9771573604061 Y102.26649746192894 I4.751269035532995 J0
G3 X143.6522842639594 Y100.94162436548224 I4.517766497461929 J1.4670050761421318
G3 X144.7030456852792 Y99.89086294416242 I3.8426395939086295 J2.7918781725888326
G3 X146.02791878172587 Y99.21573604060913 I2.7918781725888326 J3.8426395939086295
G3 X147.494923857868 Y98.98477157360405 I1.4670050761421318 J4.517766497461929
G3 X148.96446700507613 Y99.21573604060913 I0 J4.751269035532995
G3 X150.28680203045684 Y99.89086294416242 I-1.4670050761421318 J4.517766497461929
G3 X151.33756345177665 Y100.94162436548224 I-2.7918781725888326 J3.8426395939086295
G3 X152.01269035532994 Y102.26649746192894 I-3.8426395939086295 J2.7918781725888326
G3 X152.246192893401 Y103.73350253807106 I-4.517766497461929 J1.4670050761421318
G1 X152.246192893401 Y103.73350253807106
G1 X152.246192893401 Y103.73350253807106
G3 X152.01269035532994 Y105.2005076142132 I-4.751269035532995 J0
G1 Z-7 F800
G3 X151.33756345177665 Y106.5253807106599 I-4.517766497461929 J-1.4670050761421318 F1500
G3 X150.28680203045684 Y107.5761421319797 I-3.8426395939086295 J-2.7918781725888326
G3 X148.96446700507613 Y108.25126903553299 I-2.7918781725888326 J-3.8426395939086295
G3 X147.494923857868 Y108.48477157360406 I-1.4670050761421318 J-4.517766497461929
G3 X146.02791878172587 Y108.25126903553299 I0 J-4.751269035532995
G3 X144.7030456852792 Y107.5761421319797 I1.4670050761421318 J-4.517766497461929
G3 X143.6522842639594 Y106.5253807106599 I2.7918781725888326 J-3.8426395939086295
G3 X142.9771573604061 Y105.2005076142132 I3.8426395939086295 J-2.7918781725888326
G3 X142.74619289340103 Y103.73350253807106 I4.517766497461929 J-1.4670050761421318
G1 X142.74619289340103 Y103.73350253807106
G1 X142.74619289340103 Y103.73350253807106
G3 X142.9771573604061 Y102.26649746192894 I4.751269035532995 J0
G3 X143.6522842639594 Y100.94162436548224 I4.517766497461929 J1.4670050761421318
G3 X144.7030456852792 Y99.89086294416242 I3.8426395939086295 J2.7918781725888326
G3 X146.02791878172587 Y99.21573604060913 I2.7918781725888326 J3.8426395939086295
G3 X147.494923857868 Y98.98477157360405 I1.4670050761421318 J4.517766497461929
G3 X148.96446700507613 Y99.21573604060913 I0 J4.751269035532995
G3 X150.28680203045684 Y99.89086294416242 I-1.4670050761421318 J4.517766497461929
G3 X151.33756345177665 Y100.94162436548224 I-2.7918781725888326 J3.8426395939086295
G3 X152.01269035532994 Y102.26649746192894 I-3.8426395939086295 J2.7918781725888326
G3 X152.246192893401 Y103.73350253807106 I-4.517766497461929 J1.4670050761421318
G1 X152.246192893401 Y103.73350253807106
G1 X152.246192893401 Y103.73350253807106
G3 X152.01269035532994 Y105.2005076142132 I-4.751269035532995 J0
G0 Z15
G0 X250.26319796954314 Y31.19238578680203
G1 Z-1.5 F800
G3 X249.58883248730962 Y32.51522842639594 I-4.517766497461929 J-1.4670050761421318 F1500
G3 X248.53807106598987 Y33.568527918781726 I-3.8426395939086295 J-2.7918781725888326
G3 X247.21319796954316 Y34.24111675126903 I-2.7918781725888326 J-3.8426395939086295
G3 X245.74619289340103 Y34.474619289340104 I-1.4670050761421318 J-4.517766497461929
G3 X244.2791878172589 Y34.24111675126903 I0 J-4.751269035532995
G3 X242.9543147208122 Y33.568527918781726 I1.4670050761421318 J-4.517766497461929
G3 X241.9035532994924 Y32.51522842639594 I2.7918781725888326 J-3.8426395939086295
G3 X241.2284263959391 Y31.192893401015226 I3.8426395939086295 J-2.7918781725888326
G3 X240.99492385786803 Y29.723350253807105 I4.517766497461929 J-1.4670050761421318
G1 X240.99492385786803 Y29.723350253807105
G1 X240.99492385786803 Y29.723350253807105
G3 X241.2284263959391 Y28.256345177664976 I4.751269035532995 J0
G3 X241.9035532994924 Y26.931472081218274 I4.517766497461929 J1.4670050761421318
G3 X242.9543147208122 Y25.880710659898476 I3.8426395939086295 J2.7918781725888326
G3 X244.2791878172589 Y25.20812182741117 I2.7918781725888326 J3.8426395939086295
G3 X245.74619289340103 Y24.9746192893401 I1.4670050761421318 J4.517766497461929
G3 X247.21319796954316 Y25.20812182741117 I0 J4.751269035532995
G3 X248.53807106598987 Y25.880710659898476 I-1.4670050761421318 J4.517766497461929
G3 X249.58883248730962 Y26.931472081218274 I-2.7918781725888326 J3.8426395939086295
G3 X250.26395939086296 Y28.256345177664976 I-3.8426395939086295 J2.7918781725888326
G3 X250.49492385786803 Y29.723350253807105 I-4.517766497461929 J1.4670050761421318
G1 X250.49492385786803 Y29.723350253807105
G1 X250.49492385786803 Y29.723350253807105
G3 X250.26395939086296 Y31.192893401015226 I-4.751269035532995 J0
G1 Z-3 F800
G3 X249.58883248730962 Y32.51522842639594 I-4.517766497461929 J-1.4670050761421318 F1500
G3 X248.53807106598987 Y33.568527918781726 I-3.8426395939086295 J-2.7918781725888326
G3 X247.21319796954316 Y34.24111675126903 I-2.7918781725888326 J-3.8426395939086295
G3 X245.74619289340103 Y34.474619289340104 I-1.4670050761421318 J-4.517766497461929
G3 X244.2791878172589 Y34.24111675126903 I0 J-4.751269035532995
G3 X242.9543147208122 Y33.568527918781726 I1.4670050761421318 J-4.517766497461929
G3 X241.9035532994924 Y32.51522842639594 I2.7918781725888326 J-3.8426395939086295
G3 X241.2284263959391 Y31.192893401015226 I3.8426395939086295 J-2.7918781725888326
G3 X240.99492385786803 Y29.723350253807105 I4.517766497461929 J-1.4670050761421318
G1 X240.99492385786803 Y29.723350253807105
G1 X240.99492385786803 Y29.723350253807105
G3 X241.2284263959391 Y28.256345177664976 I4.751269035532995 J0
G3 X241.9035532994924 Y26.931472081218274 I4.517766497461929 J1.4670050761421318
G3 X242.9543147208122 Y25.880710659898476 I3.8426395939086295 J2.7918781725888326
G3 X244.2791878172589 Y25.20812182741117 I2.7918781725888326 J3.8426395939086295
G3 X245.74619289340103 Y24.9746192893401 I1.4670050761421318 J4.517766497461929
G3 X247.21319796954316 Y25.20812182741117 I0 J4.751269035532995
G3 X248.53807106598987 Y25.880710659898476 I-1.4670050761421318 J4.517766497461929
G3 X249.58883248730962 Y26.931472081218274 I-2.7918781725888326 J3.8426395939086295
G3 X250.26395939086296 Y28.256345177664976 I-3.8426395939086295 J2.7918781725888326
G3 X250.49492385786803 Y29.723350253807105 I-4.517766497461929 J1.4670050761421318
G1 X250.49492385786803 Y29.723350253807105
G1 X250.49492385786803 Y29.723350253807105
G3 X250.26395939086296 Y31.192893401015226 I-4.751269035532995 J0
G1 Z-4.5 F800
G3 X249.58883248730962 Y32.51522842639594 I-4.517766497461929 J-1.4670050761421318 F1500
G3 X248.53807106598987 Y33.568527918781726 I-3.8426395939086295 J-2.7918781725888326
G3 X247.21319796954316 Y34.24111675126903 I-2.7918781725888326 J-3.8426395939086295
G3 X245.74619289340103 Y34.474619289340104 I-1.4670050761421318 J-4.517766497461929
G3 X244.2791878172589 Y34.24111675126903 I0 J-4.751269035532995
G3 X242.9543147208122 Y33.568527918781726 I1.4670050761421318 J-4.517766497461929
G3 X241.9035532994924 Y32.51522842639594 I2.7918781725888326 J-3.8426395939086295
G3 X241.2284263959391 Y31.192893401015226 I3.8426395939086295 J-2.7918781725888326
G3 X240.99492385786803 Y29.723350253807105 I4.517766497461929 J-1.4670050761421318
G1 X240.99492385786803 Y29.723350253807105
G1 X240.99492385786803 Y29.723350253807105
G3 X241.2284263959391 Y28.256345177664976 I4.751269035532995 J0
G3 X241.9035532994924 Y26.931472081218274 I4.517766497461929 J1.4670050761421318
G3 X242.9543147208122 Y25.880710659898476 I3.8426395939086295 J2.7918781725888326
G3 X244.2791878172589 Y25.20812182741117 I2.7918781725888326 J3.8426395939086295
G3 X245.74619289340103 Y24.9746192893401 I1.4670050761421318 J4.517766497461929
G3 X247.21319796954316 Y25.20812182741117 I0 J4.751269035532995
G3 X248.53807106598987 Y25.880710659898476 I-1.4670050761421318 J4.517766497461929
G3 X249.58883248730962 Y26.931472081218274 I-2.7918781725888326 J3.8426395939086295
G3 X250.26395939086296 Y28.256345177664976 I-3.8426395939086295 J2.7918781725888326
G3 X250.49492385786803 Y29.723350253807105 I-4.517766497461929 J1.4670050761421318
G1 X250.49492385786803 Y29.723350253807105
G1 X250.49492385786803 Y29.723350253807105
G3 X250.26395939086296 Y31.192893401015226 I-4.751269035532995 J0
G1 Z-6 F800
G3 X249.58883248730962 Y32.51522842639594 I-4.517766497461929 J-1.4670050761421318 F1500
G3 X248.53807106598987 Y33.568527918781726 I-3.8426395939086295 J-2.7918781725888326
G3 X247.21319796954316 Y34.24111675126903 I-2.7918781725888326 J-3.8426395939086295
G3 X245.74619289340103 Y34.474619289340104 I-1.4670050761421318 J-4.517766497461929
G3 X244.2791878172589 Y34.24111675126903 I0 J-4.751269035532995
G3 X242.9543147208122 Y33.568527918781726 I1.4670050761421318 J-4.517766497461929
G3 X241.9035532994924 Y32.51522842639594 I2.7918781725888326 J-3.8426395939086295
G3 X241.2284263959391 Y31.192893401015226 I3.8426395939086295 J-2.7918781725888326
G3 X240.99492385786803 Y29.723350253807105 I4.517766497461929 J-1.4670050761421318
G1 X240.99492385786803 Y29.723350253807105
G1 X240.99492385786803 Y29.723350253807105
G3 X241.2284263959391 Y28.256345177664976 I4.751269035532995 J0
G3 X241.9035532994924 Y26.931472081218274 I4.517766497461929 J1.4670050761421318
G3 X242.9543147208122 Y25.880710659898476 I3.8426395939086295 J2.7918781725888326
G3 X244.2791878172589 Y25.20812182741117 I2.7918781725888326 J3.8426395939086295
G3 X245.74619289340103 Y24.9746192893401 I1.4670050761421318 J4.517766497461929
G3 X247.21319796954316 Y25.20812182741117 I0 J4.751269035532995
G3 X248.53807106598987 Y25.880710659898476 I-1.4670050761421318 J4.517766497461929
G3 X249.58883248730962 Y26.931472081218274 I-2.7918781725888326 J3.8426395939086295
G3 X250.26395939086296 Y28.256345177664976 I-3.8426395939086295 J2.7918781725888326
G3 X250.49492385786803 Y29.723350253807105 I-4.517766497461929 J1.4670050761421318
G1 X250.49492385786803 Y29.723350253807105
G1 X250.49492385786803 Y29.723350253807105
G3 X250.26395939086296 Y31.192893401015226 I-4.751269035532995 J0
G1 Z-7 F800
G3 X249.58883248730962 Y32.51522842639594 I-4.517766497461929 J-1.4670050761421318 F1500
G3 X248.53807106598987 Y33.568527918781726 I-3.8426395939086295 J-2.7918781725888326
G3 X247.21319796954316 Y34.24111675126903 I-2.7918781725888326 J-3.8426395939086295
G3 X245.74619289340103 Y34.474619289340104 I-1.4670050761421318 J-4.517766497461929
G3 X244.2791878172589 Y34.24111675126903 I0 J-4.751269035532995
G3 X242.9543147208122 Y33.568527918781726 I1.4670050761421318 J-4.517766497461929
G3 X241.9035532994924 Y32.51522842639594 I2.7918781725888326 J-3.8426395939086295
G3 X241.2284263959391 Y31.192893401015226 I3.8426395939086295 J-2.7918781725888326
G3 X240.99492385786803 Y29.723350253807105 I4.517766497461929 J-1.4670050761421318
G1 X240.99492385786803 Y29.723350253807105
G1 X240.99492385786803 Y29.723350253807105
G3 X241.2284263959391 Y28.256345177664976 I4.751269035532995 J0
G3 X241.9035532994924 Y26.931472081218274 I4.517766497461929 J1.4670050761421318
G3 X242.9543147208122 Y25.880710659898476 I3.8426395939086295 J2.7918781725888326
G3 X244.2791878172589 Y25.20812182741117 I2.7918781725888326 J3.8426395939086295
G3 X245.74619289340103 Y24.9746192893401 I1.4670050761421318 J4.517766497461929
G3 X247.21319796954316 Y25.20812182741117 I0 J4.751269035532995
G3 X248.53807106598987 Y25.880710659898476 I-1.4670050761421318 J4.517766497461929
G3 X249.58883248730962 Y26.931472081218274 I-2.7918781725888326 J3.8426395939086295
G3 X250.26395939086296 Y28.256345177664976 I-3.8426395939086295 J2.7918781725888326
G3 X250.49492385786803 Y29.723350253807105 I-4.517766497461929 J1.4670050761421318
G1 X250.49492385786803 Y29.723350253807105
G1 X250.49492385786803 Y29.723350253807105
G3 X250.26395939086296 Y31.192893401015226 I-4.751269035532995 J0
G0 Z15
G0 X250.26319796954314 Y105.20152284263959
G1 Z-1.5 F800
G3 X249.58883248730962 Y106.5253807106599 I-4.517766497461929 J-1.4670050761421318 F1500
G3 X248.53807106598987 Y107.5761421319797 I-3.8426395939086295 J-2.7918781725888326
G3 X247.21319796954316 Y108.25126903553299 I-2.7918781725888326 J-3.8426395939086295
G3 X245.74619289340103 Y108.48477157360406 I-1.4670050761421318 J-4.517766497461929
G3 X244.2791878172589 Y108.25126903553299 I0 J-4.751269035532995
G3 X242.9543147208122 Y107.5761421319797 I1.4670050761421318 J-4.517766497461929
G3 X241.9035532994924 Y106.5253807106599 I2.7918781725888326 J-3.8426395939086295
G3 X241.2284263959391 Y105.2005076142132 I3.8426395939086295 J-2.7918781725888326
G3 X240.99492385786803 Y103.73350253807106 I4.517766497461929 J-1.4670050761421318
G1 X240.99492385786803 Y103.73350253807106
G1 X240.99492385786803 Y103.73350253807106
G3 X241.2284263959391 Y102.26649746192894 I4.751269035532995 J0
G3 X241.9035532994924 Y100.94162436548224 I4.517766497461929 J1.4670050761421318
G3 X242.9543147208122 Y99.89086294416242 I3.8426395939086295 J2.7918781725888326
G3 X244.2791878172589 Y99.21573604060913 I2.7918781725888326 J3.8426395939086295
G3 X245.74619289340103 Y98.98477157360405 I1.4670050761421318 J4.517766497461929
G3 X247.21319796954316 Y99.21573604060913 I0 J4.751269035532995
G3 X248.53807106598987 Y99.89086294416242 I-1.4670050761421318 J4.517766497461929
G3 X249.58883248730962 Y100.94162436548224 I-2.7918781725888326 J3.8426395939086295
G3 X250.26395939086296 Y102.26649746192894 I-3.8426395939086295 J2.7918781725888326
G3 X250.49492385786803 Y103.73350253807106 I-4.517766497461929 J1.4670050761421318
G1 X250.49492385786803 Y103.73350253807106
G1 X250.49492385786803 Y103.73350253807106
G3 X250.26395939086296 Y105.2005076142132 I-4.751269035532995 J0
G1 Z-3 F800
G3 X249.58883248730962 Y106.5253807106599 I-4.517766497461929 J-1.4670050761421318 F1500
G3 X248.53807106598987 Y107.5761421319797 I-3.8426395939086295 J-2.7918781725888326
G3 X247.21319796954316 Y108.25126903553299 I-2.7918781725888326 J-3.8426395939086295
G3 X245.74619289340103 Y108.48477157360406 I-1.4670050761421318 J-4.517766497461929
G3 X244.2791878172589 Y108.25126903553299 I0 J-4.751269035532995
G3 X242.9543147208122 Y107.5761421319797 I1.4670050761421318 J-4.517766497461929
G3 X241.9035532994924 Y106.5253807106599 I2.7918781725888326 J-3.8426395939086295
G3 X241.2284263959391 Y105.2005076142132 I3.8426395939086295 J-2.7918781725888326
G3 X240.99492385786803 Y103.73350253807106 I4.517766497461929 J-1.4670050761421318
G1 X240.99492385786803 Y103.73350253807106
G1 X240.99492385786803 Y103.73350253807106
G3 X241.2284263959391 Y102.26649746192894 I4.751269035532995 J0
G3 X241.9035532994924 Y100.94162436548224 I4.517766497461929 J1.4670050761421318
G3 X242.9543147208122 Y99.89086294416242 I3.8426395939086295 J2.7918781725888326
G3 X244.2791878172589 Y99.21573604060913 I2.7918781725888326 J3.8426395939086295
G3 X245.74619289340103 Y98.98477157360405 I1.4670050761421318 J4.517766497461929
G3 X247.21319796954316 Y99.21573604060913 I0 J4.751269035532995
G3 X248.53807106598987 Y99.89086294416242 I-1.4670050761421318 J4.517766497461929
G3 X249.58883248730962 Y100.94162436548224 I-2.7918781725888326 J3.8426395939086295
G3 X250.26395939086296 Y102.26649746192894 I-3.8426395939086295 J2.7918781725888326
G3 X250.49492385786803 Y103.73350253807106 I-4.517766497461929 J1.4670050761421318
G1 X250.49492385786803 Y103.73350253807106
G1 X250.49492385786803 Y103.73350253807106
G3 X250.26395939086296 Y105.2005076142132 I-4.751269035532995 J0
G1 Z-4.5 F800
G3 X249.58883248730962 Y106.5253807106599 I-4.517766497461929 J-1.4670050761421318 F1500
G3 X248.53807106598987 Y107.5761421319797 I-3.8426395939086295 J-2.7918781725888326
G3 X247.21319796954316 Y108.25126903553299 I-2.7918781725888326 J-3.8426395939086295
G3 X245.74619289340103 Y108.48477157360406 I-1.4670050761421318 J-4.517766497461929
G3 X244.2791878172589 Y108.25126903553299 I0 J-4.751269035532995
G3 X242.9543147208122 Y107.5761421319797 I1.4670050761421318 J-4.517766497461929
G3 X241.9035532994924 Y106.5253807106599 I2.7918781725888326 J-3.8426395939086295
G3 X241.2284263959391 Y105.2005076142132 I3.8426395939086295 J-2.7918781725888326
G3 X240.99492385786803 Y103.73350253807106 I4.517766497461929 J-1.4670050761421318
G1 X240.99492385786803 Y103.73350253807106
G1 X240.99492385786803 Y103.73350253807106
G3 X241.2284263959391 Y102.26649746192894 I4.751269035532995 J0
G3 X241.9035532994924 Y100.94162436548224 I4.517766497461929 J1.4670050761421318
G3 X242.9543147208122 Y99.89086294416242 I3.8426395939086295 J2.7918781725888326
G3 X244.2791878172589 Y99.21573604060913 I2.7918781725888326 J3.8426395939086295
G3 X245.74619289340103 Y98.98477157360405 I1.4670050761421318 J4.517766497461929
G3 X247.21319796954316 Y99.21573604060913 I0 J4.751269035532995
G3 X248.53807106598987 Y99.89086294416242 I-1.4670050761421318 J4.517766497461929
G3 X249.58883248730962 Y100.94162436548224 I-2.7918781725888326 J3.8426395939086295
G3 X250.26395939086296 Y102.26649746192894 I-3.8426395939086295 J2.7918781725888326
G3 X250.49492385786803 Y103.73350253807106 I-4.517766497461929 J1.4670050761421318
G1 X250.49492385786803 Y103.73350253807106
G1 X250.49492385786803 Y103.73350253807106
G3 X250.26395939086296 Y105.2005076142132 I-4.751269035532995 J0
G1 Z-6 F800
G3 X249.58883248730962 Y106.5253807106599 I-4.517766497461929 J-1.4670050761421318 F1500
G3 X248.53807106598987 Y107.5761421319797 I-3.8426395939086295 J-2.7918781725888326
G3 X247.21319796954316 Y108.25126903553299 I-2.7918781725888326 J-3.8426395939086295
G3 X245.74619289340103 Y108.48477157360406 I-1.4670050761421318 J-4.517766497461929
G3 X244.2791878172589 Y108.25126903553299 I0 J-4.751269035532995
G3 X242.9543147208122 Y107.5761421319797 I1.4670050761421318 J-4.517766497461929
G3 X241.9035532994924 Y106.5253807106599 I2.7918781725888326 J-3.8426395939086295
G3 X241.2284263959391 Y105.2005076142132 I3.8426395939086295 J-2.7918781725888326
G3 X240.99492385786803 Y103.73350253807106 I4.517766497461929 J-1.4670050761421318
G1 X240.99492385786803 Y103.73350253807106
G1 X240.99492385786803 Y103.73350253807106
G3 X241.2284263959391 Y102.26649746192894 I4.751269035532995 J0
G3 X241.9035532994924 Y100.94162436548224 I4.517766497461929 J1.4670050761421318
G3 X242.9543147208122 Y99.89086294416242 I3.8426395939086295 J2.7918781725888326
G3 X244.2791878172589 Y99.21573604060913 I2.7918781725888326 J3.8426395939086295
G3 X245.74619289340103 Y98.98477157360405 I1.4670050761421318 J4.517766497461929
G3 X247.21319796954316 Y99.21573604060913 I0 J4.751269035532995
G3 X248.53807106598987 Y99.89086294416242 I-1.4670050761421318 J4.517766497461929
G3 X249.58883248730962 Y100.94162436548224 I-2.7918781725888326 J3.8426395939086295
G3 X250.26395939086296 Y102.26649746192894 I-3.8426395939086295 J2.7918781725888326
G3 X250.49492385786803 Y103.73350253807106 I-4.517766497461929 J1.4670050761421318
G1 X250.49492385786803 Y103.73350253807106
G1 X250.49492385786803 Y103.73350253807106
G3 X250.26395939086296 Y105.2005076142132 I-4.751269035532995 J0
G1 Z-7 F800
G3 X249.58883248730962 Y106.5253807106599 I-4.517766497461929 J-1.4670050761421318 F1500
G3 X248.53807106598987 Y107.5761421319797 I-3.8426395939086295 J-2.7918781725888326
G3 X247.21319796954316 Y108.25126903553299 I-2.7918781725888326 J-3.8426395939086295
G3 X245.74619289340103 Y108.48477157360406 I-1.4670050761421318 J-4.517766497461929
G3 X244.2791878172589 Y108.25126903553299 I0 J-4.751269035532995
G3 X242.9543147208122 Y107.5761421319797 I1.4670050761421318 J-4.517766497461929
G3 X241.9035532994924 Y106.5253807106599 I2.7918781725888326 J-3.8426395939086295
G3 X241.2284263959391 Y105.2005076142132 I3.8426395939086295 J-2.7918781725888326
G3 X240.99492385786803 Y103.73350253807106 I4.517766497461929 J-1.4670050761421318
G1 X240.99492385786803 Y103.73350253807106
G1 X240.99492385786803 Y103.73350253807106
G3 X241.2284263959391 Y102.26649746192894 I4.751269035532995 J0
G3 X241.9035532994924 Y100.94162436548224 I4.517766497461929 J1.4670050761421318
G3 X242.9543147208122 Y99.89086294416242 I3.8426395939086295 J2.7918781725888326
G3 X244.2791878172589 Y99.21573604060913 I2.7918781725888326 J3.8426395939086295
G3 X245.74619289340103 Y98.98477157360405 I1.4670050761421318 J4.517766497461929
G3 X247.21319796954316 Y99.21573604060913 I0 J4.751269035532995
G3 X248.53807106598987 Y99.89086294416242 I-1.4670050761421318 J4.517766497461929
G3 X249.58883248730962 Y100.94162436548224 I-2.7918781725888326 J3.8426395939086295
G3 X250.26395939086296 Y102.26649746192894 I-3.8426395939086295 J2.7918781725888326
G3 X250.49492385786803 Y103.73350253807106 I-4.517766497461929 J1.4670050761421318
G1 X250.49492385786803 Y103.73350253807106
G1 X250.49492385786803 Y103.73350253807106
G3 X250.26395939086296 Y105.2005076142132 I-4.751269035532995 J0
G0 Z15
G0 X152.01319796954314 Y31.19238578680203
G1 Z-1.5 F800
G3 X151.33756345177665 Y32.51522842639594 I-4.517766497461929 J-1.4670050761421318 F1500
G3 X150.28680203045684 Y33.568527918781726 I-3.8426395939086295 J-2.7918781725888326
G3 X148.96446700507613 Y34.24111675126903 I-2.7918781725888326 J-3.8426395939086295
G3 X147.494923857868 Y34.474619289340104 I-1.4670050761421318 J-4.517766497461929
G3 X146.02791878172587 Y34.24111675126903 I0 J-4.751269035532995
G3 X144.7030456852792 Y33.568527918781726 I1.4670050761421318 J-4.517766497461929
G3 X143.6522842639594 Y32.51522842639594 I2.7918781725888326 J-3.8426395939086295
G3 X142.9771573604061 Y31.192893401015226 I3.8426395939086295 J-2.7918781725888326
G3 X142.74619289340103 Y29.723350253807105 I4.517766497461929 J-1.4670050761421318
G1 X142.74619289340103 Y29.723350253807105
G1 X142.74619289340103 Y29.723350253807105
