(Generated by PartKam Version 0.05)

G21 G90 G40

(usb)
G0 Z15
T0 M6
G17
M3
G0 X92.12081218274112 Y17.470812182741117
G1 Z-1.5 F800
G1 X80.12182741116752 Y17.46954314720812 F1500
G1 X80.12182741116752 Y12.469543147208121
G1 X92.1218274111675 Y12.469543147208121
G1 X92.1218274111675 Y17.46954314720812
G1 Z-3 F800
G1 X80.12182741116752 Y17.46954314720812 F1500
G1 X80.12182741116752 Y12.469543147208121
G1 X92.1218274111675 Y12.469543147208121
G1 X92.1218274111675 Y17.46954314720812
G1 Z-4.5 F800
G1 X80.12182741116752 Y17.46954314720812 F1500
G1 X80.12182741116752 Y12.469543147208121
G1 X92.1218274111675 Y12.469543147208121
G1 X92.1218274111675 Y17.46954314720812
G1 Z-6 F800
G1 X80.12182741116752 Y17.46954314720812 F1500
G1 X80.12182741116752 Y12.469543147208121
G1 X92.1218274111675 Y12.469543147208121
G1 X92.1218274111675 Y17.46954314720812
G1 Z-7 F800
G1 X80.12182741116752 Y17.46954314720812 F1500
G1 X80.12182741116752 Y12.469543147208121
G1 X92.1218274111675 Y12.469543147208121
G1 X92.1218274111675 Y17.46954314720812

(bordure)
G0 Z15
G0 X0.12081218274111676 Y-1.3791878172588832
G1 Z-1.5 F800
G1 X319.1218274111675 Y-1.3781725888324872 F1500
G3 X320.6218274111675 Y0.1218274111675127 I0 J1.5
G1 X320.6218274111675 Y118.53553299492387
G3 X319.1218274111675 Y120.03553299492387 I-1.5 J0
G1 X0.1218274111675127 Y120.03553299492387
G3 X-1.3781725888324872 Y118.53553299492387 I0 J-1.5
G1 X-1.3781725888324872 Y0.1218274111675127
G3 X0.1218274111675127 Y-1.3781725888324872 I1.5 J0
G1 Z-3 F800
G1 X319.1218274111675 Y-1.3781725888324872 F1500
G3 X320.6218274111675 Y0.1218274111675127 I0 J1.5
G1 X320.6218274111675 Y118.53553299492387
G3 X319.1218274111675 Y120.03553299492387 I-1.5 J0
G1 X0.1218274111675127 Y120.03553299492387
G3 X-1.3781725888324872 Y118.53553299492387 I0 J-1.5
G1 X-1.3781725888324872 Y0.1218274111675127
G3 X0.1218274111675127 Y-1.3781725888324872 I1.5 J0
G1 Z-4.5 F800
G1 X319.1218274111675 Y-1.3781725888324872 F1500
G3 X320.6218274111675 Y0.1218274111675127 I0 J1.5
G1 X320.6218274111675 Y118.53553299492387
G3 X319.1218274111675 Y120.03553299492387 I-1.5 J0
G1 X0.1218274111675127 Y120.03553299492387
G3 X-1.3781725888324872 Y118.53553299492387 I0 J-1.5
G1 X-1.3781725888324872 Y0.1218274111675127
G3 X0.1218274111675127 Y-1.3781725888324872 I1.5 J0
G1 Z-6 F800
G1 X319.1218274111675 Y-1.3781725888324872 F1500
G3 X320.6218274111675 Y0.1218274111675127 I0 J1.5
G1 X320.6218274111675 Y118.53553299492387
G3 X319.1218274111675 Y120.03553299492387 I-1.5 J0
G1 X0.1218274111675127 Y120.03553299492387
G3 X-1.3781725888324872 Y118.53553299492387 I0 J-1.5
G1 X-1.3781725888324872 Y0.1218274111675127
G3 X0.1218274111675127 Y-1.3781725888324872 I1.5 J0
G1 Z-7 F800
G1 X319.1218274111675 Y-1.3781725888324872 F1500
G3 X320.6218274111675 Y0.1218274111675127 I0 J1.5
G1 X320.6218274111675 Y118.53553299492387
G3 X319.1218274111675 Y120.03553299492387 I-1.5 J0
G1 X0.1218274111675127 Y120.03553299492387
G3 X-1.3781725888324872 Y118.53553299492387 I0 J-1.5
G1 X-1.3781725888324872 Y0.1218274111675127
G3 X0.1218274111675127 Y-1.3781725888324872 I1.5 J0
G0 Z15
M5
M30
