(Generated by PartKam Version 0.05)

G21 G90 G40

(trou charniere)
G0 Z15
T0 M6
G17
M3
G0 X12.04746192893401 Y242.66624365482232
G1 Z-1.5 F800
G3 X11.83502538071066 Y243.08375634517768 I-1.4263959390862944 J-0.4619289340101523 F1500
G3 X11.502538071065992 Y243.41624365482232 I-1.2131979695431472 J-0.8807106598984772
G3 X11.083756345177665 Y243.62944162436548 I-0.8807106598984772 J-1.2131979695431472
G3 X10.621827411167512 Y243.70304568527916 I-0.46446700507614214 J-1.4263959390862944
G3 X10.157360406091371 Y243.62944162436548 I0 J-1.5
G3 X9.738578680203046 Y243.41624365482232 I0.46446700507614214 J-1.4263959390862944
G3 X9.406091370558375 Y243.08375634517768 I0.8807106598984772 J-1.2131979695431472
G3 X9.192893401015228 Y242.66751269035535 I1.2131979695431472 J-0.8807106598984772
G3 X9.121827411167512 Y242.2030456852792 I1.4263959390862944 J-0.4619289340101523
G1 X9.121827411167512 Y242.2030456852792
G1 X9.121827411167512 Y242.2005076142132
G3 X9.192893401015228 Y241.73857868020306 I1.5 J0
G3 X9.406091370558375 Y241.3197969543147 I1.4263959390862944 J0.4619289340101523
G3 X9.738578680203046 Y240.98730964467006 I1.2131979695431472 J0.8807106598984772
G3 X10.157360406091371 Y240.7741116751269 I0.8807106598984772 J1.2131979695431472
G3 X10.621827411167512 Y240.70050761421322 I0.46446700507614214 J1.4263959390862944
G3 X11.083756345177665 Y240.7741116751269 I0 J1.5
G3 X11.502538071065992 Y240.98730964467006 I-0.46446700507614214 J1.4263959390862944
G3 X11.83502538071066 Y241.3197969543147 I-0.8807106598984772 J1.2131979695431472
G3 X12.048223350253807 Y241.73857868020306 I-1.2131979695431472 J0.8807106598984772
G3 X12.121827411167512 Y242.2005076142132 I-1.4263959390862944 J0.4619289340101523
G1 X12.121827411167512 Y242.2030456852792
G1 X12.121827411167512 Y242.2030456852792
G3 X12.048223350253807 Y242.66751269035535 I-1.5 J0
G1 Z-3 F800
G3 X11.83502538071066 Y243.08375634517768 I-1.4263959390862944 J-0.4619289340101523 F1500
G3 X11.502538071065992 Y243.41624365482232 I-1.2131979695431472 J-0.8807106598984772
G3 X11.083756345177665 Y243.62944162436548 I-0.8807106598984772 J-1.2131979695431472
G3 X10.621827411167512 Y243.70304568527916 I-0.46446700507614214 J-1.4263959390862944
G3 X10.157360406091371 Y243.62944162436548 I0 J-1.5
G3 X9.738578680203046 Y243.41624365482232 I0.46446700507614214 J-1.4263959390862944
G3 X9.406091370558375 Y243.08375634517768 I0.8807106598984772 J-1.2131979695431472
G3 X9.192893401015228 Y242.66751269035535 I1.2131979695431472 J-0.8807106598984772
G3 X9.121827411167512 Y242.2030456852792 I1.4263959390862944 J-0.4619289340101523
G1 X9.121827411167512 Y242.2030456852792
G1 X9.121827411167512 Y242.2005076142132
G3 X9.192893401015228 Y241.73857868020306 I1.5 J0
G3 X9.406091370558375 Y241.3197969543147 I1.4263959390862944 J0.4619289340101523
G3 X9.738578680203046 Y240.98730964467006 I1.2131979695431472 J0.8807106598984772
G3 X10.157360406091371 Y240.7741116751269 I0.8807106598984772 J1.2131979695431472
G3 X10.621827411167512 Y240.70050761421322 I0.46446700507614214 J1.4263959390862944
G3 X11.083756345177665 Y240.7741116751269 I0 J1.5
G3 X11.502538071065992 Y240.98730964467006 I-0.46446700507614214 J1.4263959390862944
G3 X11.83502538071066 Y241.3197969543147 I-0.8807106598984772 J1.2131979695431472
G3 X12.048223350253807 Y241.73857868020306 I-1.2131979695431472 J0.8807106598984772
G3 X12.121827411167512 Y242.2005076142132 I-1.4263959390862944 J0.4619289340101523
G1 X12.121827411167512 Y242.2030456852792
G1 X12.121827411167512 Y242.2030456852792
G3 X12.048223350253807 Y242.66751269035535 I-1.5 J0
G1 Z-4.5 F800
G3 X11.83502538071066 Y243.08375634517768 I-1.4263959390862944 J-0.4619289340101523 F1500
G3 X11.502538071065992 Y243.41624365482232 I-1.2131979695431472 J-0.8807106598984772
G3 X11.083756345177665 Y243.62944162436548 I-0.8807106598984772 J-1.2131979695431472
G3 X10.621827411167512 Y243.70304568527916 I-0.46446700507614214 J-1.4263959390862944
G3 X10.157360406091371 Y243.62944162436548 I0 J-1.5
G3 X9.738578680203046 Y243.41624365482232 I0.46446700507614214 J-1.4263959390862944
G3 X9.406091370558375 Y243.08375634517768 I0.8807106598984772 J-1.2131979695431472
G3 X9.192893401015228 Y242.66751269035535 I1.2131979695431472 J-0.8807106598984772
G3 X9.121827411167512 Y242.2030456852792 I1.4263959390862944 J-0.4619289340101523
G1 X9.121827411167512 Y242.2030456852792
G1 X9.121827411167512 Y242.2005076142132
G3 X9.192893401015228 Y241.73857868020306 I1.5 J0
G3 X9.406091370558375 Y241.3197969543147 I1.4263959390862944 J0.4619289340101523
G3 X9.738578680203046 Y240.98730964467006 I1.2131979695431472 J0.8807106598984772
G3 X10.157360406091371 Y240.7741116751269 I0.8807106598984772 J1.2131979695431472
G3 X10.621827411167512 Y240.70050761421322 I0.46446700507614214 J1.4263959390862944
G3 X11.083756345177665 Y240.7741116751269 I0 J1.5
G3 X11.502538071065992 Y240.98730964467006 I-0.46446700507614214 J1.4263959390862944
G3 X11.83502538071066 Y241.3197969543147 I-0.8807106598984772 J1.2131979695431472
G3 X12.048223350253807 Y241.73857868020306 I-1.2131979695431472 J0.8807106598984772
G3 X12.121827411167512 Y242.2005076142132 I-1.4263959390862944 J0.4619289340101523
G1 X12.121827411167512 Y242.2030456852792
G1 X12.121827411167512 Y242.2030456852792
G3 X12.048223350253807 Y242.66751269035535 I-1.5 J0
G1 Z-6 F800
G3 X11.83502538071066 Y243.08375634517768 I-1.4263959390862944 J-0.4619289340101523 F1500
G3 X11.502538071065992 Y243.41624365482232 I-1.2131979695431472 J-0.8807106598984772
G3 X11.083756345177665 Y243.62944162436548 I-0.8807106598984772 J-1.2131979695431472
G3 X10.621827411167512 Y243.70304568527916 I-0.46446700507614214 J-1.4263959390862944
G3 X10.157360406091371 Y243.62944162436548 I0 J-1.5
G3 X9.738578680203046 Y243.41624365482232 I0.46446700507614214 J-1.4263959390862944
G3 X9.406091370558375 Y243.08375634517768 I0.8807106598984772 J-1.2131979695431472
G3 X9.192893401015228 Y242.66751269035535 I1.2131979695431472 J-0.8807106598984772
G3 X9.121827411167512 Y242.2030456852792 I1.4263959390862944 J-0.4619289340101523
G1 X9.121827411167512 Y242.2030456852792
G1 X9.121827411167512 Y242.2005076142132
G3 X9.192893401015228 Y241.73857868020306 I1.5 J0
G3 X9.406091370558375 Y241.3197969543147 I1.4263959390862944 J0.4619289340101523
G3 X9.738578680203046 Y240.98730964467006 I1.2131979695431472 J0.8807106598984772
G3 X10.157360406091371 Y240.7741116751269 I0.8807106598984772 J1.2131979695431472
G3 X10.621827411167512 Y240.70050761421322 I0.46446700507614214 J1.4263959390862944
G3 X11.083756345177665 Y240.7741116751269 I0 J1.5
G3 X11.502538071065992 Y240.98730964467006 I-0.46446700507614214 J1.4263959390862944
G3 X11.83502538071066 Y241.3197969543147 I-0.8807106598984772 J1.2131979695431472
G3 X12.048223350253807 Y241.73857868020306 I-1.2131979695431472 J0.8807106598984772
G3 X12.121827411167512 Y242.2005076142132 I-1.4263959390862944 J0.4619289340101523
G1 X12.121827411167512 Y242.2030456852792
G1 X12.121827411167512 Y242.2030456852792
G3 X12.048223350253807 Y242.66751269035535 I-1.5 J0
G1 Z-7 F800
G3 X11.83502538071066 Y243.08375634517768 I-1.4263959390862944 J-0.4619289340101523 F1500
G3 X11.502538071065992 Y243.41624365482232 I-1.2131979695431472 J-0.8807106598984772
G3 X11.083756345177665 Y243.62944162436548 I-0.8807106598984772 J-1.2131979695431472
G3 X10.621827411167512 Y243.70304568527916 I-0.46446700507614214 J-1.4263959390862944
G3 X10.157360406091371 Y243.62944162436548 I0 J-1.5
G3 X9.738578680203046 Y243.41624365482232 I0.46446700507614214 J-1.4263959390862944
G3 X9.406091370558375 Y243.08375634517768 I0.8807106598984772 J-1.2131979695431472
G3 X9.192893401015228 Y242.66751269035535 I1.2131979695431472 J-0.8807106598984772
G3 X9.121827411167512 Y242.2030456852792 I1.4263959390862944 J-0.4619289340101523
G1 X9.121827411167512 Y242.2030456852792
G1 X9.121827411167512 Y242.2005076142132
G3 X9.192893401015228 Y241.73857868020306 I1.5 J0
G3 X9.406091370558375 Y241.3197969543147 I1.4263959390862944 J0.4619289340101523
G3 X9.738578680203046 Y240.98730964467006 I1.2131979695431472 J0.8807106598984772
G3 X10.157360406091371 Y240.7741116751269 I0.8807106598984772 J1.2131979695431472
G3 X10.621827411167512 Y240.70050761421322 I0.46446700507614214 J1.4263959390862944
G3 X11.083756345177665 Y240.7741116751269 I0 J1.5
G3 X11.502538071065992 Y240.98730964467006 I-0.46446700507614214 J1.4263959390862944
G3 X11.83502538071066 Y241.3197969543147 I-0.8807106598984772 J1.2131979695431472
G3 X12.048223350253807 Y241.73857868020306 I-1.2131979695431472 J0.8807106598984772
G3 X12.121827411167512 Y242.2005076142132 I-1.4263959390862944 J0.4619289340101523
G1 X12.121827411167512 Y242.2030456852792
G1 X12.121827411167512 Y242.2030456852792
G3 X12.048223350253807 Y242.66751269035535 I-1.5 J0
G0 Z15
G0 X9.194162436548224 Y14.738324873096447
G1 Z-1.5 F800
G3 X9.406091370558375 Y14.319796954314722 I1.4263959390862944 J0.4619289340101523 F1500
G3 X9.738578680203046 Y13.987309644670052 I1.2131979695431472 J0.8807106598984772
G3 X10.157360406091371 Y13.774111675126903 I0.8807106598984772 J1.2131979695431472
G3 X10.621827411167512 Y13.700507614213198 I0.46446700507614214 J1.4263959390862944
G3 X11.083756345177665 Y13.774111675126903 I0 J1.5
G3 X11.502538071065992 Y13.987309644670052 I-0.46446700507614214 J1.4263959390862944
G3 X11.83502538071066 Y14.319796954314722 I-0.8807106598984772 J1.2131979695431472
G3 X12.048223350253807 Y14.738578680203045 I-1.2131979695431472 J0.8807106598984772
G3 X12.121827411167512 Y15.2005076142132 I-1.4263959390862944 J0.4619289340101523
G1 X12.121827411167512 Y15.20304568527919
G1 X12.121827411167512 Y15.20304568527919
G3 X12.048223350253807 Y15.66751269035533 I-1.5 J0
G3 X11.83502538071066 Y16.083756345177665 I-1.4263959390862944 J-0.4619289340101523
G3 X11.502538071065992 Y16.416243654822335 I-1.2131979695431472 J-0.8807106598984772
G3 X11.083756345177665 Y16.629441624365484 I-0.8807106598984772 J-1.2131979695431472
G3 X10.621827411167512 Y16.703045685279186 I-0.46446700507614214 J-1.4263959390862944
G3 X10.157360406091371 Y16.629441624365484 I0 J-1.5
G3 X9.738578680203046 Y16.416243654822335 I0.46446700507614214 J-1.4263959390862944
G3 X9.406091370558375 Y16.083756345177665 I0.8807106598984772 J-1.2131979695431472
G3 X9.192893401015228 Y15.66751269035533 I1.2131979695431472 J-0.8807106598984772
G3 X9.121827411167512 Y15.20304568527919 I1.4263959390862944 J-0.4619289340101523
G1 X9.121827411167512 Y15.20304568527919
G1 X9.121827411167512 Y15.2005076142132
G3 X9.192893401015228 Y14.738578680203045 I1.5 J0
G1 Z-3 F800
G3 X9.406091370558375 Y14.319796954314722 I1.4263959390862944 J0.4619289340101523 F1500
G3 X9.738578680203046 Y13.987309644670052 I1.2131979695431472 J0.8807106598984772
G3 X10.157360406091371 Y13.774111675126903 I0.8807106598984772 J1.2131979695431472
G3 X10.621827411167512 Y13.700507614213198 I0.46446700507614214 J1.4263959390862944
G3 X11.083756345177665 Y13.774111675126903 I0 J1.5
G3 X11.502538071065992 Y13.987309644670052 I-0.46446700507614214 J1.4263959390862944
G3 X11.83502538071066 Y14.319796954314722 I-0.8807106598984772 J1.2131979695431472
G3 X12.048223350253807 Y14.738578680203045 I-1.2131979695431472 J0.8807106598984772
G3 X12.121827411167512 Y15.2005076142132 I-1.4263959390862944 J0.4619289340101523
G1 X12.121827411167512 Y15.20304568527919
G1 X12.121827411167512 Y15.20304568527919
G3 X12.048223350253807 Y15.66751269035533 I-1.5 J0
G3 X11.83502538071066 Y16.083756345177665 I-1.4263959390862944 J-0.4619289340101523
G3 X11.502538071065992 Y16.416243654822335 I-1.2131979695431472 J-0.8807106598984772
G3 X11.083756345177665 Y16.629441624365484 I-0.8807106598984772 J-1.2131979695431472
G3 X10.621827411167512 Y16.703045685279186 I-0.46446700507614214 J-1.4263959390862944
G3 X10.157360406091371 Y16.629441624365484 I0 J-1.5
G3 X9.738578680203046 Y16.416243654822335 I0.46446700507614214 J-1.4263959390862944
G3 X9.406091370558375 Y16.083756345177665 I0.8807106598984772 J-1.2131979695431472
G3 X9.192893401015228 Y15.66751269035533 I1.2131979695431472 J-0.8807106598984772
G3 X9.121827411167512 Y15.20304568527919 I1.4263959390862944 J-0.4619289340101523
G1 X9.121827411167512 Y15.20304568527919
G1 X9.121827411167512 Y15.2005076142132
G3 X9.192893401015228 Y14.738578680203045 I1.5 J0
G1 Z-4.5 F800
G3 X9.406091370558375 Y14.319796954314722 I1.4263959390862944 J0.4619289340101523 F1500
G3 X9.738578680203046 Y13.987309644670052 I1.2131979695431472 J0.8807106598984772
G3 X10.157360406091371 Y13.774111675126903 I0.8807106598984772 J1.2131979695431472
G3 X10.621827411167512 Y13.700507614213198 I0.46446700507614214 J1.4263959390862944
G3 X11.083756345177665 Y13.774111675126903 I0 J1.5
G3 X11.502538071065992 Y13.987309644670052 I-0.46446700507614214 J1.4263959390862944
G3 X11.83502538071066 Y14.319796954314722 I-0.8807106598984772 J1.2131979695431472
G3 X12.048223350253807 Y14.738578680203045 I-1.2131979695431472 J0.8807106598984772
G3 X12.121827411167512 Y15.2005076142132 I-1.4263959390862944 J0.4619289340101523
G1 X12.121827411167512 Y15.20304568527919
G1 X12.121827411167512 Y15.20304568527919
G3 X12.048223350253807 Y15.66751269035533 I-1.5 J0
G3 X11.83502538071066 Y16.083756345177665 I-1.4263959390862944 J-0.4619289340101523
G3 X11.502538071065992 Y16.416243654822335 I-1.2131979695431472 J-0.8807106598984772
G3 X11.083756345177665 Y16.629441624365484 I-0.8807106598984772 J-1.2131979695431472
G3 X10.621827411167512 Y16.703045685279186 I-0.46446700507614214 J-1.4263959390862944
G3 X10.157360406091371 Y16.629441624365484 I0 J-1.5
G3 X9.738578680203046 Y16.416243654822335 I0.46446700507614214 J-1.4263959390862944
G3 X9.406091370558375 Y16.083756345177665 I0.8807106598984772 J-1.2131979695431472
G3 X9.192893401015228 Y15.66751269035533 I1.2131979695431472 J-0.8807106598984772
G3 X9.121827411167512 Y15.20304568527919 I1.4263959390862944 J-0.4619289340101523
G1 X9.121827411167512 Y15.20304568527919
G1 X9.121827411167512 Y15.2005076142132
G3 X9.192893401015228 Y14.738578680203045 I1.5 J0
G1 Z-6 F800
G3 X9.406091370558375 Y14.319796954314722 I1.4263959390862944 J0.4619289340101523 F1500
G3 X9.738578680203046 Y13.987309644670052 I1.2131979695431472 J0.8807106598984772
G3 X10.157360406091371 Y13.774111675126903 I0.8807106598984772 J1.2131979695431472
G3 X10.621827411167512 Y13.700507614213198 I0.46446700507614214 J1.4263959390862944
G3 X11.083756345177665 Y13.774111675126903 I0 J1.5
G3 X11.502538071065992 Y13.987309644670052 I-0.46446700507614214 J1.4263959390862944
G3 X11.83502538071066 Y14.319796954314722 I-0.8807106598984772 J1.2131979695431472
G3 X12.048223350253807 Y14.738578680203045 I-1.2131979695431472 J0.8807106598984772
G3 X12.121827411167512 Y15.2005076142132 I-1.4263959390862944 J0.4619289340101523
G1 X12.121827411167512 Y15.20304568527919
G1 X12.121827411167512 Y15.20304568527919
G3 X12.048223350253807 Y15.66751269035533 I-1.5 J0
G3 X11.83502538071066 Y16.083756345177665 I-1.4263959390862944 J-0.4619289340101523
G3 X11.502538071065992 Y16.416243654822335 I-1.2131979695431472 J-0.8807106598984772
G3 X11.083756345177665 Y16.629441624365484 I-0.8807106598984772 J-1.2131979695431472
G3 X10.621827411167512 Y16.703045685279186 I-0.46446700507614214 J-1.4263959390862944
G3 X10.157360406091371 Y16.629441624365484 I0 J-1.5
G3 X9.738578680203046 Y16.416243654822335 I0.46446700507614214 J-1.4263959390862944
G3 X9.406091370558375 Y16.083756345177665 I0.8807106598984772 J-1.2131979695431472
G3 X9.192893401015228 Y15.66751269035533 I1.2131979695431472 J-0.8807106598984772
G3 X9.121827411167512 Y15.20304568527919 I1.4263959390862944 J-0.4619289340101523
G1 X9.121827411167512 Y15.20304568527919
G1 X9.121827411167512 Y15.2005076142132
G3 X9.192893401015228 Y14.738578680203045 I1.5 J0
G1 Z-7 F800
G3 X9.406091370558375 Y14.319796954314722 I1.4263959390862944 J0.4619289340101523 F1500
G3 X9.738578680203046 Y13.987309644670052 I1.2131979695431472 J0.8807106598984772
G3 X10.157360406091371 Y13.774111675126903 I0.8807106598984772 J1.2131979695431472
G3 X10.621827411167512 Y13.700507614213198 I0.46446700507614214 J1.4263959390862944
G3 X11.083756345177665 Y13.774111675126903 I0 J1.5
G3 X11.502538071065992 Y13.987309644670052 I-0.46446700507614214 J1.4263959390862944
G3 X11.83502538071066 Y14.319796954314722 I-0.8807106598984772 J1.2131979695431472
G3 X12.048223350253807 Y14.738578680203045 I-1.2131979695431472 J0.8807106598984772
G3 X12.121827411167512 Y15.2005076142132 I-1.4263959390862944 J0.4619289340101523
G1 X12.121827411167512 Y15.20304568527919
G1 X12.121827411167512 Y15.20304568527919
G3 X12.048223350253807 Y15.66751269035533 I-1.5 J0
G3 X11.83502538071066 Y16.083756345177665 I-1.4263959390862944 J-0.4619289340101523
G3 X11.502538071065992 Y16.416243654822335 I-1.2131979695431472 J-0.8807106598984772
G3 X11.083756345177665 Y16.629441624365484 I-0.8807106598984772 J-1.2131979695431472
G3 X10.621827411167512 Y16.703045685279186 I-0.46446700507614214 J-1.4263959390862944
G3 X10.157360406091371 Y16.629441624365484 I0 J-1.5
G3 X9.738578680203046 Y16.416243654822335 I0.46446700507614214 J-1.4263959390862944
G3 X9.406091370558375 Y16.083756345177665 I0.8807106598984772 J-1.2131979695431472
G3 X9.192893401015228 Y15.66751269035533 I1.2131979695431472 J-0.8807106598984772
G3 X9.121827411167512 Y15.20304568527919 I1.4263959390862944 J-0.4619289340101523
G1 X9.121827411167512 Y15.20304568527919
G1 X9.121827411167512 Y15.2005076142132
G3 X9.192893401015228 Y14.738578680203045 I1.5 J0
G0 Z15
G0 X9.194162436548224 Y41.738324873096445
G1 Z-1.5 F800
G3 X9.406091370558375 Y41.31979695431472 I1.4263959390862944 J0.4619289340101523 F1500
G3 X9.738578680203046 Y40.98730964467005 I1.2131979695431472 J0.8807106598984772
G3 X10.157360406091371 Y40.7741116751269 I0.8807106598984772 J1.2131979695431472
G3 X10.621827411167512 Y40.7005076142132 I0.46446700507614214 J1.4263959390862944
G3 X11.083756345177665 Y40.7741116751269 I0 J1.5
G3 X11.502538071065992 Y40.98730964467005 I-0.46446700507614214 J1.4263959390862944
G3 X11.83502538071066 Y41.31979695431472 I-0.8807106598984772 J1.2131979695431472
G3 X12.048223350253807 Y41.73857868020305 I-1.2131979695431472 J0.8807106598984772
G3 X12.121827411167512 Y42.200507614213194 I-1.4263959390862944 J0.4619289340101523
G1 X12.121827411167512 Y42.203045685279186
G1 X12.121827411167512 Y42.203045685279186
G3 X12.048223350253807 Y42.66751269035532 I-1.5 J0
G3 X11.83502538071066 Y43.08375634517766 I-1.4263959390862944 J-0.4619289340101523
G3 X11.502538071065992 Y43.41624365482233 I-1.2131979695431472 J-0.8807106598984772
G3 X11.083756345177665 Y43.629441624365484 I-0.8807106598984772 J-1.2131979695431472
G3 X10.621827411167512 Y43.70304568527919 I-0.46446700507614214 J-1.4263959390862944
G3 X10.157360406091371 Y43.629441624365484 I0 J-1.5
G3 X9.738578680203046 Y43.41624365482233 I0.46446700507614214 J-1.4263959390862944
G3 X9.406091370558375 Y43.08375634517766 I0.8807106598984772 J-1.2131979695431472
G3 X9.192893401015228 Y42.66751269035532 I1.2131979695431472 J-0.8807106598984772
G3 X9.121827411167512 Y42.203045685279186 I1.4263959390862944 J-0.4619289340101523
G1 X9.121827411167512 Y42.203045685279186
G1 X9.121827411167512 Y42.200507614213194
G3 X9.192893401015228 Y41.73857868020305 I1.5 J0
G1 Z-3 F800
G3 X9.406091370558375 Y41.31979695431472 I1.4263959390862944 J0.4619289340101523 F1500
G3 X9.738578680203046 Y40.98730964467005 I1.2131979695431472 J0.8807106598984772
G3 X10.157360406091371 Y40.7741116751269 I0.8807106598984772 J1.2131979695431472
G3 X10.621827411167512 Y40.7005076142132 I0.46446700507614214 J1.4263959390862944
G3 X11.083756345177665 Y40.7741116751269 I0 J1.5
G3 X11.502538071065992 Y40.98730964467005 I-0.46446700507614214 J1.4263959390862944
G3 X11.83502538071066 Y41.31979695431472 I-0.8807106598984772 J1.2131979695431472
G3 X12.048223350253807 Y41.73857868020305 I-1.2131979695431472 J0.8807106598984772
G3 X12.121827411167512 Y42.200507614213194 I-1.4263959390862944 J0.4619289340101523
G1 X12.121827411167512 Y42.203045685279186
G1 X12.121827411167512 Y42.203045685279186
G3 X12.048223350253807 Y42.66751269035532 I-1.5 J0
G3 X11.83502538071066 Y43.08375634517766 I-1.4263959390862944 J-0.4619289340101523
G3 X11.502538071065992 Y43.41624365482233 I-1.2131979695431472 J-0.8807106598984772
G3 X11.083756345177665 Y43.629441624365484 I-0.8807106598984772 J-1.2131979695431472
G3 X10.621827411167512 Y43.70304568527919 I-0.46446700507614214 J-1.4263959390862944
G3 X10.157360406091371 Y43.629441624365484 I0 J-1.5
G3 X9.738578680203046 Y43.41624365482233 I0.46446700507614214 J-1.4263959390862944
G3 X9.406091370558375 Y43.08375634517766 I0.8807106598984772 J-1.2131979695431472
G3 X9.192893401015228 Y42.66751269035532 I1.2131979695431472 J-0.8807106598984772
G3 X9.121827411167512 Y42.203045685279186 I1.4263959390862944 J-0.4619289340101523
G1 X9.121827411167512 Y42.203045685279186
G1 X9.121827411167512 Y42.200507614213194
G3 X9.192893401015228 Y41.73857868020305 I1.5 J0
G1 Z-4.5 F800
G3 X9.406091370558375 Y41.31979695431472 I1.4263959390862944 J0.4619289340101523 F1500
G3 X9.738578680203046 Y40.98730964467005 I1.2131979695431472 J0.8807106598984772
G3 X10.157360406091371 Y40.7741116751269 I0.8807106598984772 J1.2131979695431472
G3 X10.621827411167512 Y40.7005076142132 I0.46446700507614214 J1.4263959390862944
G3 X11.083756345177665 Y40.7741116751269 I0 J1.5
G3 X11.502538071065992 Y40.98730964467005 I-0.46446700507614214 J1.4263959390862944
G3 X11.83502538071066 Y41.31979695431472 I-0.8807106598984772 J1.2131979695431472
G3 X12.048223350253807 Y41.73857868020305 I-1.2131979695431472 J0.8807106598984772
G3 X12.121827411167512 Y42.200507614213194 I-1.4263959390862944 J0.4619289340101523
G1 X12.121827411167512 Y42.203045685279186
G1 X12.121827411167512 Y42.203045685279186
G3 X12.048223350253807 Y42.66751269035532 I-1.5 J0
G3 X11.83502538071066 Y43.08375634517766 I-1.4263959390862944 J-0.4619289340101523
G3 X11.502538071065992 Y43.41624365482233 I-1.2131979695431472 J-0.8807106598984772
G3 X11.083756345177665 Y43.629441624365484 I-0.8807106598984772 J-1.2131979695431472
G3 X10.621827411167512 Y43.70304568527919 I-0.46446700507614214 J-1.4263959390862944
G3 X10.157360406091371 Y43.629441624365484 I0 J-1.5
G3 X9.738578680203046 Y43.41624365482233 I0.46446700507614214 J-1.4263959390862944
G3 X9.406091370558375 Y43.08375634517766 I0.8807106598984772 J-1.2131979695431472
G3 X9.192893401015228 Y42.66751269035532 I1.2131979695431472 J-0.8807106598984772
G3 X9.121827411167512 Y42.203045685279186 I1.4263959390862944 J-0.4619289340101523
G1 X9.121827411167512 Y42.203045685279186
G1 X9.121827411167512 Y42.200507614213194
G3 X9.192893401015228 Y41.73857868020305 I1.5 J0
G1 Z-6 F800
G3 X9.406091370558375 Y41.31979695431472 I1.4263959390862944 J0.4619289340101523 F1500
G3 X9.738578680203046 Y40.98730964467005 I1.2131979695431472 J0.8807106598984772
G3 X10.157360406091371 Y40.7741116751269 I0.8807106598984772 J1.2131979695431472
G3 X10.621827411167512 Y40.7005076142132 I0.46446700507614214 J1.4263959390862944
G3 X11.083756345177665 Y40.7741116751269 I0 J1.5
G3 X11.502538071065992 Y40.98730964467005 I-0.46446700507614214 J1.4263959390862944
G3 X11.83502538071066 Y41.31979695431472 I-0.8807106598984772 J1.2131979695431472
G3 X12.048223350253807 Y41.73857868020305 I-1.2131979695431472 J0.8807106598984772
G3 X12.121827411167512 Y42.200507614213194 I-1.4263959390862944 J0.4619289340101523
G1 X12.121827411167512 Y42.203045685279186
G1 X12.121827411167512 Y42.203045685279186
G3 X12.048223350253807 Y42.66751269035532 I-1.5 J0
G3 X11.83502538071066 Y43.08375634517766 I-1.4263959390862944 J-0.4619289340101523
G3 X11.502538071065992 Y43.41624365482233 I-1.2131979695431472 J-0.8807106598984772
G3 X11.083756345177665 Y43.629441624365484 I-0.8807106598984772 J-1.2131979695431472
G3 X10.621827411167512 Y43.70304568527919 I-0.46446700507614214 J-1.4263959390862944
G3 X10.157360406091371 Y43.629441624365484 I0 J-1.5
G3 X9.738578680203046 Y43.41624365482233 I0.46446700507614214 J-1.4263959390862944
G3 X9.406091370558375 Y43.08375634517766 I0.8807106598984772 J-1.2131979695431472
G3 X9.192893401015228 Y42.66751269035532 I1.2131979695431472 J-0.8807106598984772
G3 X9.121827411167512 Y42.203045685279186 I1.4263959390862944 J-0.4619289340101523
G1 X9.121827411167512 Y42.203045685279186
G1 X9.121827411167512 Y42.200507614213194
G3 X9.192893401015228 Y41.73857868020305 I1.5 J0
G1 Z-7 F800
G3 X9.406091370558375 Y41.31979695431472 I1.4263959390862944 J0.4619289340101523 F1500
G3 X9.738578680203046 Y40.98730964467005 I1.2131979695431472 J0.8807106598984772
G3 X10.157360406091371 Y40.7741116751269 I0.8807106598984772 J1.2131979695431472
G3 X10.621827411167512 Y40.7005076142132 I0.46446700507614214 J1.4263959390862944
G3 X11.083756345177665 Y40.7741116751269 I0 J1.5
G3 X11.502538071065992 Y40.98730964467005 I-0.46446700507614214 J1.4263959390862944
G3 X11.83502538071066 Y41.31979695431472 I-0.8807106598984772 J1.2131979695431472
G3 X12.048223350253807 Y41.73857868020305 I-1.2131979695431472 J0.8807106598984772
G3 X12.121827411167512 Y42.200507614213194 I-1.4263959390862944 J0.4619289340101523
G1 X12.121827411167512 Y42.203045685279186
G1 X12.121827411167512 Y42.203045685279186
G3 X12.048223350253807 Y42.66751269035532 I-1.5 J0
G3 X11.83502538071066 Y43.08375634517766 I-1.4263959390862944 J-0.4619289340101523
G3 X11.502538071065992 Y43.41624365482233 I-1.2131979695431472 J-0.8807106598984772
G3 X11.083756345177665 Y43.629441624365484 I-0.8807106598984772 J-1.2131979695431472
G3 X10.621827411167512 Y43.70304568527919 I-0.46446700507614214 J-1.4263959390862944
G3 X10.157360406091371 Y43.629441624365484 I0 J-1.5
G3 X9.738578680203046 Y43.41624365482233 I0.46446700507614214 J-1.4263959390862944
G3 X9.406091370558375 Y43.08375634517766 I0.8807106598984772 J-1.2131979695431472
G3 X9.192893401015228 Y42.66751269035532 I1.2131979695431472 J-0.8807106598984772
G3 X9.121827411167512 Y42.203045685279186 I1.4263959390862944 J-0.4619289340101523
G1 X9.121827411167512 Y42.203045685279186
G1 X9.121827411167512 Y42.200507614213194
G3 X9.192893401015228 Y41.73857868020305 I1.5 J0
G0 Z15
G0 X9.194162436548224 Y214.73832487309645
G1 Z-1.5 F800
G3 X9.406091370558375 Y214.3197969543147 I1.4263959390862944 J0.4619289340101523 F1500
G3 X9.738578680203046 Y213.98730964467006 I1.2131979695431472 J0.8807106598984772
G3 X10.157360406091371 Y213.7741116751269 I0.8807106598984772 J1.2131979695431472
G3 X10.621827411167512 Y213.70050761421322 I0.46446700507614214 J1.4263959390862944
G3 X11.083756345177665 Y213.7741116751269 I0 J1.5
G3 X11.502538071065992 Y213.98730964467006 I-0.46446700507614214 J1.4263959390862944
G3 X11.83502538071066 Y214.3197969543147 I-0.8807106598984772 J1.2131979695431472
G3 X12.048223350253807 Y214.73857868020303 I-1.2131979695431472 J0.8807106598984772
G3 X12.121827411167512 Y215.2005076142132 I-1.4263959390862944 J0.4619289340101523
G1 X12.121827411167512 Y215.2030456852792
G1 X12.121827411167512 Y215.2030456852792
G3 X12.048223350253807 Y215.66751269035532 I-1.5 J0
G3 X11.83502538071066 Y216.08375634517768 I-1.4263959390862944 J-0.4619289340101523
G3 X11.502538071065992 Y216.41624365482232 I-1.2131979695431472 J-0.8807106598984772
G3 X11.083756345177665 Y216.62944162436548 I-0.8807106598984772 J-1.2131979695431472
G3 X10.621827411167512 Y216.70304568527916 I-0.46446700507614214 J-1.4263959390862944
G3 X10.157360406091371 Y216.62944162436548 I0 J-1.5
G3 X9.738578680203046 Y216.41624365482232 I0.46446700507614214 J-1.4263959390862944
G3 X9.406091370558375 Y216.08375634517768 I0.8807106598984772 J-1.2131979695431472
G3 X9.192893401015228 Y215.66751269035532 I1.2131979695431472 J-0.8807106598984772
G3 X9.121827411167512 Y215.2030456852792 I1.4263959390862944 J-0.4619289340101523
G1 X9.121827411167512 Y215.2030456852792
G1 X9.121827411167512 Y215.2005076142132
G3 X9.192893401015228 Y214.73857868020303 I1.5 J0
G1 Z-3 F800
G3 X9.406091370558375 Y214.3197969543147 I1.4263959390862944 J0.4619289340101523 F1500
G3 X9.738578680203046 Y213.98730964467006 I1.2131979695431472 J0.8807106598984772
G3 X10.157360406091371 Y213.7741116751269 I0.8807106598984772 J1.2131979695431472
G3 X10.621827411167512 Y213.70050761421322 I0.46446700507614214 J1.4263959390862944
G3 X11.083756345177665 Y213.7741116751269 I0 J1.5
G3 X11.502538071065992 Y213.98730964467006 I-0.46446700507614214 J1.4263959390862944
G3 X11.83502538071066 Y214.3197969543147 I-0.8807106598984772 J1.2131979695431472
G3 X12.048223350253807 Y214.73857868020303 I-1.2131979695431472 J0.8807106598984772
G3 X12.121827411167512 Y215.2005076142132 I-1.4263959390862944 J0.4619289340101523
G1 X12.121827411167512 Y215.2030456852792
G1 X12.121827411167512 Y215.2030456852792
G3 X12.048223350253807 Y215.66751269035532 I-1.5 J0
G3 X11.83502538071066 Y216.08375634517768 I-1.4263959390862944 J-0.4619289340101523
G3 X11.502538071065992 Y216.41624365482232 I-1.2131979695431472 J-0.8807106598984772
G3 X11.083756345177665 Y216.62944162436548 I-0.8807106598984772 J-1.2131979695431472
G3 X10.621827411167512 Y216.70304568527916 I-0.46446700507614214 J-1.4263959390862944
G3 X10.157360406091371 Y216.62944162436548 I0 J-1.5
G3 X9.738578680203046 Y216.41624365482232 I0.46446700507614214 J-1.4263959390862944
G3 X9.406091370558375 Y216.08375634517768 I0.8807106598984772 J-1.2131979695431472
G3 X9.192893401015228 Y215.66751269035532 I1.2131979695431472 J-0.8807106598984772
G3 X9.121827411167512 Y215.2030456852792 I1.4263959390862944 J-0.4619289340101523
G1 X9.121827411167512 Y215.2030456852792
G1 X9.121827411167512 Y215.2005076142132
G3 X9.192893401015228 Y214.73857868020303 I1.5 J0
G1 Z-4.5 F800
G3 X9.406091370558375 Y214.3197969543147 I1.4263959390862944 J0.4619289340101523 F1500
G3 X9.738578680203046 Y213.98730964467006 I1.2131979695431472 J0.8807106598984772
G3 X10.157360406091371 Y213.7741116751269 I0.8807106598984772 J1.2131979695431472
G3 X10.621827411167512 Y213.70050761421322 I0.46446700507614214 J1.4263959390862944
G3 X11.083756345177665 Y213.7741116751269 I0 J1.5
G3 X11.502538071065992 Y213.98730964467006 I-0.46446700507614214 J1.4263959390862944
G3 X11.83502538071066 Y214.3197969543147 I-0.8807106598984772 J1.2131979695431472
G3 X12.048223350253807 Y214.73857868020303 I-1.2131979695431472 J0.8807106598984772
G3 X12.121827411167512 Y215.2005076142132 I-1.4263959390862944 J0.4619289340101523
G1 X12.121827411167512 Y215.2030456852792
G1 X12.121827411167512 Y215.2030456852792
G3 X12.048223350253807 Y215.66751269035532 I-1.5 J0
G3 X11.83502538071066 Y216.08375634517768 I-1.4263959390862944 J-0.4619289340101523
G3 X11.502538071065992 Y216.41624365482232 I-1.2131979695431472 J-0.8807106598984772
G3 X11.083756345177665 Y216.62944162436548 I-0.8807106598984772 J-1.2131979695431472
G3 X10.621827411167512 Y216.70304568527916 I-0.46446700507614214 J-1.4263959390862944
G3 X10.157360406091371 Y216.62944162436548 I0 J-1.5
G3 X9.738578680203046 Y216.41624365482232 I0.46446700507614214 J-1.4263959390862944
G3 X9.406091370558375 Y216.08375634517768 I0.8807106598984772 J-1.2131979695431472
G3 X9.192893401015228 Y215.66751269035532 I1.2131979695431472 J-0.8807106598984772
G3 X9.121827411167512 Y215.2030456852792 I1.4263959390862944 J-0.4619289340101523
G1 X9.121827411167512 Y215.2030456852792
G1 X9.121827411167512 Y215.2005076142132
G3 X9.192893401015228 Y214.73857868020303 I1.5 J0
G1 Z-6 F800
G3 X9.406091370558375 Y214.3197969543147 I1.4263959390862944 J0.4619289340101523 F1500
G3 X9.738578680203046 Y213.98730964467006 I1.2131979695431472 J0.8807106598984772
G3 X10.157360406091371 Y213.7741116751269 I0.8807106598984772 J1.2131979695431472
G3 X10.621827411167512 Y213.70050761421322 I0.46446700507614214 J1.4263959390862944
G3 X11.083756345177665 Y213.7741116751269 I0 J1.5
G3 X11.502538071065992 Y213.98730964467006 I-0.46446700507614214 J1.4263959390862944
G3 X11.83502538071066 Y214.3197969543147 I-0.8807106598984772 J1.2131979695431472
G3 X12.048223350253807 Y214.73857868020303 I-1.2131979695431472 J0.8807106598984772
G3 X12.121827411167512 Y215.2005076142132 I-1.4263959390862944 J0.4619289340101523
G1 X12.121827411167512 Y215.2030456852792
G1 X12.121827411167512 Y215.2030456852792
G3 X12.048223350253807 Y215.66751269035532 I-1.5 J0
G3 X11.83502538071066 Y216.08375634517768 I-1.4263959390862944 J-0.4619289340101523
G3 X11.502538071065992 Y216.41624365482232 I-1.2131979695431472 J-0.8807106598984772
G3 X11.083756345177665 Y216.62944162436548 I-0.8807106598984772 J-1.2131979695431472
G3 X10.621827411167512 Y216.70304568527916 I-0.46446700507614214 J-1.4263959390862944
G3 X10.157360406091371 Y216.62944162436548 I0 J-1.5
G3 X9.738578680203046 Y216.41624365482232 I0.46446700507614214 J-1.4263959390862944
G3 X9.406091370558375 Y216.08375634517768 I0.8807106598984772 J-1.2131979695431472
G3 X9.192893401015228 Y215.66751269035532 I1.2131979695431472 J-0.8807106598984772
G3 X9.121827411167512 Y215.2030456852792 I1.4263959390862944 J-0.4619289340101523
G1 X9.121827411167512 Y215.2030456852792
G1 X9.121827411167512 Y215.2005076142132
G3 X9.192893401015228 Y214.73857868020303 I1.5 J0
G1 Z-7 F800
G3 X9.406091370558375 Y214.3197969543147 I1.4263959390862944 J0.4619289340101523 F1500
G3 X9.738578680203046 Y213.98730964467006 I1.2131979695431472 J0.8807106598984772
G3 X10.157360406091371 Y213.7741116751269 I0.8807106598984772 J1.2131979695431472
G3 X10.621827411167512 Y213.70050761421322 I0.46446700507614214 J1.4263959390862944
G3 X11.083756345177665 Y213.7741116751269 I0 J1.5
G3 X11.502538071065992 Y213.98730964467006 I-0.46446700507614214 J1.4263959390862944
G3 X11.83502538071066 Y214.3197969543147 I-0.8807106598984772 J1.2131979695431472
G3 X12.048223350253807 Y214.73857868020303 I-1.2131979695431472 J0.8807106598984772
G3 X12.121827411167512 Y215.2005076142132 I-1.4263959390862944 J0.4619289340101523
G1 X12.121827411167512 Y215.2030456852792
G1 X12.121827411167512 Y215.2030456852792
G3 X12.048223350253807 Y215.66751269035532 I-1.5 J0
G3 X11.83502538071066 Y216.08375634517768 I-1.4263959390862944 J-0.4619289340101523
G3 X11.502538071065992 Y216.41624365482232 I-1.2131979695431472 J-0.8807106598984772
G3 X11.083756345177665 Y216.62944162436548 I-0.8807106598984772 J-1.2131979695431472
G3 X10.621827411167512 Y216.70304568527916 I-0.46446700507614214 J-1.4263959390862944
G3 X10.157360406091371 Y216.62944162436548 I0 J-1.5
G3 X9.738578680203046 Y216.41624365482232 I0.46446700507614214 J-1.4263959390862944
G3 X9.406091370558375 Y216.08375634517768 I0.8807106598984772 J-1.2131979695431472
G3 X9.192893401015228 Y215.66751269035532 I1.2131979695431472 J-0.8807106598984772
G3 X9.121827411167512 Y215.2030456852792 I1.4263959390862944 J-0.4619289340101523
G1 X9.121827411167512 Y215.2030456852792
G1 X9.121827411167512 Y215.2005076142132
G3 X9.192893401015228 Y214.73857868020303 I1.5 J0

(bordure)
G0 Z15
G0 X0.12081218274111676 Y-1.3791878172588832
G1 Z-1.5 F800
G1 X322.1218274111675 Y-1.3781725888324872 F1500
G3 X323.62182741116754 Y0.1218274111675127 I0 J1.5
G1 X323.62182741116754 Y259.70304568527916
G3 X322.1218274111675 Y261.20304568527916 I-1.5 J0
G1 X0.1218274111675127 Y261.20304568527916
G3 X-1.3781725888324872 Y259.70304568527916 I0 J-1.5
G1 X-1.3781725888324872 Y0.1218274111675127
G3 X0.1218274111675127 Y-1.3781725888324872 I1.5 J0
G1 Z-3 F800
G1 X322.1218274111675 Y-1.3781725888324872 F1500
G3 X323.62182741116754 Y0.1218274111675127 I0 J1.5
G1 X323.62182741116754 Y259.70304568527916
G3 X322.1218274111675 Y261.20304568527916 I-1.5 J0
G1 X0.1218274111675127 Y261.20304568527916
G3 X-1.3781725888324872 Y259.70304568527916 I0 J-1.5
G1 X-1.3781725888324872 Y0.1218274111675127
G3 X0.1218274111675127 Y-1.3781725888324872 I1.5 J0
G1 Z-4.5 F800
G1 X322.1218274111675 Y-1.3781725888324872 F1500
G3 X323.62182741116754 Y0.1218274111675127 I0 J1.5
G1 X323.62182741116754 Y259.70304568527916
G3 X322.1218274111675 Y261.20304568527916 I-1.5 J0
G1 X0.1218274111675127 Y261.20304568527916
G3 X-1.3781725888324872 Y259.70304568527916 I0 J-1.5
G1 X-1.3781725888324872 Y0.1218274111675127
G3 X0.1218274111675127 Y-1.3781725888324872 I1.5 J0
G1 Z-6 F800
G1 X322.1218274111675 Y-1.3781725888324872 F1500
G3 X323.62182741116754 Y0.1218274111675127 I0 J1.5
G1 X323.62182741116754 Y259.70304568527916
G3 X322.1218274111675 Y261.20304568527916 I-1.5 J0
G1 X0.1218274111675127 Y261.20304568527916
G3 X-1.3781725888324872 Y259.70304568527916 I0 J-1.5
G1 X-1.3781725888324872 Y0.1218274111675127
G3 X0.1218274111675127 Y-1.3781725888324872 I1.5 J0
G1 Z-7 F800
G1 X322.1218274111675 Y-1.3781725888324872 F1500
G3 X323.62182741116754 Y0.1218274111675127 I0 J1.5
G1 X323.62182741116754 Y259.70304568527916
G3 X322.1218274111675 Y261.20304568527916 I-1.5 J0
G1 X0.1218274111675127 Y261.20304568527916
G3 X-1.3781725888324872 Y259.70304568527916 I0 J-1.5
G1 X-1.3781725888324872 Y0.1218274111675127
G3 X0.1218274111675127 Y-1.3781725888324872 I1.5 J0
G0 Z15
M5
M30
